/* XPM */
static char *out[] = {
/* columns rows colors chars-per-pixel */
"256 256 69 1 ",
"  c gray6",
". c #151515",
"X c #181616",
"o c #1C1C1C",
"O c #201E1E",
"+ c #1E201E",
"@ c #20201E",
"# c #1E1E20",
"$ c #201E20",
"% c #1E2020",
"& c #252525",
"* c #282727",
"= c #272827",
"- c #282827",
"; c #272728",
": c #282728",
"> c #272828",
", c #2B2B2B",
"< c #302F2F",
"1 c #2F302F",
"2 c #30302F",
"3 c #2F2F30",
"4 c #302F30",
"5 c #2F3030",
"6 c #333333",
"7 c #393737",
"8 c #373937",
"9 c #373739",
"0 c #393739",
"q c #373939",
"w c #3D3D3D",
"e c #413F3F",
"r c #3F413F",
"t c #41413F",
"y c #3F3F41",
"u c #413F41",
"i c #3F4141",
"p c #444545",
"a c #484747",
"s c #474847",
"d c #484847",
"f c #474748",
"g c #484748",
"h c #474848",
"j c #4B4B4B",
"k c #504E4E",
"l c #4E504E",
"z c #50504E",
"x c #4E4E50",
"c c #504E50",
"v c #4E5050",
"b c #535353",
"n c #565856",
"m c #585856",
"M c #585658",
"N c #565858",
"B c #5B5B5B",
"V c #605F5F",
"C c #5F605F",
"Z c #60605F",
"A c #5F5F60",
"S c #605F60",
"D c #626262",
"F c #676867",
"G c #686768",
"H c #6B6B6B",
"J c #6F7070",
"K c #717171",
"L c gray47",
/* pixels */
";;;-;-;-,,,,-,2,&;,,,66,,,-;,,,,6,,6,,5,,;,,,,,,26=-,,6,,,,,,36366,6,,6,,,;;,,666,;;;,;-;;;&-26,=-,;,,;6,,,-,,,,,6,6,,,,,,,,,,266,,,,6,,,,,,,,,,,,,,,,6,,,,-,;;,,,,,,,,,,,,,,4,,,,,,66,,,,,,;;,,6,6,*,,,,6,,,,,,,,,66,,,,6,,,,,;;-6,,,,,,,,=,,,,66<,,&;,;&-,,,,,",
",,,,>=-;56,,*,-*;--;,,,6,,-;;,,6,=,665,,,,,,,7,,7,,622126,,767,,,,,6,,,,,,;=;,,,-,2,;-&,,,;;,,,,,61,,,,,6,;-,,6,,2,,,,,,,2,,,,,,,,;,,,,,,-,*,,,-,,,,,,,2,26,2,-;,,,>,,;,,,,,,47,,,;&,,,,,,;,,-,,6,6,,-;;,,2,,,;,,,-,,,1,,,,46,,,,,6,,,,,6,,=-,,,,,,,-;&-;;--,,6,",
"622,,;,,,,,;,,;,,,&;,2266,,&,,,6,,,77,,,,,,,,>;;,7666266,46666,,,1,,,,5,,,2,;-=,6,6,,-,,552,,,6672,,,,=,<,-,,,,,,62,;,,,,,,,,,,1,,:>,;,,-,;;&;;-,2,,;;2,,,6,,,,,,,,,;,,,,,;,66,,6,;,-2,,,,,,,6,,66,;,,-,,,,6,,;-=,5,,,,,;,,,6,-,,,1,;,6,12,,,,,,,,,,-;;-,,,,,,,2",
",1,,,,,6,,;;,6,,,;&,,-,,76,,,,,,,16,6,6,,,,,,,,;;,,,,,,,,,,4665,,,6>,,,,,,2,,;&;;-,,2,,67,62,,62,,,,6,-;,;,,;,,,,3,6,,,,;,,;,,666,,,,,-,,;,,&;--,66,,,,,,6,6,,,,17,,,,;,,;;,46,,6,=;,,,,,,,=,1,166,,,,-,,,,,,,,-;,5,6,,1,65,,,=,2,,,,,,,,2,;;*,,,,,,,,-,,22,66,,",
",,,,,,56,-&&;,,;-&&&;;,,,,,71,6,,66,,66,>;-,,,66,>12,,666,,,;6,,,6,,,-,,66-,,,,,,-;,,6262,,,--,6,>,66,,&-;,-,-;,2,,,,,;,,,,,,,,6,,,,,,,,-,,,=,,,,,,,,,,,6,,,1,6,6,,,,,,,,,,,,6667,&,,;,,,,,,,,,663616,,,,-,;,,,,,,7,6,,,6,,,,,,26,,,,;,,;,-&-,,,,,,61,-,,,6,5,,,",
"4,6,,,3,,;*,;-;;&;@;-&;;,,,,,6,,,,,,,,6,,,,,,,7,,,,,;;,66,6,;,,,,,,,,;-,,,,,,6,6,---,,,,,1,,;;,6,>-,6,,,;&;,,;,,,,262,-;,,2,,,,156,,,-,;-,,,,,,6,6,,;,,,,,,,,,,,6,,,,;>;,*,,,,,,,,,,,;,,=,7,>,,7,666,,;;;,,;;-,,,,66<-,,,,,;;,2,,,6,,,;,;,,,,16,,,,,6,;;,,,,,,,,",
"6,6,66,5,,--,,;--;&-,,2,,,,,,6,66,;,,,,6366,563,,&,,,6,,6,663,66,,,,,;-,,6,;,,1,,,;-=,,,,,,,,,,,,&;,,66,;;--;,,2,,,,,,,,,,,,;,,,6666,,,,;-;;,6,5,6,,;;-;,,,,,,,6<2,,,;,,,,,,61,,6,,6,<-,,,,6,,,666,,,&&;;;,,&;,=,,,6,,,,,,,-;;,-,,2,,,-,,,,,66,,,,,,,,,;,,,6,,,,",
"667,6775,,,,,,-,-;;,2,62=,,,3,,,15,55,,5,,,,,,,,,,;,,,,,7,566766,,,;-&,,,6662,,,,,;,=;-,&,,,,,*,;&&,,,,,-,,,;,,,,,,,,,,,,,,,;,;-,,,,,,,,;;+&,,56,,,,;,--,6,61,,,,,,,,,1,-,,,,2,6,,,6,,,,6,,,6656,,6,,,;--&@&&,,,>6,76,,6,,;,;,--,,,,,,,,,,,;,,@;,,,,=,,;;,,,,;,5",
"5577667,,,,,,,,,;&;-,,,,6666,,,,,<,66,,6,;;,,,6,*,:,,,,,,,,6,666<4,;,,,,;,,,6,,,,,,,,=,,,,,1,;;-,,,2,-,,,,,,,,-,;,,-*;;;,,,,-,,;=,,,6,,;,,;&,,,6661,,,,,,,,,,,,,;;,,,,,,,,44,6,66,6,,,,,6,,,,6666,,,6,-;&&&;&,;;,,,4<6,,,,,-;3,;,,;;,66-;,,,,,-;&&;,;;,,-,,6,,,6",
",,,46,,3,,,,6,,,,&;--,,6662,,,,;;,,6,:,,,2,,,,,,*&,;:,,,,,66,,,,,,,,,,-;&;,,6,,&,,,,>,,,,,;,;&-,,,,66,,,-;&,,,,,,,;;--;,,,,,,,,>,>,,66,;,,,;,,,,,,,66,,461,,,66,,,,2,,,,,,3644466,5,,,66,,,,,6666,62,,,,,&,-,&&-,,,,,66,,,6,,,,,,,,,,,,;,,,,-;,;@;*--;,;,,,,,,,,",
",,5,56,,6,;-,,-,;;,,,,666,,,*-&;,,,,,;:,,16,,764,;,,,,,,6>,,,65,,:&;,;;**&,,,4,,,;;,,7,,,,;=;&&;,6,,,,=,,;&*;-,,-*;;-,,-;;;,,,::,,,6,74,,,,,,,,,,,,,5666,,,,5,,6,6,,61,,6,,,,6,,,16,44666,61,66,6,,<6,,,,<,,,,&-,,,,,46,,,,22,,,,,,6,,,,2,,,;&,&&;,,-;,,,,16,,;*",
",,66,,6,16,,6,,,;,,,,,,,66,,;,;;,,,,;,,,,21,,46<,,,,4,,:,,,;,,6,,,*&,,,,,;,,:,,6,;&,,61,,;,-*;;:,,,;;,;;;&*,-;;,,*&;;,,-;,,,,,,,,66,4,,,,,,,,,766,6,1,,,,,75,,,,,,,,,,,56,,:6,,,66,,,<,*3,667,,;,,,,<,,*,,2,,-*,,,,,,,,,,,;,6,,6,,2,,::,,,&&&;,,,*---;,,;,2,,,,-",
",,5,>,5,,6,,,;,,,,,,,pbjjzjjjjgswppsjpggppssssjjpppsjjjpsjgjjjjsjjpwspfssjsppgfjspsjsjppppspypfuwspwewuppwppsspuspupppuppsapsjgssjjsssjjjajjjjbjjjjsjdpjjjspspspusueppspsppjjjpjjjgjjjppjjjjjjjjpsppspsgjjspsagjjjjjgjsjjasjjbjjjsjjcjbbjbw,;,,6,;;,,>,,,57,,,,,",
",67,,76,6672;&,,,wBDDDDHHHHDDDSDBBnBBnABnnBBBBSDBnBMBBSnMBBBBBBBBHBnBBDBBBMbMVBBDDBBBBnBnnBbkBBnmDBBbbncbNnBmBBBBMMnBmMBmBBBBABVBSDBBBBBBZSSBSBBVDBBBDBBDSBMnBBnBMBBMMbMBBBBBSMBBDABDBBBDHBBSDDBBBMnSBnMBBBMBBBBBBBDBBBDDBBDBDDDVDBBGHHJKHHHHB7-;,,,,,,,66,,,,66",
",6666,,,;,6,,--wDHDHDDDDHHHHBSSBBDbbMnBnbBMBBBBDBnbMBBDBBBBNBBBDBGnBSBSMnBmbbBBMBBBBBBBMbBbjbnnMBDMnnbbbbnbbbkbnnbnBNnMBnBBBMBBBBDDBMMBnBBnDDBBBBMBBBBDBDBBMMBBBMnnnMBbBBBMBMMBnDDBBDBBBMBBBBDSDBnBnBMMBBBBBMBBmnMMBnMbMBBBBMVBBBBDBBDHHHHHHDHDBw-,-,,,,6,,,,,66",
",,66,,-,,;,<6,wHHHHGHHBBDDHDBSBDBSmnMBnjcbnMnbnMMMbnnbnDBBBBBABBBVbbbMBnMBBnnBBnmBDSBMBbcbjkbbBnBBbbbbbcjcjjkbbbbbbbbcbbbnbbnBBMBBBBBnbnbbnBBBBBMnbnMBBBDBnbbbnMncbjnbnBnnnBnnMnCDBnDBnbnjnBDBBBBbbbnjnnbBSBnMnnMbnnnbnbbbnMnMncbmBnnBBDDHDDHDDHHw,=,,,,,,,,6,66",
",,675,,,,1,,66BDDGDGHDBBMBBBBMBBnnMMBMbjbbcbcjbbnMMBMMMBBbBBBnbBnbjxbbcbbbnBnbbbjcbnbbbjjcsjbbnbnbjbcjjjjjjjnbccjbbbbjbbjnbbbbbnbnbBBBbbbbjnnBNnBBbbnMbBBnbbbbbbvjbcbcbnbnbnbbjbMBMbBncjbbbMBnbnBjjnbjbbbbBnbnncnnnbbbbkgsjjcjbNMbbnMBBSDDDDGDGHHB,,,;,6,,,66626",
",,,65,1,676,5iSDDHDDDBBnbBBnbbBnjbjjbnjkbjjbnbbcjjbnnnnnMnbbbnbMbjbbkjjbbjsgjbbcbjjjbjgggjjjjccjbBbcbjjjgajjjbnbbjjbcbbccncnbbbbbMbnBNbbcjjBcjnBncjbnbbbBbbcjbjbjjjnjlbbjbjjjgjbnbnbBjbbcnbBBMBbbjjjjcjjjcnbccjjccbjcjjjjsjjjjjnNbbcBbnBDBDDDFDHHJw,6,,6,,6,,,,6",
"5,,,,,,56,6,,NDDDHBBSBnjbbbbjnjnbajxncnbjhfjjbbbjjbbbjjgcjpsbckbcjbjssjbjgspssjjjfgsjjpsjjjsjjjsbnjjgjjjspjjcbjbjsjjjbjjjjjbbbbjbnbbjjbbjjbbjjbjbcbjcjgjbBbjjcjjsjjbjjzbpjjjssjbjjjnbaabjjjjMbcjbbjjsgjjgbbcbbjsjjjjssjjfgjgjssbBbjnBbbnBBBDHHHDHHB,26,,,6,,,6,6",
",,,66,61,,613DDDDDDBnMnjjbcjjjjbbjbbjjbbjsjjjppjjjjbjjsjbbjgjbxbbjjbspggbgppgsjjpcjssjjjjjgsjpjsxjjjsjjbjjncjnbcjjjjjbjjgsjxjfjjbbbbcbjbbjjjxbbbjjjbcjsjjcjjjjjgsgjcjjjjjpsspusjssjcjjgjjjssbcsgnjjjppsssgjgbjjsjgbjpsjjpfjjjbjbnbjBbjjbbBZBDDDDHHH*,,,,,,,6,,,6",
"616,;,,67,,6,DDDSSBbjnbbbnbbjjgpgjnMgpjjjjjjsppsjjjbjbjjjbbjjjbnjjjbpssjcsusssjbjjssgxcjapgsppgjjwjcbjjjpsjjjjjwpupjjjssppsfpjsjbjgjkjjjsjsjjjbxjjjjjjssssjjjbjjjgbjggssppuppujcppjsapgjsjpsjnssjpupsggsssspjjspgjjgspppusfjjfsjppgcbjsjjcnBDDDHKLK,,,561,,6<,,6",
",,,,;,,,6,,,wDDDBMnbjcjbkjbbjswpjjjbjscjjsswusfjjjbcjbsfjsjjjbbcjjjjpppjjssjpufjjswpjjsjsssssgjjjgjgbjjjjspcjbjsuppgbjssppspssssjjjjgsjssjjpphjjjsjppsspssjjbjjjgjjjpjpsgpwsjjjbpsjppaajjswgsjgjpsgppjjgspwpugwwpjcjsupsssssppsjgpgpjbjbjnnDHDHHHKKw-,36,6,,,,66",
"64,,,,626,,&jDBASBncbbbjbcjcssppcjjjjssussgsssjusjjjpaassupajssjgpjaspwssjjjppppupjspgjjgjpgjfjxsssjnjbjjskbnjspwypsggjspppssjspppjppugjspajsjjjjjjwpjhsgsjcsdjjjjspwjjsjpsgjpjfsspupsjspsssugjsppsgsjggswsppppwpjsjgspssupjjsjjjjjjpegbbnMBDGDHHGHj,,26,666666,",
",,,566,7,,,,jBBABMMbbnjjjjajppppjbsjjjswpujpjbjsjjjspsgjspwjjjjjjsgpgspwwgjjjgwppjffpsjjjspgssjssujjsjjjjjbxjgswwwspspsppppwsjjspagpppspppushjjjgssjuppppusssjjjjspgsjssgpppsssupuppppspwugppsjjpppspssjsijw0ppwsjpjggpwupppsjjkbbbjpppgbbbBDDHKKHHj,,,6,;;6766,",
",4,66,,,,,,,jBBBmBBbbncbcjkxjspjjBjjjjswpsggspgpsjspsjgjsppjjpsjjjjspjspwwujjsprwjswwpajsrppupjpspsspspgjjfpsppuwpppssfspupwppjpspspupppsspsjspptwpjpiwwpppwpsjsspppsjssspwpwpipwuspprpsp0swsssnxpppppjfypsuwpswssjspjgusjsspppcgsjppfjjbBnDSBFHHHHj,,-,,,,,,,,2",
",66,-;,,,,,6jBDDBBnnBMNncjbbssjjjjjjsjjsppgjgpjpsjgpsjjbjssjjsjjjsswwsswpssjji0wspawpsjppiwsswssuspusssppwsjsspptpw0wwiwwwwppppwwwwswwwppjpiwwiwppiispwrpyppyppsspppwswp0pppr0wr0ppwwppwpwwwspjjjspgssfsssgppusjgsjsssupjjppsgysjjjjpjbbbcjBBBBCBZDz,-,,6,,,;;;,",
",,,,,,,,,626jCDDDBMMkbjjjpjbcjgpupjjpjcbpsjjjgjjsjsppssjcsgsgspsjpwppppppwpisuwrgwywgsjsspippspwwrpeswwp0pppswwpwrwwrwwwprwww0wwwwwpwwpwrwiw70070wrpw0ww0rwrwwwwipppyp0rwpsw00wwwpwwwrp0pwwrpppujjjfspspgsjpuwscjjspsjfjgssssjjcbnjbbjjjjjxbnMBBBBBs,;;,2,,;,-,;",
"6,:,,,,,6,,,jDDDDBBBbjsbnjjbjfspppbjssjjfsjgsfgppsgwuwwpsjjpppwwjwwww0w0wwwwpswpswwwupppwww0707qw800wpw90uww79pw0w806q07800ww0wwww0w00w00677766880w06770w00t00w0w0wwww00w0wr7qq670qwwpwwwwwrpupwpsgpwwprsgjjsujjggjspjjjjgjjjjjkjbjjjgsjsjbbbBMBMnBp&&;*,,,;;,,,",
",,;,,-,67,;,jBDCNBVMbjbnbcspfjpppgjgjsgppspsspsspppwwppsjsshgsw0wiw0q68w7wpwwpwwwwww0wpw0686,67860766q0887q766qq86666,7777767676866667667751806660w6676q677777q788q77qw076807676w00q0760660wrw0w0pprrwppufjcjjbsgpdaaajjjgjjjjgjsxjjjbfjjjzbnMBNnnMeo--;,,-=,,1,",
",;;;,,625,,,jDDBbnnbjjjjssspspppsjjsjppppgupgjjjpppwrpspypwwpw008wwww7w80wwwwwq767qww067867666665776,56776677q7q76666,,6,5665,16666111602,,,,,766666656666,61116677556766668q66q66767666567q0w0q00ppwpwwusjjjjjjgsapgassppwpsjjjsjjjfjpsjjjbnbMnbBBw&&;&,,-;--,,",
",,;,,2,,,;-;jHBBSDMbjsjspjjppjsgjsjjgpwpsppjggppjsswpppp00qqw7777q0qwwww0q07760q68770q,,06566,,,,1,,,,66555715,611,,,,6,,,6,>>,6,,1,,,,,,;;,>166,,6666656,,6,,,566666,6,15,67711181,666661,68797wwrpwiprwsjjjbjjjjapsjsuuwupppsjjjjjpppssgjbbkMBnBnw-;&&,,,;,,;;",
",,-,,,,,,,,,bDDDDSncjjbjjjjppjsgssjjjpwpaasjjcssjjjsppww08666765578867wwww668w066666,,>,,,,,,,,-,,,>,5,,,,,,,,,5,,,;-,,,,,,,,,,,,,,,,,,>;=;>,66,,,1,,,55,,,,,,,116,,,,1,>,,,,,66,1,,555,6661516670w07wpwwjjjjjnjjgpsseppwpppwpppjjkjjsjspjjjMcbSVMNp,;&&,,,,2,-;",
",,,,,,6,1,,3bDSBSBBbkxjjjbjjjjscjgjjbjpsjspjjjjjgjjjspww8075576556776qq8ww5666q65665,,,>;,;;,,,,,;,-;,-=;;,,,:--,;,,,,,,,,,,,,==;;;,,,-;,-,,,-,;1,,,,,,;;,,,,,,,,,,;,,,,,,,;;,262,,,4,;,,666,6,60wwwwwuwsjjwpgjjnjsgspsswuupwwpujjspjjjjusabbbnSDDBp**;;,,26,,;,",
",,,,676,,,,5jDBDSBBnbjjjjbjbnbbjcbjjjjsjww0pjjfsgjjgrt000876565,6658q8677q0q766766665,;,;,;,-,,,,;;*;,,,,,,,,,,*,;;-,,,,,-,-;,,;;-,,1,,;;,;,,,,-,,,,,,,,=-,,,,,,,,;,,,,,,,-,,-,6,,,,,,,2,,6,6,760ww0uwpsjphjspjjjjcgjgpewpwspwsppfjjjjpgppsbMnDDHDSj-;;-,,,,-;,,",
",1,,6,,,,,,6jDDDBMbjjbjBjjjjbjbjcjnbpspjpwwsjspsjfsspipw8755,65,566qw0000q0866667755,,,,,,,,;;;;,,;-,;,,;-;,,,;,,;;,,;,,-,;;;=,,-,,,,,,&;;&,,,,,;;,,,,,;;;-,,,;;,,*;=,;,,;=;2,66,,,,<,,22,,<6680wrwppypppupgjjjjsjbjjjppppppjpsppjjjjjgjgsjnkbBDDBBs;,*;22,,,-,,",
",,,,,66,,,,7jHBDBBnjjjbbnjjgcxbbbbncajgjbjjjjssjjppjssww765556&&&&>,,,,11,,,,,,,,>>&&&o&&;+o@&@&;&&o&+&&&&&&;;&;&@&+&&&&@&&&o&#&;&&;&&;&&@@&;;@;&&>=,;&&@&&;&&&&&&@&&%&&&&&&&;;;&;;;*;;;;;&,,,,,21ppspspsjgfjjpssgjjjjsppwpsgsjpshfjppjbjjccjbMDBnBj,,-;,,,,,,,,",
",:,,6,,,,,,,aDDDDBBbcjnbjjbjjjcnbnbjjjjjjjjbsusjpppssuw67655+..X. ..X.oooooooo&ooo@oooXooo.ooooXooo+oooooooOooooXoooooooooooXo.oooXoooXooooooX.oo%oo&oooooooooooooXXoooooooXoooooooXooooooXoooooooo,jjjssgsjkjsjjbjsjjjpspsjjjjgjppsssjbjjnnjbMBBbBs,;;,,,,3,,,,",
",:,66,,,,6,=sDHBBBBnnncbnbbbspjjjxcjccbjjjjjppsjsuupgp07667;XX......XXo.ooooo+o&oooooooooooooooooXoo&oooooooooooooXooooooooooXoooooooooooooooooo.oooooo$&@ooo@oooXooooooX.ooXo+oooooooooooooooo+o+oo7gspjjjjjbjjNcjappppswsjsgsjjsjspjjjjnBMMBBBBMBp,:,,,,,6,,6,",
",,43,,6,66,,jDDBBBBbbjjcjpjjcggjjMbnnjjbjcjjsjjjssusjs000qq5..........X.X..ooo%ooooooooooooooooo@oooooooo&ooooooooooooooooooooooooooooooooooooooXoo.Xooooo&&o&ooo+ooooooooooooo&ooooooo&oooooooo&ooopjjjjjjsjbjcjpsjjsupjjsppsjkjjjsjxssjjjnjBBnBBDp,,,,,,,3,,6,",
"666,>,66,4,,jDDBMnBBjbjajjgjbncnnkbjbjsjgsjjpspspppjspwywwq6,.......... .X.oooooooo%o.oooooooo&oooooooooooooo&oo%oooooooooooooooXooo++oo.ooo+ooXoooXoooooooo%oo&&ooooooooooooooooo&oooo#oo&oo+&ooo&wnnbcbbasjjljpajjjpssjcgpsjbjjjcbbssgjfgnMBBMSSBs,<,,,,6,,,,6",
"6,6,,,66,666jBBBBDSBMbjjbbbnbMbjjsajgcbjsgspjjssspsjsw000qq0w&X.... .......oo.o#ooo&Ooo&ooooooooo&ooooooXo%ooooo&oooooo&ooooooooo#&o@o@o%ooo&ooooo$o&oo&o&oo@ooo&@oo&o&@ooo&oo&&&&&oooo&&o&&oo$#&o,bnMbbbjjjjpjxfpasfgpjjjjspjjjjjjjxjbjjjjbnnMBBCBj5,,6,61,66,,",
"66,66,,,6,,,jBDDBBnbbjjjjjbjsbbjfsgasaasajjjjjjsjjgjpwwwrw0wtr&...........o..oo.oooooooooo&o&oo%&o&o&oo&&@o&o&&oo&oooOoo&oo$&+o%oo&&&&&&o&&&&oo&o&&&&&&+#oO&oo&&&&o@&#&o&&&ooooooo+&&&&&oooo&o&&;6cbbbbbbjjgjjjsyyjjsupsjuwpgjjjjcjpsgjjjjjcbbBMbBCp,,,,,66,,,,,",
",,,,,3,,161,jDDDDBbcgabjjjjjsgcbpgjjappwsjjjjjbbkjuwpwupsppwppp;. .......o.oo.ooooOoo%ooo&&o@ooo&&&&&o@oo&o&&ooo+&oo&o&#&ooOoooooo%&&&;&%&oo&o&&+oO@oo&o&o&%;o&@&&&;&o&o%&&&&&&&o&&@o&ooo$&o&oo&6bcncbnbbbjsjjggfgsppajsgpppjjjbbjspsjgssgsjbnBbBDBp,6,,67666,,,",
"66,,,6,,,,,,jDDDDDBbjjbnbbssjjsjjjjgupspssjjjjjcjsspspgsdsepupis;. . . .X...ooooooo&oo&ooo&&oo&&o&&o&&;&@&&o&&o;o;&&&&&;&;+ooO&oo&@&&o&;&&&&&&&$&;&&&&&&;;&&&&&@&;;&&&&@&;+&$o&&o&&&;&&o&&%&@&&4nnbnbbBbbcsjjnjjjgjjjsspppgjgsjjjjsugjjjjjcbbjbMBBCj,,3,,,,5,,6,",
",,7,6,6;;,66jHSBBABbjjnnbjjgjsjcjjupppssjkcjgsjjjjjjswsjjupssppjb:X.. ......oooo&oo&o&@&&&&@&O&o&;&&o&#;&&&&&&&&+&@&&@&&&=&@&o@&&&o&@&&@&@&;&&&&@&&&&O&&&;&&&&&&&&;&&&@&;;@&&;;&-;&&*&&@&&O&&&6bBBbBMBbjjnjsjbjgjbjjjjpppsjjgpssjjdpsjjjjjjbbjnnBBBs,667,6,,6,,,",
",,6266,,,,6,jHDBBBjjbjbjbasspjjssjppwssusgjjppsjjbjpupjjsppsgsjjxb;. .  .....ooo&o$&&&&&&&&&&&#&;-@@&&&&=&&@&*;;;;;&&&&&&&;@oo&&&&&;;-&&;&@-;@&;;&&o%&&@;=*&;;;*&&,&;&&;;-;;;;-=-;&@@;;&&&;;&6BnnmMBBMnbzbapjjjjbbggjjjjjjpjggjjjjjjasjpjjjjbbBMBnBj6,,,,,,,,,,6",
",5,66666736<jDSBNnjjbbjjswppsjhjfgfppyjsgssssjcjjjssssusagjjjjjbnNn,.    .....oooo;+%&&&&&&@&&&@;&;;&;&&&;&&&-,--;;;;*;&&&&&&&&&&&&@;;&;;;-=**;;;&&&&&&;;---;;*;=&=;-;&,-,,,,;-,*-;@&=;;&&;;6nMMBBBMBMNjjbgsjcbcbjjjjspsssjjgspjsjjjjspssjcjBBBbbnBa,,6,6,,,,,,;",
",,;2666,,44,gGDBbnMbjjjgjuppjsjsspspupsspppppgjjsspajssppgjjjjbbbbbN, . .. .X..o&o&&&&;&;;;;&&;&&=,-;;;;;;;;,,*--,--;,;;;;,-,,-;;;;;&-,;&;;,,,&*&&;;;&&-,,=,,,-,;;----;,,,,-;==,;;;&&;;,,;-6BBmBMBBBMnnjjjgjjjjjjjjjjjgpsupspssjsjssssupsgjjbnBnbbBs16,6,>,-,,,-",
"6,,,6,,,,,,,jDDBNBBjjbjbjpssjspepshpwppppsjjsspjfssjjgppugcjjbjjbnMBB,   . ....ooO&&&&;--;*;-;;;--,,,-,,,;,,,,,,,,,--,,,,,,,,,,*;--;&;,;;;&-,,,,,=&;;-;;,,,,,,6,--,,,,,,,,;;-,,,,,,,;&;,,,wDBnBBnMBBnxjjjjjjssgcsjjjjbjppusjgjjcsjsppwpsppjbbBBBSSBg66,,,-,,,,-,",
",,;,,,,336,,bZDDBMjjjjjbjppswpsyysswwwsspwwspirjjuusjsspjjjjcbjjjjnBDB:  .  . ..ooo+&;&*,,-,,-;,,-,,,,,,,,1,,,,,,,-,;,-,,,,,*,,;=;;&&,--;;&&,1,,,;&;;-,,,,,,,,,,,,,,-,;;;*,,,;,,,,,,,,,,,wDBVBBBnBBMbjjjbjjjgssjjsgjfsjjjjfgsjjjpgpuspusypsbMBSBDBBp,<6,,,,,,,,,",
",,=,,,,,,6,;jDDBnMbbjjgjjpswwsppwprpppwisppewpsjssjssasgjppgjbbjjjbMSBM* . . ..Xoo&&&&@;&,,,,,,2,,;=,,,,;,<,,,,,,,,,,,-,,,,,;&*&-,,;-;-,-&&@,,,,,,,--,,1,,,*=;,,,--,,;---,,,;;-,6,,,,6,,0ZVBABBMBMBnbjbjjgasupujjapsfssppuppsssasjppsspwppjjjBBMBBMp,66,,,,6,,,,",
";--;>=6,,6,,jBBBBnjjjjpjjssupepppppr00qwwgpwwwsjpwpusjgjgspjbjjjjjbnSBnB> . ...XooO+&&;&-;,,=,,,2;;,,,,,,,,,,,2,,;,,,,,2,,,,;--=--;=,;,;;&&&,22,,,,,,--,;;,,,,,,,,,,;,,--,6,;-,262,,,,2wBBBBBMnnBnMnbjjjsssppwpjsspwwuppwwwwwuajjjjpsgjpppjjjnbnBBMs<66,;,,6,,,,",
",;;--,2,-,,,jBDBMjjjjcsggjppgwpwpuww77w07pwwipppsuwssspswpsjssjjbkbnBBBBB,.. ...o.oo&;;;,,,,,,,21,,,<,,,,,,-,,,,=,,,,22,,,;,;;&-;;,,--,,=;&&,,,,,,,,,,,,,,,,,-=,,,,,,,,;-,2,;,,6,6,,,,pZABBBBMbbccbbjjfgppsgsppjjsppwiwiwwwqwwrrppsjppjjssjjjbnBBBBp6,2,,,,,,,&;",
",;,,,,,;,,;,jBBDnjcjjjspsbspaewwpwww6766900riwwiuppjspppppgspssjjjxbBBBMBB,....X.Xooo&&&,,,,,,2,,,,,,,,,,;;;,,,,>,;;,,6,6,**,;;;;,,,&-,;--;;;<6,,,,,,,,,,,6,,;=,,,6,6,,,,,,,,;,,66,,,wDZBDDBMMnbbbkbvsfggppsgssshssspwwwr0q78p0pewpfppjgepjjbcbMBBBj6,,6756,6,;,",
",,,,--,-6,,,jBBBBBbbjsswwjxsswwrw00w8556660rwqwrwpyepssssjspuppjjjjbmBMBBBB,.....oooo&&&;,,,,66,,,,,,,,,,,=,,:,;,,,2,,,,6,,,2,;&;&,2,,,,,-;;,,6,,2,=,-;;--,,,,,1,,,,,,-,,62,,,=,,,,,8DBDSBMnbbbbjbjnbsssjjgspppsswwp007q7667677ipwpjpwpuspcjcbnBDBBs,;,-,52,,,,,",
",,,,=;;,,,,6jBBBBBnjsugwpsjpp0e07616666,,,7877w0wpssuyusssppwpusjbjcbnnBBBBB,......oo&@o&-,,,,,,,,,,,,;,1,;,,-*;,,,,6,,,,,,&--;;;;-6,,,,-;;,,,2,,,,;-&&;=;,,;,-,,-,,,,-;,6,,,,;,,,;7BBBBDBBBnbnbbbjjjjspgjgspppsp0pww8676,,6,56w0wssppfppsbnbbnBBDBp,,,;,6,,,266",
",;,,;;,,,1,,jBCBBBnjjpjppwhhppw7511,,6,;,,676qq7w0pspwwspusppjppjjdjzBnMnBABD,.Xoooooo%&o=,,,,,,,,,,2,,,,,,;=,,;,,,-,,,,,-;;=,&;&,-,2,;;,,,,;-,,,,,,,;;;-,,;;;;,,-,,,,,,,,,,=,,,6,0BBBDDDBDSBbjjjsjjjjjgjjfsuuppswwq76q67,,6,,6qwwrsspussjnbBBnnBBDj,,;;,6,53,,6",
"2;,,-,6,,162jBBBBAMnbjjjswjjpw6666,,6,;;,,,,,76000wsswpwupgpspsuijjjjnMcnBBBBB,XXoooo%o%&;;-,,,-,,;,,,,,671,,,,--,,,,-,,,,,,;,&&;-,6*&;,,,2,---,*,,,,,,;-,,-,,-,,,,,,,,6,,,*;,16,wDDDDDBnbBBbbbjjpsjjspjjappppwpw776866556,66666ww0psssgjjbbcbBMDDBj,;-,5665,6,6",
"6,,6,7661,6,jDZBBBncbjjjhpjjpq66662,,,;&;,,,6666wwwewypppsjsspswujjjjnnnMMBBNMB6Xooooo%+;&&;,-,;,,,,,,,,,6,65,,,,-,-,;,,,,;&&;,;=,,,-;,66,,,&-;=,,,662,-;;,,,,,,,,-,-,,,,,;-,66,0DDBBBBBbbnbbbbjsfsjjpugappppw0ww666663,661,16660wppsgjbbjjcjbbBDDBj62,,,,,56,,7",
",,,,,1,,,,,,jDBbBBMbjjjjpwrpp08665,,-o@;,,,5,6668w0wwppssjggpppgjgjnjxbbbBBABBBD,.o.oooooo@;;,;;,<,,,,,,,65,,1,,,,-;;,;;,&--=-,,;-,,;;,,6,,,;;;;;&,62,,,,,,,6,,,,,,*;,66,,,,,,,wDBBBBnMMMBbccjjsfjsjcjssppspww08766,,6655,,,66670rpsjgsjjjgnbMBBDBDj,,,,,,,5,>>6",
",,,,,12,,;&:sBBBBMBbssjsspwpiw062,;,o.X%,;,,,,66777qrpispsuppssjasscjbbbbMBBDDDBC,.oooXoo%&&;;--,,,,,,,,,,,,,,11,;;;;,-,-,1=,*,,;=&,,;,6,,&;;=,,&&;,2,,,,66,,,,,,=,,,,,,6,,,,,wBDBBBNbbnnxjbjkbssjggsjsetrwr7w87666,,36,;Xo&666qwepsjggsssgBnBBBBBDj,,,,,,,,,,,6",
"6,6,,66,,,,:eBnnbnBnjgsespujp787,,;,XXXXo;,,,,,655660wwpupspgsppppgjbbjcnnBBBBSBBB6oooo.o@&o&;-;;-,,,,,-,,,,1,11,,;,,,1,,,,=,,,,,&,,-;---,,-&&,2,&,-,,,,2,,,-;,,;,,,,,,,,,,-,wCBBBBBnBbbxssjbbbjjgpspjgpprw000856666666&ooo.780wwpwssjgpssjBcnBBDCDj,,,,,,,;,,,,",
",176,,,2,6,,fDMbMBjjjjfssjjsww766,>% ....o,,,,,6,6,576wpwpwppsgpjjfjjbbnbbnBNBBBBDF,o.oooooOo&;&&&,,;-;,,2,,,,,,,,,,6,,,,,,,,2,,,,,,,-,-,,;-;,-,,,;,,,;-,,2,-,,,,,,,,,,;,,,,7BDBBnbbnbbjjjjcjjjjjjagpssppi080866665666&ooooo,w0wupjjjjcsssjbcjBBBDBj,,,1,,,>,5,,",
",,56,,,6,,4,jBBbbBbggjjjbgjpr0661,,%.....Xo,,,56,,,570wwwppusjjjjjjjjbjnccbbbnBBBCDB,oXooooo@&&&&;,,,;,,,,,6,,,;;,,,,,,&;,,66,,,,,,-,,,,;*,;-,,,,*,,,,;,26,,,,,,,-,,,,,,,,,0BBBBmbjbxjjjjzbjssjjfpssjsppww087661,6666&oooooo,0pshjjjjcbjjjjbbbBBBBBj,,66,,,,67,6",
",,,,662,,,,;pBDSSBbjbcbnbgjsww75,,2&.......X,155656667wwwpprpshsjjjgjcbjjbnbcnMBBDBBB,ooXoooo&&&&&;;,,,,,,<2,,,;,,,,,,,,;,,<,,;;,2-;,6,,&-&&&,;&;,,,,,,,,6,,,,;,-;,,*,,;;,wZBBMnbbbcjjjjsjcjpssjgsggspwrw06765666676%oXo.oo%6psgjjjjjjjjbnkbbbBNMbBj,6,;*-,,,,,,",
",,;&=,66,6,,pBBBBBnjbbbbjjjpp006,,,&.. . ..Xo,,,5566667wwwwpsppupsssjbbjjbbbbbBBMBBnBV,oXoooo%oo&&&;,,,;,,,1,,6,;,,2,2,,,,,,,-;;;,,&,,,-&&&;&;;&;,,,,,,,,,66,,;,,,,,,,,,;0DBMnbnbbjjgsgspjfjpsugjpsjppwiw8776565265&ooooo+#o6gjjjjjcbjjjbjgbnnbbnBDj,,,,,,,,<66<",
",,&&;,,,,,,,pnBDBBBbcjjsugjpww7,,,,%........Xo,5,,,656666qwppfsppsgpjbbjjjjjbnbBnBBBBBB,...oooo%&&@&=,,,,,,,,6,;*-,6,;-,,,,,,,:,;-,;,,,,&&;-;*;&&;,,,,,,,,,,2,,,,,;,,;>;7nMBBbjjjjjjgjjggssgjjspspuspwww0875665666&oooooooo&7jcbjjjjjcjjcbbjgbMBBBBs,,,**,,,,6,,",
",,;,-;,,,,6,sBBDBnbbjnjspsjpww65,,;& ...  ..o.+,5,,5665677www0pppupppzvjpsscjcbbMMBBBDBB6Xooooo+oo&&&,,=,,<,66,,;-,,,,,,,2,,,,,,-&;,,,,,;@&*&;;&&;,,,-,;;,,6,,,,2,,,-;;7NnnMBbbjcbggssjjjpsgjjjpppwwpww0066,65,6,&oooXooooo&wnbbbbbjjjsgjbBbcnBBBBBs,,,,,;,,62,,",
",,,,,6,,-*-,snBDBbjjcbgajsspiw865,,&......X.o..%,66,566,6q0wpwwpuppupjjpsjcjgjcbbBBMBBBDN,oooooooo&&&;;,,,2,,,62,,,,,=,,6,,2,--,,--,;-,,&&&=&&&&;,,,;,,;,;-,,,;,,,,,,;7Mnbbbncbbjjjjsffgjfjjsppppwww0rwq65656615%oooooooooo&wbbbbbnjjjjjjbbnbnbBBBBs,,&&,,,,,6,,",
",2,,,,,,;;,,sBBBBBbcbjsjsys00rw,6,,&...X.....ooo&,,6,556660wwpwwpjpsppsujjgsfjjkjbnBBBBBbB3ooooXoooo&&;;,62,62,6,6,,-=,,,;,,=*--,,,;-,;&-,&=&;--*-;&@;-,,;*-,,,,,,,,:6nBBbbjjbjajjjssfssussssssppw8ww08666,6666;ooooooooo&&ownbbcjjbbjjbbbjjbBMnBDBu::;&:,,6,,,,",
",,-=;,,,*,,;fBBBSMbnbbjjsupwww08555>..X..X.o.ooooo,,,6665677wwippjfpsjspjjupjsjjbnbbBBBBnBB,oX.oooooo&;>,,;;,66,,,,-,;,,;&;,;&-&;-,;-,-;-,,;-&-,&&-;&;-;,-;,,,,4,;,;6nnMnBjjjcgppppsjsypwyppwppw0w0w76666,5666&ooooo&&#&&o&&pnbbbbjzzjjbbjjjjnbMBBBp,;,,,,,,,;,,",
",,-;;,,,**;;pDDADnjjjbjjpjpssr676,5>.....X...oo.oo&1,,665,66qwpppspjpgspsjppssjjbjbcbBBbBMBB,oooooooo@&>;;&-,,,67,;,,,,,-&-,;=&;&&;-,,,;,&,---;&&=&---;,,=,,,,*,,;;7BMbbbbjbjgsgsppppppppppppwww00ww686776666&oooooo@oo&&&&%wnMnxnbxjjjbcjjjjjnBBBBp,;-,4,,,,,,,",
",-,=;;,,--,=sDDDDBMnnjjpwpipww86666>oX.oo.XX.ooooX.%,6,6,,,67wppwpsjjssupjwppsppjxcbbBbMbBBBC6XXooo.#oo&&@&&,,,2,,,,;,---,2,;;&&,*,,,,,;-&&&,,;;&-;*,--,-;;,,,,,1,0BBmbjbbjjjjpsjpsgpspspywywwwww077666,,556&ooooooo&ooo@&;;uBBbbjbjjjjgcjjsjBMMBBBs2,,,;,,,,,&,",
",-;,-,,---;,jDBDDSBMjjcsupwp0072176>oooo.o.ooooooXoo&551,,,,66wiuppysjswpuuppsspjjjbnjnnMBBBDD,X..ooo%o&&&&&*,,,>,,,&;;;,,6,;;-;,,2,1,&&&-&&,-,&@;&&&-;-;;;-,2,,,wCBBmbbnjjbjnjsppsjfssgspwtwwsw8q66665,,,5&ooooo&o&o;&@&&;-sBbbcjjjpjjsbjjjjnnBBBDj,,,,*,6,<,&&",
",6,,;-,,,;&;sSDDSSbbcjcjpwwr0q66566;X.o.o..oooooo.ooo&,,,6,,570wppypssgswwwsppsssjjccjcnBBNBBDN,.oXoooo&o;&;;,-,,-,,;;&,,,,,;,,,,;,,-,&&&-;&&;;&&&&;&&;-;:,,,,,,0BBBbbnbjjbjgjjjpuusxgssppppwwpw7556666661&+ooooooo&&&&&&;::sBMnbjjjgjjssjjgbjBnBnms<-;,,6,,-;;&",
",,,,;,66-,&&aBBDDBnnjjngpsjpw677776&.oo..oooo.oooooooo&,5,,,6880pswps0pspppsupsjpsnbjjnbBBMMBBBC,.Xoo.o%o&@&-=&;,;6,;,&,-,;,;,*,;;-&---;-&;*;&--&;;-;&,-,,,,,,,wBmBBnbnjjjbjjjjgsppsjsupsppwwww076,66,,56&oooooooOoo&&o&;;::fBBMnbjjjjgjpjjskbBBBBMp,=&,,26,,-;;",
",666,,,,;,,,sBDDBBBBnMjssjsprw7666,&o.ooooooooo.ooooooo%,66,,66q0wrpiwwwwsspppgxgpjbjbnbbMMbBBBBN,Xoo.ooo&&O;&;;,;,,,4,,<,,,,,,,,-&;-,,,;&&&,,,,&-;;;---,;,,,,pDBMnBncbcjjcbbjjjgpsgjapphpwq7807,,656,6,&oooooo%o&o+;-&&;--,gBBbbcbjjjsssjbjjbBBBBBs,,,,,<,,,,,,",
",2,6,,,;*,6,jDBDVBBBMjspssirr0577,,;.oX.o#ooo+&oo#oooXoo%6<,6,5770wwirpppujssjjkjsjcbbbbbbnnNnnNnB,.oo..oo&&&;&;;;,,,,,5,,,-;,-,-;=,2,,;;;;;,,,,;&;,;;,-,,,6,wDBMBbbbjjxjbjjcnjjjpsjjjpusiw76q7,5,6,676&oooooooo&@&&&-*;;&,,gVnnbkjbvpsggkbjjbMBBBBs,;;,62,6,,1,",
",6,6,,2,,,,6jDBDDBBBngjsppi077q0665>oooooo%o$ooo&ooooooooo,,,67776wwwpruwsssppsjajjjbbbbjcnMBbMBbBb>.oXXo&o+o&&&,---,,-66,;=-;,,;&&,,,,,,,,-,,,,1-----;;,,,,uDBBBmbjbcjjjcppjnbjjjpgpsppiw060q756,,,,,&oooooooooo&+@&&&;-,,<sBnbbbjjssspsjcbbnMBDBMp,,66<,,,,,,=",
"*,,,6,6,62,1aDBBSBbbbjsysjsw6qw86,6>oooooo&&&+&o&o&oo.oooo&,,66666w0wspppsuuwwpjjjjsjjkcjjbMnnbnBABb>XXoo&oooo&&;;-,,,,,,,,,,6,,-,;,;-,;,,,,,,,,22,;,;&;,,,wDDBBnBbjbnjjjcssjbbbjgspspwpww7786666,166&ooooooO%o&o&;&;&&;,,,,sDMbbjjjjsagwgjvbbbBABBp,,,,;,11,,,;",
";,,,6,,;;,,,jDVDDBnbnjsjjpww0775336&ooooo&o;&&$&&o;ooooo.Xoo,5,68w8wwwrpsppppejjbjjppgjjjjcnjbbnNBBBB<oXooo%&o&&;&;,22,,,,5,11,,,;--,,;,:<<,,,,*,6,,,;&=,,7mBBSBMnbxnnjgjjfjjjbjsupspwwrww7566,36,,,&oooXo.o%&O&@&;;----==*,sSBnbccjgsspppgbMbnBBMBj=,,,,;,,&;,&",
",,6626,&;,,,jBDDDBBMbjscjpyw0q,165,&ooooo&&&@&;&o&oooooooooo%53,766660tpppsassssjgjjssjjcjjjbbcnBBSBDV,Xo.o&o%o&&o;,,1,,,15,,,,,,,,,,6,,,,6,,,,,,,,,,-;=>wBBBBBNnbcbjjckjsgjkjcjssuspww0086666,5,,,&ooo.Xooo%&@o&;&;,;;,,-,,jBBBnnbjggsppssjnbBBBMns,5,,,,,,,;,-",
";,,,,,,-*,6,sDDHBSBnjjjasuseww6,,,,&oooooOo&&&&&&&$ooooooooooo,,556778wrwwppp0wjjjpyppjjgjjbbnnMBnBMBAB,o.Xoooo%@&,*,6,-,;,,,,,,,;,,,62<,,,,&&,<,,,,;;-,0DCBbnbbjjjjjjjassjjjjjjsspw0ww66656,6535,&oooooooo&&&&;;--;6,--,,--sBBBbMjfsjgspjjjjnMMMMBj,7;;=;-,,,,,",
";&,6,,,;&;,,jBGDADBncgsppwwwiw676,,&oooo&&%&&;&&;oo&oooooooooo%5556666770wssywwjjjsyusjgjjjcbjMnMBBnnBBB,Xo.ooooo&&&;,,*;,,,7,,,,-;,,,,,;,,;&;,,5,,,,,,0BCBnbnjbjjjbjjjsspkjjjjppspw0w0616,166666&oooo.ooooo;;;;;=-,,,,;,-;;eBCBMnbjjssspujjjbnMBNBs,,,,,;;,2,;&",
",,,,;,,&&,;&jBBBDBMncjspjwwpw07656,&Xoooo&&o,;-,&&o@oo$ooooooXo&,,56667wwpwpwwpjsgjpppjjjxjjjgjMBMBbbBBBB5oo.ooo&o&&;,,;;-,,,,,,;;,;,,,,,,;&&@;,,6,,,,wBBCBbbcbcjjjkjjjjasjbjjsypwpq7806,,,,66,7&oooo+#o&o&&&;;;--=;,6,-;;*-sBBbnjcbjjgpjffbcnnBBBBj,,,1,,,,,,-,",
"*,,,,-2;;,;&sDDDABnjjspjjpps08q615,&ooo$&;&&,---=&&&&o&+&oXoooX.o,,615q0w070wwppsjgssusskjjjcjjjbcBnnnbmBB,o.o.oooo&@;,;;=-,-,6,&&--;-,,2,*;&&;,,,,,,wDBnNnbbjbjjjjjjjjjjgjjjjsprww7666,,6,>,,,&oooooooOoo&&@;;,,;;=6,,,,;;*sBBBMbjbkjstsgjcbMBBBDVj,,6,,62,--,,",
",,6,-;,-,,-,dBHDnbbjbjjsspwiw67655,&Xooo+&&;;,;;&&&oo&&+&ooo.ooooo,35676766wppispsjappssjjajjpjsjjbbMbnMBBB,.oooXoo&&&&&--,,,;62;--;&&-,,,=,,;,,6,,,7DDDBbbbjjjjjjgssjkjgjcjjppyw00653,6,6,,,,&ooooooo&&o&&&--,,,-;;,,,;;,::pBMnbbbbjjsspssjcBnBDBBa,56,,6,;&;,,",
",,,6,,,,,2,2jBDBMBxbjjjjsppiw765655&XoooO&;;=-;-;&&&o&&&&&+oooXooX&56557568wwwpswpjjjjgfsjagjsssjjjbNBMBBABB5..oooooo&&;;,,=;,,,,,-=;,,-;,,,,,,,,,;wBBBBBbjjjjjjbsjassjjsjsjsssuw08666661,,,6&ooXoooooo&&&@;=,,,,,,;,,-;;:,,gBMbbbbnjsjgsijjbbbBBDDj,66,<6,,*,,,",
",,,,,;,,,,,,sBVBBnbjbjjppppw71,7665;Xoo+@;-&-;--;;&&@&&&ooo&oooXXoo&,667750wwwwwwpussjsjsgjjjjjsgjsjbBBBAAABC3XXXX.o%%&o&;;&&;,,,,,,,,;,--,-,2,,,,0mBBNnBjjjbjjjspsjsjjspppjsuppw08651,,16,,;ooooooooo&&$&&*,,,,-,,-=,,;;,-,aBBnnbbkjjjvjpfjjbnBBBBj,,,22665,,;;",
";*,;;,,,,,,,jBBBBbbbjgspwpi06666265;ooo+@o&&-;,-,-;&;&&&&+$ooo&oo.oo&,55667qrwqwwwpssjusjjbjjssjjjjjkbBMBBBBCD,X.X.Xo&o%&&@&&;=-,,6,,;,,,,,,22,,,iDBBBBbmbjjjjjjgsjjgsgppppsuw00866665,,,,6&oooooooo&o@&;;;*,,,,,,,,-,,,;,,-sBnBMbbjcbjjjjspjnBBVBSj,22,,16,,,,;",
">,,,;;-,,6,-pnMDBnbjgjppsuw9qw6762,&Xooo&o&;>,,,;;-,,-;&&ooo+ooooooo.&66676,7q7wwwpsppwssfgjjuusjjjjbbvnBBBBAAB,...oooooo;$&&&,,,,,,-,,<,66,,,,20BABBnbjjNnjjjjnjjjjxjjjpupsp078776666,,62&ooooo&+o&&&&&;-;,,<,,,,,;-,,,,;,,pmBMMbjjcnjajjgjjbMMBBBs,<,2766,,,,,",
"2,,,=,,,,,,;pBBBBMcjjjjjjsp776766,6;ooo+o&&;;;,-;&;----&&&@&&oooo.o%o.&66,6357q0wwupppppsjgcjpssjjjjjbbbnBBBBABB1....Xooo&&&;;==-=6,,,,,1,,,,,,wSDBBBDBBbjjjjccxjjjbjpjapswwi0q7666,,,,6,&oo&oooooo&@&;&;-;;,,,-,,,,,,-,;,,,pBBBmjjjbjbjsssgjMBBBDBs,,;,56676,,1",
",,1,,,,,,,,,sDDMMMbjjjjjhpr066q75,6;ooooo&;;;,;,;;--;-;;&&&&o&&+ooooooo%,516516qw0rpwppwsjjjpppfsjjjjbkbbbBBBSBBA,.XX..%o&&&o@&;&;-,,,66,,,;,,wDDDGBDBnnbgjjpsffsassjsgsjsiwww71,,,62,6,&oooo&ooooo&&,-;--,;-,,,,2,,,,--;;,,pnBBnbjcjsjjsjjjjbnBBDBj,;;,=,,66,=;",
";:,,-;&,,,1,sBBMnBnjbjsssppq6q756,,;oo&o&&;-;;,-&;,-;--;&&&O&&o@oooooooo&61,,56709wwyspppjjbjssjppjjsjbbbbbnNMBnNB5XXX..o&o&&&%@&,,,6,,,,,,;,pDDDDVMBbckgpspsspssjjpjsgjswsw7w116,,6666&oooooooo&&&;;,--,-;=,,,,,,;,-,,;&,,,pbMbbnjjbbbbjjsajncMmnBs-,,,-,,,6,-;",
";;-,-;=-;,,,aDDBnNMbjjpppwpi086676,;oo@&&&;,,-,,;;;-;-;-;&&@&ooo&oooooooo&516167w0pppppuajjjppspwpsjfjbjcjjbbBBNBCC3..oooo&o&&&&,,6,,,;,,,,,8DBBDSbnbbMjapsjgjggsggjsuipswpq7q1,,6,66,;oooooooooo&&;;;;,,-*;,,,,,,,;-;,,-,,,aBBnbjkjjjjjssscnMcnBBBp--;,,,-;-,,,",
";;*,,,,&;,,;pBSBMBnjjjjjwwwwww66666,oo#&@@&,,,;--@&;---;;&;;;&&@ooo#oooooo&7,65760wwwppuspjjjspupusjjsjjjjjbnnBBBBBB5.o.ooooo&&&-,,,,,,,,;,0BBDBDDBnjjjjjsppjjjjpupjssi7uw06766,,2662&ooooo&ooo&#&&>--&-;-,,<,,,,,;-,-,,,,1,sBVBMbjsssppupscbnnBBSBu=;;,;;-&;,,,",
";-;,<,,&&;,-pCDBBBnbbjspuwwwq066161;oo&&o&&--,---&&&;;;,,;=;;&&*&+&oo#oooooo67,66qwpwwwwpsfhjgsspppjjpsjjjjbbbMBBBBBB6oXo.o.oo&&,;;,,--,,;0BBBBnDBbbgfggssjfjjcjppwspwiw076666,,1,6,&ooooXoo%o&o@&-;6,,,,,6,26,,;,,-,-,-;,,,pBnBBBjjkjswspsbbnnMBBBp-,;;-;;&@,2,",
";@;2-;,;&;,-pBDZBNnbcjspppsw0661561;oo&o&;;;--,,;;&&;--,,,-;-&-&&+o&oooooooo@,356qwww7wwwppsssspppsjjassjggbbbbnbnASDB3X.Xoo&oo;&&;==;,,60CCnbbBBbkjajjjppjjgsjbsspup00ww778766536,&oooooooo@;&@&&;&,6,,;,,,,,,;;,,,,,,,,,,,unbBMbbjjjspwpjjbbbnBBBp-=;;-&,;;,,;",
",&,,,,,,;,,;dBBBMBbbkjjswppuw666166;oooo@&;;;,,,;=&=--,,-&&;;&&&o&&&o&&oooooo&,667qw6wwwwpppepippsgjjjfsgjsjcbbbbcMVBBD,...ooo%o@&&&=,,6wDSSBBBbBbjjjspggppfppsjspwppww8w6666666,,&oooXoo&#o&&&&;;;,,,,,,,<,,,;&;;,,,,,2,,,*pbbbnxjgfjjswpjjbncBBBBp;--;;---,2--",
",-,,,,,,,--;sBMnMnBbjcsuppwwwq862,,;oo&&&o$;;,,;;&&,,-,---=;;--;;;&&@&ooooooXoo6570780wrppwwp0sjjppgjjjgsgjjjjjccnbbBBDD6X.Xooo%o;&&;-=0DBMBBBbMVnMjsppsjppssjjpjppw0ww766556,,<6&ooooooo&o&&&;;,,,,,,,,,,,,,=,;;,,,,,,;,,*;pMnbMnjjgssapgjjcbbMBBBp;,,;;;-,,,,,",
",,,,;*,6,;-;sBBBMnnbjjppjsiw0667,,;&ooo&@&;;;,;,,,,,--;-;-----;;;;&;;&&ooooooo.;676q77www9qppwisggppusjgpjjsjjjbMbbnnMABD5.oo.o&O&&&;;0ZDBBnnjjbBnknjgjsgjgjjggasp08qw0766086,62;oooooo&&ooo&&-,,,,2,,,2,66,,,,,;,,--,,,,,,;pMBMnbjgjjgjsjjjbbBBBBBg,,--;&,-,,,;",
",,,,,,,-,,,;sMBBnBbjbjssjsp078756,,&ooo&o&;-&-,,,-,--,;-,-;-,;&;-&&&;&@ooooo.ooo&65756q667iwww9pssppsjggggssjjjjjnbbbnBBBF6...ooo+o&;7DCSBMbbjcjbjjNjssgdjbbbjjjdsr0ww8656,56,,;ooooooooo@&&&;--;,,,;,,,6,;,,,,,-,,-,,,;,,=;pnBnbnjjjjjjjjssbnBBBBMp,,;,;;,-;;,,",
",2,,;=-;,,*,sBnBMBnbbjbjapu0886766,&ooo@&;=&-,,,-,,-,;-;;;;-;--,;;=--;&&&ooooo.oo&368qw677ww7qwpgfpufspsjjugssgujbbjjbnBCDG6..o.Xoo&0DCBnnbnbjjcckbBjssgjbbjspep0rww0w76656661&%oooooo+o@&;,;;;;,,,,,,,,,,--,65,,-,,-,,;;,-,pBBnnbbjjsjjxjjjjnBBBBSs,,;;;&*-,,,,",
"661,,;-;;;*,sBBMMnbbbbbjsppw0w062,,;ooooo;--,,-;,,;;;,,;;;;;;;-,&,,,--@;;&&o&%oooo%765777q6wwqwpgsssjpsgsfjspsssbjgsxbBNBCGGqooooo;wDBnBbbbbjjjsjbsjbxjjjjjspwwwr008,6266,176%oooo&o#o&&&&;-;--;,,,2,,,,,,,,,567,,,,-,,;,-;;pBBMcccjjjjjjcjjjbBDBBDj,&,;&;;,,,22",
",,,,2,;-,,,;sBBBBbkcbjjjiiswww75666&oooO;--,,;*;*,,,;--,-;;---;-,,,-*&;&;&&&ooOoooo;666q098ww77ipppjppjsupgjsffjjjjspjbbbBVHHjXo.obHDBnbbbsjnbjjjjwwjcjjbjsfpppw00w65566,,66&oooooo&&&&&&&&;&;;-;;,,,,2,,,66,67,,6,,,;;-,,;;tnMBbbbcjjbjjcjcjBBBBVBs,;;,--,-,,6,",
",;;-,,,,,,,,pnnMBnbnjbjswppwrw66761-oo#&;---;;-&;,,-&;;*,;&;-&;;,,,--;;;;;@&&+@oo&oo;677766w0qwrw0ussjsssppjppsssssppgjjcbBDHJLjhJHBDBMbnMjjbbjgjsppssbncjjsppp0w061,166666&o&ooo&&o#&o&&&;&;---,,,,66<,6,,,,,,,6,,,;,,,;,,,smnBbbbnnjjjbjbnbBBBBBBa,;;,,,,,,,,,",
",,,;,,,,,,6,jBMBBMMnjjjjpfpww7976,,;ooo&;;;,,---;;,,;&;;-&;---,,;,,--;,,,,;;;&&o&o&oo&66167ww70rp0wspgjsspwpjjjwwwpssjjjjjbBDDHHHHHBBMbbbbxsjbsjbsyppscBjpwppp07q6615121,,&ooo&ooo&o&&&&;&;&;,;,,,,216,,,,,,,,:6,666,,,,;;,,sBBBbbbnccsjbbbbcBBADBBj,,,,,,,,,1,,",
"-,-;-;;,,,,,sDBBBMnccjjjjjhiw7666,,;ooo&&&;--;,,,,,,--;,--;;&,-*;,,,,,,,,,,&&&&&o&oooo;2661qw80rwrppupphppppjbs0wwewupjjjjbnBBSDDHDCBbbbsgxpsupssjjpupspsssuwi6777,6,126,&.oooo&;O&&@&&,;;,,-,-,,,26,6,,6,,,6,,,,,,6,6,,,,-;uBBbbbbjjjjjbbjbbnBBDBBj2,,,,,,,6,,,",
"-,-;;;=,,,;,sBSBBnncbjgjjjppiq7666,;ooo%&@;,--;-6,,,,,,2,,;;;;;;,,,,,,62,,;;&&;@&@oooooo665q67qw0wwwwwsjsjppsjjuwwppppjgjjbjkBBACHVDBjskbsxspuujwpjapwpssypw00w67,5,,66,&oooooO&&&&o&&&&@-,,-,-,,,6,,,,;,,,66,66,,,662,,,,,,pmBbcMbjjjjbjjkbBnBBDBBp,,,,,,,6,,,,",
";---,,-;;,;,sBVDBBbbbbbjjsuppq6761,;oo&&&&;,,,;,,,,,66,2,;-;-;,;,-,,,,,,---;;&;&&&#&&&oo&680760q78w00rpwpypjppjppppwypjpjzjjbbnBnDBnbbjsbabsppppjspppwwpspww86676755,,,&oooo$&&&o&;;;;;,,,*,;;,,6,,,:;=;,,,6,,,,,,,1,,,,*,>,pBMbbncjjjjjbjbnMbMnBBBp,,,;,,,,,,,,",
";;;,,,-*;-;;sDBBBBbvbbjjjjjjr77766,;o&O&&+&=-;,,,,,,,,,,,,,,,,,,-;6,&,,,,;=-&&&,&o&%ooooo&7767766660uwweppfppsfswsp0uppsnjfjbbcjcBjjssgpkgsjjpwjssewwpwwpsiw88666,,666&ooo%o&oo&&&&=--,,=,,-;-,2,,,2,,,,,,,,,,,,,6,,=-,,,,,,sBnbMcsgsjspjjjbnMBBBDBs,,,,6,<,,2,,",
",,-;;,,***,,sSBDBBnjhfjspsjswq7,,22&oooo&&;,,;,,,,6,,2,,2,-&,;,,;,,;&;*,,:@;;&&;;&oo&o+.oo&56566666wr0wusspepppjpppwpspsnjjjjxjjjjjjpsusngpjgsgswjsywpp7wypq767876666&oooo&ooo&oo&&&-,,,-;,,;&,-,,,2,,,,,7,,,66,,,,,,-==;:::jBMBnjppssssgbbjcBBDBDBs,6,,,,,,6,,,",
",,;;----,,,,sBSBBBBbssggsjjp00066,,,oo&@O--,;,,,-,,,,,;;;,,,,,,>;&-,,;&&-,,,,-&;--$&&oooXoo&,67,18987wspsprp0riss0pppspjjjjjpssppjpssuspbbppjfwpwppswpw000wq761,6976&&oooooo&@o@&;,,,,2,;;,,,;,,,,;,2,6,,,,,,6,<,5,6,,,,,,;;pBBbjjppwpswjkjknnBDBDVg,6,,,,,,,,,;",
",;;;,--;,4,,aBBBBBbbjassjcswr0q6,,2;ooo&&-,;,,,,,,-;;-,,,,,,,,,=---,;&;&;-,,,;,,,-&&oooooooX&,6,5666qwwpsw0wwppspswsfjgwwpsppasupcjjspppsjpjbgajppwuiwpwqwww6,55,6,%oo&&o&o&&&;&&;,,6,,,;,,,,,;;,,,,,,6;,,,,,,,,,,,,66,,,,=,wnBbjjjpwspsjjjbBBBBDDDj63,,,,,,,,;;",
"---;;;-,,,,,jBMBMmjbjgjjbjspwq7666,;o+&o@&;*,,,,,,,;,,-,,,,,,,,2,,,6*;--,,2,,=;,,,&&ooooo&ooo&,1675667qpp00pwppjpjssjbjpppupssjpsjupgsjgpjgsawwwuspppwr887666,,,6,&oo&ooo&&&&&;=;-,,,,;,,,*,,,<,,,-,,2,,,,,,,,;,,,7,,,*,-;;-tMBbcgspppjbjjjbMBBSBDDj,,,,,,,;,-;,",
";--,,,,;,,,,sBnNBbxjcjjjbapwt75,6,6;oo&&&&&;-,,,,,,,,6,,,,,6,,2,,,,,*,,-,62,=;&=,,;@&&&oo#oooo%68767w7,wrwwrwwwspwsbjsjsjwwjcspspjswspsjjjppswwwpspap6651661,66,6&oooooo&o&&;==;&&,,,,,,,6,*-2,,,6,,,6,;,6,,,,,,,=,,6,;-,-;;pMbbjuwppsjcjjgbbnBBDDBj,,,,,3,;-,,,",
",,,,,6,,:,,,jBBBBbcbbcjbjjjpw67664,;oo&&;**,>,,,,,,2,26,,664,,,-;,,:--,;,6,,,,,,,,,;&&@+o&ooooo&,6973566wwqw0wrwwwpjepswppsbjgpwpsspjwsjjbbpussspsswww766,,66567&.ooooo&ooo&O;&&&&&,,,,,22,;,6,,,,,,,-;-,,22,,6,--,,,,,,,,,,pmjjfwejjkjjjgjjbBVBBDDs,,,,,;,62<,1",
",,,,,,,--,**dBBVMbnbbbbjpisppq776,1&oo&&;&;-,,,,6<,,,,6,,6,,,,--;,,,,,,,1,;;;,,,-,,;&&&&o&&&&oooo,6q56667wwwwwr0wpws0hsswwwwjbjsyppwjjjfpjsjsbjsp0wr0076,66,,6,&Xoo+ooo$o;&;&;;@;;-,6,,,2,,,,2,6,,*,,,;-,--,,,,,;,,=-,,-;,--pBbgjssjussjfjjjbBVBBDDj,,,,,,,,,26,",
"6,,6,<,,;;,,jBBBBBBncnjjhhpiwq76766,ooo&@&&-;;,,,,,,,,2,,<&;,;;@*,,,26,6,,,,,-,,;-,-;&;&oo&ooo&oo&6qq77q87ww0pppwepwwuswpppwwscgswppjjgpsjsgpjjpw7w065166,,566&ooooo@oooo&&;&&;;;*,,657,6,,,,,26,6:,*,-,,&;;*;=;,,;&&*;;-;;,wnbjjjjfwejjfjnnBnBBVDHb6,,,6,,,,2,,",
",,,,,,,,,,*,jVDDBBBBnjjbjjjjp766,,,,ooo&&;&;*,,-,,,,,,6,,-&;*&;;*,,,,,,,;,,;,,,*,-,,-;;&&&o&o;oooo%7q67w08w0wpwpswpywpjp0wswppspuppwujsppjjjpsjp0wp0877657,55,oooooo&;@o@;&+&@;,-;,,,,1,,,1,,,6,,6,**,,,-&&;;,&;-,--;;;;,,,;pnbbjjjjspjxgbbbBBBDDDDj6,6,,6,6,,,,",
"6,46,,,;,;;,bHDBDBDDBBnbcjjgw0q666,;&o&&&&;-,1,,6,,6,,64,,,&;;;,,,6,-,,;&-;&,,;-,,,,,;&;;&@&&ooo&o%&7660r7qpsppssuw0ssssusgpppsjpwupwsaccjjbajjssfp7666,,65,&ooooo.o;&&&o&&,;&;,,,,,,6,,,,,;,,,,,,,,;&;;-&;;;,,,;*,,--,;;,,;pbjjjbjjspjjpjbnnkMDDDDs,1,,,63,,,,,",
"6,6<2,,,;,-<bFBBBDDnbBbbjjguqwq856,&o+$&&&,,,,,6,,,,,5,665,,-,,2,,,,,;,;&,2-,,&,,6,,,-,&&&;@&ooooooo+670wwqpwwrpsuspjjpgsusppsspswwpspcbjjbvbjjjshy7666,6,6&ooooo&o+Oo&#o;;-;&&;,,,-,,,,,=;;,;,,,*,,&&&&;;---2,-,-,;;,--;,,;0bnbjjjpssjppbjjjgbBBBDp,,,6,,,,,,;,",
",,,,1,,,,,,,jFZBSDBjjjjnbjsswwq777,;&&&&;,,,,,,,66,,,,,6,,,,,,6,,&;1,;;,,,,,,-;-,,,,;,,&&&&o&&&oo+&oo&0pwwq0000pwpspjjpjppjuwpjpjswwppjjppujjjswpyiwwwq5,,oooo+&o&Oo&o%@&-,***-,,,,,,,,,,,,,,;,6,-,,&&&;;,&&,--;;,--&&-,,;,:wnbkspusbjpwwbjjjbnBBDDj,,,2,,,,,6,,",
",;&&,22,-,2,jDDZBMnjbbnjjfjppww76,,-oo%&&,,,,6,6,66,,,37,;,,,2662,,,,,,2,,,,,=;-,-,,,;,>;;;&@&&&&&;ooo=jrww0wipppsssgjsjppspwpjppjspsjwcsjpuppusjswwwq66,%X.Xoooo&&&&&&;&;&&--,,,6,6,,2,,6622,-,,2<<&&;&&&-;,,,,;,--;;-,;,,;unbjssgpjbawpbcbbbMDDDFj67,;,,,,,,,,",
",;;;,,,,,=1,jFGBnMBbjbMjpsjpw008655;o&&&&,,,,,,,,6,,664,;&,,,;,,,66,,,,,,6,,,,,,,,,,,,,=&;;-@o&@oo&oooo,pwpwpjsuppsppjjspww0pwpu0sjjjppjppssjprwwwwww75,%..XX.ooo&&&&&;-;;;&,,,6,,,,66,,,56,,66,,6,,,,,&&&&,-6,,,,,*;;&;;;;-pnjgjssgcjjpgcjnjbBDBGDj6,,,,,,,,66,",
",;=,2,;,,-,,sDFGBbBMcnnjggpww7qq66,;oooo&;,,,62,,666,,3,;,,;-,,,,,2,66,,,,;,,,,,,,,2,,,,*--&&&;;oo&oooo&6sssjjjppyjswpcgpfw0wwujwwjbjwupppppsjwq77w0wq7&X.....oo;&&@-,-;&&-,,,,,,;,;,,,,,=,6,666,,6,,,,&;,&-,,6,-&;&&;,,,-*,jBbjjgjjjjpwpjxjbbmBBDDj,,,,,,66,,,,",
"2,,,<6,;=;;,pDGFVBBBbbjagppwwww765,&@&o&&;,-,,,,,67,,,66,,,,,,,,66,6<,,;-,*,,1,,,,;,,,,,,,-;;@&o&o&ooo&&olbsfjbcjsjapsjppjpwsssjpwjppsswjsswwsww06wqq65......X.o&@;&;-,,-;-&&,,,,,,,,66,,6,66666,,7,,1,,=;;;,2,,-;&;&&,6-,,2jBbbjxjjspuwsjsjcBBBBDDj,6,,,;,,,,,,",
",,,,,,,&;,,,sBDDBBnbbbssjpsppw76616,oo&&&;-,,<766666,,66,,,22,,,6,6,,,,:;,,,,,,,,,,66,,,,,,;&&&o&$o&&o&oo0nbjjjjbgjjpuppuwwpjjjspwwp0wspjjspwpswppp066&..  ..Xo%@O&;&;-,,-&;;,,,,2,,,6,-,,,61576656,,12,,;,,,,,,,,,,<,61,*,,ubBbBnjjpwpsjjsjbnDZBZDj67,-,;,,,,-*",
",2,-,,,,;,,,sBBGDMbnnjjjswsppq86676;o&&o;,;;,1,6,66,,6,,,,,,;,,,626,;,,2,,,,,-2,,,,76,,,,6,--;@&@&;&&o&&owbbnjjkbnjgswpgwwupjsjjpw0spptpgjjgsjjp67w7qw,. .. ..oo&;&-,;,,,,,,,,,,,,,,*,6,,,,,,,6656,,6,6,,,,-,,666,,;;,,---;;pBBbjjfpssujjjjjnnBBMDDj,,,,,,,,,;;;",
",6,,,,,6,:,,sDDHDnbbcbbbjsssi67666,&ooo&;--;,66,,,-;,3,,,,;,,,,12,,,*;,=622,,--;,;,6,,,,,,-,,;;&;&;@&;o&;Bbccnbbjkjjswppppusjjcjpsjjspswjbjjwppu79q57q7......X.+;o&,,,,=,,,,,62,61,,,2,665,6666,,,,7,,,,,,;;;-2,,,,,;,&,,;;;pBBnbjcbspjjjjjjjbBBSDSg,-,,,,-;;;;-",
",,,;,;,,,,,6pBDDBbbcbjjapjjsw07566,&o&o&;;;,66,,,,;-,6,,,,-,,,,56,,;,,-,,,,6,,;;,,,2,,<;,,,6,-;;;;;&o=&osBMBbbbjgjjppwwpsjjpssjjbbjjspssjgasagwwww66700,.....o.%&o&,,<,,,,<,,*;;,66965766,,766,,,,5,,,,,,-,,,,,,,,26,,,,<2,,pMBBBBkjjjggbbsjbnBDBDDf-,,,,,,-,,-,",
";,,;,-,,,,,,gDDDDbbBjjppsjjspw66776:ooo&;@=,16-,2,;,,,,,,,,,,6,,66-,,,,,,,6,,,,;;,2,,,,,,,2,,,;,;;;o&&&7BBBnjjbjggjgspsfjjjsbjcjjbjpgujbspsuwjssp97887qq&...X.o%@@;,,,6,,,,,,,,,;,,,,3,,,,,,56,6,,6,,6,,,,,6,;;;,,,,,,,,6262aBSBnjjpjjspasjjcbbBBDBj,2,,,,,,,,2,",
",,;;,6,,,6,,jBDDDDBcjjssgssgiww77q5;@&o&&&*,,9676,&;,,,,,,,,,,,66,612,,,,;,;-,,,,61,6,,666,,,-=6,--&&&<MnBbbcbbbbjjjjjjjjjbcbjspjsgsjpjbjsuw0sppp75576q6w%..o.oo%&,,,,6,,;,,,,55,,,,,,,6,,,6,6,,,6,,,,,,,6,,,,--,,;-,6,62,,,pBnNbjjjnjgwspajjbBBDBBj3,-,,-;,-,,,",
",,,,,6,,,,;,jBBBDDBbxjjgspppq609666=ooo&&&,,,,,,6,---,,,,,,;;,676676,-,,;,,-;;,21,7,,,,,,,,,;-,,,--;;6BnbBnbbncjgjjbbpppjsjjcjppjgjjjpjjjsppppww67660667qw&XXoooo@;;,,1,,,,<,,66,,,,,=,,65,6;,3,,,,,,=-,,,,,,26,,,;;,,6,,2,,enbmbjjscjjsswpjbcnBDBBj,,;;,---;-,,",
",,--,,,6,,,,aBBBBDDnbjjggpppq7w6761&ooo&;;,-6,,,6,,6,,,,,,6,,,66,,,,&&&&;,,,;-,-,,16,,,,,,,,&;,&=,,;7BBVMBBBBBbbjjjjjsswpjcjssjjbjjsbjjjjppwpjpuww67r7ww0rs&.oo%&&@&&;,,,6,,556,,,,,,3,66661,,,61,,,,;=,,6,,,6,,,,;;,,,,,,,-pBbBcjssjjjcpusjjbMBDBBs<,,,,=-,&;-,",
",,,,,,,26<,6jVBBBMBBNbcjjjjgpww757,>o&&@&;;,,5,6,-6,,,-6,,,65,66665,;;,,;&&&&,,&=5,7,,,,,;;,;,;;--,0BBBVBBbnbjpgjjjspss0pssjspgjnbBbjBnBjdgpssppiwq0rwpw0wip,oooO&&&;;,,,,,,,,5,,-;,6,,,6,566766,,,;,;,,,66,,,,,-,=,=;,,,,,,pBbbjppjbjsjsjjjjbBBBBBj,,;;;,,-;;;,",
",,,62,;,,,6,bDBBBBBnbjjspsgsuw76,5,,o&&&;&,,,,,66,,,,,,,6,,,666,,,,,6,,;&&&&&-;;,3,626,,,,,>,,;=,,7BBFDnbBMjjjppswpspsjspsgjjppcbcBMbbBbjsgsjjsppw0wswpupssjc,o+o&&;;,,,,;*,,,6,,,;-,,,,,,66266721,;,,,,-,,,66,,,,,,,,-,,,,,snbcjjsjjgpjjjjbbbbNBBBs-;;;;,,--,;;",
",,,,,,;;;,,,jDDDBnbccjgjpupwww87,66,+oo&&-,6,6176,,,,6,66,,>,666,66,,,,;;;&;;;;=,,,,,9,2,,,,,,,:,8ZDBDBbnMncnjspwpuppwspsjjspsssjpjjbjjjfjjjjspjpww0w0wujjvjjb,oo&o;*&--;,,,,,,;;;,-;,,,,,,6,,,,,,,,,,>;;;;,,,,,;,,,,,,,,,,-pbbbbbjcbgsjppgjcnBBBBBp-;=;,,-,,;-;",
",6662,-,;,,,jFDBnbccbcjjsppwwwwqq76>&+&;-;,,2,6,2666,,76,,63,7667,,62,1,6,,,,--;,,;,,6,6,,,7,,,,0BDDSBBnBnckspgwwgjssuppjpjspswpspjjjbsjcggpjpwjpwwpprpjjjjjjbb,o#o&&&&;&-,,2666,*,,,,,,1,,5,,6,-,;;,,,;-&-,,6,-,,,,,6,6,,;;yckjjjbjjjsjsppsjnBBBBBp-,,;;=--,,;;",
",,,,,,,,,6,4jBBBnbnbjjbjsjjjwp0766,,oo&;,;*-,,,,,,,,36,,3,666,,>,;,12;,,,,,,,-,;,,,,,,,,,,>,6,,wDBCBBMbNBcsppssuppspuwppwfjppp0wusjjjjjjjjsscjjjwtppppsjjjjbjbbn,oo@o@&;&,,,,,62,,,,1,,,,,>,;,6,,,=&;=,,,;-,,,,,,,;,,,,,,;,;pmnjbbbjsjspppajczbBBBmp;,,,;;,,,---",
"*,,,,,,,,,,,aSVBVBnbjjjpppur0q81<2,&oo&;*&;,,,,,56,666,,6666,,6,-,,*,,,,,6,;,,6,,,62,,,66,,,66wDBBDDBBBnjbspsgcbsppswpgswjswpwwwwwssuwjjjbjjjgsjspppusspajjjjbBMb,o&@o&;;=,-,-12,,,,,62,,,,,,,3,,,,;,-,,,,,,;,,2,,,,,,,,,;--pnMbjjjpuppsppgjbnbMBBBs;;*-*,,,-,,,",
"-,,,,,,,,,,,sBBBBMnjjggspsw0q786<,,;ooo&&-=,,,,,,,,,,,,,66,,,6,,,,;:,,,:,6,,,,,,,,,6,6,,,,,6,sDDDBBBBBMMnjjagppspsgfpgppjssw0pwwwwswwjjpsbcjswajsjppsppagjjjbbnBBB,o&o&&&;;-,,,,,=-*,,,;,,,,55,,,<,&,-,,,,,;,,,,<6,:,,,,;;,-uMMbjbsspsseppjjbcbBBBBp,;---,,,,,,,",
",,,,,,,,,,,,sBBMBBbbjfjsspww80066,,;ooo&;&;;,,,,66,,6,,,,,,,664,,,,,,;,,,,,,,,,-,,-,;,,,,,,,0DSDBDBMbbnccjspsuwwppsuspwsswwwqwprwwppspppwpjjjwpujspjspuscjbbjbMMBBB,oo&&o&;;;-,,,;;,,,6,=,,,,,,,-6,;,,,,,,,;,,,,,,,,,,,,*-,&wnbbcbjsppspsjagjjbBBBBs,,=;,,,,,,,,",
",,,4,,,,,,,,jABBBnbjjjjjjpwww8096,,&oo&&;;,,,,,,66,,7,,=,,,,646,,;,,,;,,,,,,,,,,,,,,;,,,,,,0VDBMBBbbjbjjsjppppwsupswufswwwq707ww0wwpww0wwwpsjsspjjssjjppsjbnbnBBDDBB,o@@o&&;**--,,;-,,,6,,,5,,55,,,-,,,,,,,,;,,,,,,6,,,-;,;;pnnbbbjpwppppgsgjjbBBMBs-;-;,,,,,,,6",
",,,,6,,,,,,,jBBBBBnbjjjjjpuwwwq6,,,;oo&&&;-,--,,,6,,6,,*,,,,6,<,,;-,,;,,,,<,,,,,,,,,,,,=&;6BBBBBBnbbbbjjssspspppussuwwpp776ww780660pw8qqwwpsjjspsspsjjfpsgjbbnBBBSSSV6oo&o&&&&;;,65,6,,6,,,,,,,,,,-;-,,;,,,1,,---,,,,,,,;,-&pmBbnjsppwupsssjcbnBBBBs:;,;;,,-,,,,",
"65,,,,,,,,,,sDBDBMNbbbjjgppwww7662,=X&&&;;--*;,,<,22,,,,,6,66,6,,,-,-,-;,,6,,,,,,,,,,==,;6BBBnBDBBnbbjjjjpjgpuspssppswwp76666,66,,68w007wpppsjwpussjshgspjjbxbBBnMBBDD6o&#&&;;;;;,,,,,6,66,,,6,6,-;,,,;-,,--;,,,;,;,,,;;;;,;pBBbbbggjspsgjgjnbBVBBBs,,,;,,,<,,,,",
",,,,,,,,,,,,sDDBBMMbbjspssuww076226,oo&@&;&;;:,,,;,6,;,,,,,,6,,;,,,,-,-;=,,6,,,;,,,=,;-,7BBBBnMBSnbbBjgjggsjjsppss0rppw0676111,61,16666qwwwwppippjspjjppsjjbjbbMMnBBDBD7&oo&;;-,*-,,<,,,,,;;,,,,,,,,-;;,,-;;;;,,,=-,,-;-,,,;tMBbbncjjjgspjjbbBBBBbBj,,,,-,,,,26,",
"66<,,,666,6,sDBDBnMnjjppsappwwq51,6;&oo&&&;;;:,,,-,,<,,,,,,,6,,,6,,,;--;*,,,6,,*=,,,;=,0BBBBBBBSSNbBjjjggjjjspp0rwwwww0655,1-,,655,5766676rw0ppppgjpsggppgjjjjbNBnBSBBBD,o&o@&&;;,,6,,,,,,,,,6,,,,,,--,,,,*;-,;,;,,,,,,--,-;pnBbbcbjgsjjjgjcnBBMBBBs,,2,,;,,,,,,",
",,,,,66,,<,3pBBBBbbnjgsppupwwe866,6;oo&&@&;;;,,,;,,;,=,,,,;,,2;,,,;--,,;,-,-,,,;,,,,;;0BmBBBSBMMjbjnjjsjpssjgpwpppyr0qq76,,1;;;,,,,6,,770600wwrpppsswgjjjjbjjjncnnBDBBBBB7#&o&&;-;,,,2,,2,6,,,,6,,,,,=,,2,-;;,2,,,,,,,6,,,,,ubMbbjbcjjjjjcjjjMBnbnBs,,,:;;,,,,>,",
",,,,,,,,,,,,sBSBBMbjjasspuppsyw6666;o&o#;&&,,,,<,,,,;;,,,,;,,,,,,,-;,,,-;=;--,&&,,,,,7BBBBBnbnnbjjjjcbjjpsjjjssppsw0780665,,&;,,6,6,,,6587680wwweuwpwpfjjjjjjjjjbMBSBBDZCB3oo&o&,;,,2,,,,,,,-,62,,,,;;,,,,,,-;,,,,,,,,,,,,,,pnnnbjjbjjjjjjkjcbMBbbMp6,,,;&,,,,,,",
",,,,,,,,,,,,sSDBBBnjjjjjjsjspw07761&o@&&&;,,,,6,,,,;--,,,,,,,,,,*,-;;,,,,;,-==&;>1,,7BBBBNBBNnnbbkjjjsjcjccbjpupi0q666q751,,;,,&;,,1>566768,1q00wwwwssjgjjjjjjjbbMnnBBBBBBB6oo;&&;,,,,,,,;,,,,,,,,,--,;,,,,6,;-,,,,,6,,,,,;,pMBMnjjjjjjjjbjbnbbBBBMs,,,,-,>,,,,,",
",,,,;:,,,,,,gSDDBBnbjjjsppjswww7761-o&&&&;,,2,,,,;,-;,,;;,,;-,2,;,,,;,,,,-,&;;;;,,,wBBnBBmNBMMbbbbbjspsjjsgjspssrww78676,;,5,&oXoX&16660611,686q08wppjssjjpjjsjgjncnBBBmnMBB6%&&&;--;--,;&;,,,;,,,,,,-;;,,,,,,-;,,,6,,,2,,=;pBMnbjjjsgsssjjbnnbMMBAp,:,,,,,,,,6,",
",,,,,,,,,,,,jBBVnbnbjgjppspwiww776,=o&&&;&-;-,-,-,,*,;,,;,,;,,,6,,,,,-,,;;,;;--;,,0BBCBmBBBbcbbnjjjpajjjcjsjjpsspw0675,6,;>,%..o.X.%6q66666,666660wiussjjjjjjgjsjMnbBMBnBBBDB<&o&@&&&;;,,,=,,,,,<,,,,,,,&--,6,,,;6,,,,,62,,,pnMbbbjbspsjjbjbnBnMnBBs,,,,,-,,,,6,",
",,,,,;,,,6,,sBBBBBbnbjpsjsswwwwq666=%&o&&-,-;;--;-;;;,,,,--,,,66,;,2,,,,=-,;;&,,,0CBBBBBBBbbbjgcjfgssjcjjspjww0067806,,55,>o.....Xo.%,,,,4,76,66880wsjjjjjjjssgjjjbbNmBBBBBBBB6oo&&;&;,,,,,,,,,,,,,,-,,,;,,,,,;,,,,,,,,,2,,6sBbbbcjfpsjgjjjjjbBSBBms,--,;,,,,,,,",
";;,,*-,,,,,,pBBBBBnbcjjjspspww87766;o&@&&-,-;*,,-,;;-,,-,,,,,,,,6,,,,,,,,,,,--,,wSBBCBBBBbncxbbbbbcbjjjjspupww08636,5,,665......Xooo.o61666q6676760rwpssjppsjsjjssjjbMBVBBBDDBB6o&&%&;,,,,,,,,,,,,,-;,,,,-;,,,;,,=,,6,,1,65,gBBnbnncjjsgjjjgkcbBBSZs;,,-,,>,,,,,",
",,,,,,6,,;,,sBBBBMMbjjsjjgsaiww6667;&o&O&,,,&,,,-;;,,,,,,,,,,,,,,,,,=,,-,,,,,,,wDABBBBBBBMnbjbcbjbjjjspsppp007764,6,,,,,5o...X....X.oo&,,6665667787ww00pgspfjjjassbbcnnBBBBDBBBB,oo&&&&,,,,,,,,,6,-;,,,,,--;,,;,,,,=,,66666,sBBBBckbjjjjcgssbnnBVDBp,,---,=,52,,",
",-,,,,*,,,**sSBBBBBjjjjjapsurww8676,+;;;;,,,=-,,,,,-,;,-&;,,,--;,,,,--,,,,,6,,rBBBSBnBBSMnnccjjjjbssjdpsrwpwwq86,,6,>,,,o....X..o..oo.o;76,,66665600q8wpssjpsjsppujbcnMbnBBBBBBBB,Ooo&&-,,,,,,,,,,6,;;-,,,,,,6,,,,,,,6,1,,,,jBMBBbjjjjspjjjjjbnDDVBp;&-;,,,,,,,,",
",,,,;,,,;-;;pBDBBBMbjjbjjgppww00q65;o&&&;*,,,,<,,,,-,;;*&;,,,,-,,;,,,,;;,,5,,0ZDDBBBBBBnbjjjjjkjsjjssdwspwwww76,,6,,>,>oXX......o.Xo.o+o;6,56665,,7867wyuppppuwpusjgjcnnbBBBBDSDBB6oo@;-;,;,5,=-,,,,-;,,,,,,,,,,,,,16,,,1,1,sBbcbjjjjjwugjjjcbBDDBBp;&-;*,,-,,,,",
";,,;-,--;&;;pDDBBnMnnjjjjpwpr07qq76=@&&;;;,;,,,,-,,;,-,;==,,,;--,=6,;,,;;,,6eDDBSBMnnMbjjgssppjjjgfpypwp0q0w7671,,,,5>o.o...X.....X.ooooo%,157555665160q0wpwwippppssjjjbbncBCBBDDBB6o&&&$&&;,,--;,,,,,,,,,,,,,,,;=,,6,,;,,,,aBbbbjsgjhprpsjbjBBDDBms-;;;-*;,;&;,",
";,,,---;;;;:sDBBNBBbjcbjspupwq0q77,;O&@@&;,,,,,,,,;,,,,,,,=;;;,-,,,,;,,,,,6wCDDDSBnBbjjjggpppssjgsjppwiq7w8q656663,,5o...o..oXX..oXooooooo&,6666676516800wpwwesyppsjkjjjbbbMDBBBBDBB2ooo&&@&,,,--,,,,,66,,,,,,,,,,;,,,;&,,,,sBBncjspjssgssjjcbDDDDBp&;,,;-,;;-*,",
"&-,,,;;*--,,pBBBBBbbbjjsujppuww766,&o+&&;;,-;,-,,--,,;;-,,;,;;;-;,,,,-,*,,0BBDDDDBBBcjbjsjpspuppjspipwp068786157655,oX..oooooXoo%oooooooooo&671,675,66760ipwusujssssbjjxbbnBBDBBBSDBB6oo&&;&;,,--*,,,,,,,,,,,,,,;,,,;;-;;,;,gBBMnjjjpjjssppfcnBBBDBp;-,,,,,,,,;,",
";,,22,;-*;,,dBBBDBbbnjjssgspwy077,5,o&&&;;,-;,-,-=-;;;,,;,,,;--;,,;,,;,,,7CBBBBDDDBbnjjgpspguppppsuppwqw666w76769q6%oX..ooooooo&%oo%O@&o&ooo;65556667,668wpppsssgjsfjjjjjjjbBBSBBACAnB,oo&&;;-,=,,,-,,-;,6,,1,,,,,,2,,-,;,;,sBBbbxjjpjggjsjjjcnBBDBp,,,,,;,-,,,;",
",,,,,,,&;;,,dDBBnnnbbbjpppwupw7671,;oo&&&;,,,,,,,,&-=;;-,-;,-,-,,,,,=,,,0BBDDDDBMBBbccasspgspppwrppppw008676667966oXo.ooo#@ooo&o$o&o&&ooooooo&666,,5,75q77wwssspgssjssjjjjjbBMBBAABBBBB6o&&&;-;;,-;,,,,;,,,,,,;,,,,,,,-,,,,,sBMBbcjsjsjaujjjjbbBBBnp,,<,;-,=;,,,",
",-,2,,,=;;;=dBBBMnBBbjjssuwsww6666,&o&%&&&*,,1,,,,;;,;;,,,;,-,,,,,,,,,,0VDBBBCNBnnbbcjsssussjsswppww78ww7675,5,8,%oo..Xoo&ooo;@&&&&%o&&oooo&oo&766,,,657780qwepsgggjsjjjbjbcnnBBBBBBBBBM,oo@&*;;;;;,,,,,,,,,,;,,-,,--&;,,,&;sBbbnjgjgjbgpjscbncBBbBs,>,,--;;&;,,",
",,,,,,-,,*-,pnBBbBBbbjjjsspspw66655;oo&&@;;=-,,,,=---,-,,,;,,,,,,,,,,1wDBSBBBBMBNnjjbxgsspsjjgswp0www0q066q6,666oXoooooo@&&;&;@;;&&&&&&ooXoooo+;661,6,6656wqwppsjjjpsgjkjbbnbbnBBBmBBBBbn4o&&&&;;;;-,,,,,,,,,,,,;;,;*-->,-;,snMnBjjljjhssjsjbbBDBbMg,,,,;*,,&&--",
",,-,,,;,,,,-yBBMBBbbjjgbcjpypw776,,;o&o@&;--,,6,,,-*,,**;;=;,,;,,,,5,wBBDDDDDBnBBMkjsgsspussjspprwwq7w0q6806666%..Xoooo%@&&;;;,,;&;,=;&@o&ooooooo66667668q0wq0rrusjpgjjjjjcbcbbBBmnBDBMnnn,&o&&;---,,,622,,,,,,6,,--;,,,,,,,sBnbbjjcbjjjjjsjcnBMMnbw,;,,,,,,;;;=",
",,;-,,;-,;,:sMBbnBccjjjjjjhpiwq655,&o&o&@&;;=,,,,*-&;;,,&;,,,,,,6,,,7BCBBBBBBBbMnjjjjsusggsppppupwq78q67q676,7&..o.ooo%&o&;;;,6,,,,,-&-&;&ooooooo&6,1,66757900wwesjjjjjjjjjbjbMBBBMBDBMnMBB6&&&&&;-,,,,;--;,,,,,,,,,,,,;;,,,jBBBnbcbbjsppxcbbnbADBnu;,-,2,-;;--;",
";-;;,,,-;;,:jBBnbMjjjsjjssfpprww77,,ooo&&&;;;,,,,,-;;,,,,,,,,,,,2,,0CFDDSSbnnBncjjjjjpppjjspuwswww0w066865576%XXoooo&&o&&-,;,,,,,,,,;;-,&&&Oo&o%oo&7566,3,668wwrsussjjsgsjjbjbbnbBBSDBBBBSBM,&&o&;;&--,;,-;;,,,,,,,,,--*,,,,jBBBbbnbbjwwpjjbcbBBSMbs,&,,,,-;--;-",
",<,,,,,-,,,,jBBBbMbbjgjjfswwuw8786,>+&&&@&;-;;,,,,6,,;,,2,,,,,,,,,wBDDDDDDMBbbbbjgjjgppfjgspwweww8qw07666556&..ooo#%&&&;,,,,6,,6,66,,=,,&;;&oooooo&;76,557677qwwwwwpsjjjfjsscbjnMnMSBBnMBBBBB6oo&;;&&,,-;,;;,,-,,,,2,-,,,;,,pBZBncnbjbjgsjjxcbbBDBMp;&;,;&-,&;;,",
";,22<66,,,,,jBBBBBBMnxjjpspp00qw86,>o&o&;;;;;;,,,,,,,,,,,,,,,=,660BCDBBBBnnbbbnjjgjjsspsspyppwww0q756676655&Xoo..#%o&@&;,,,,,,,,66,,,,,,;;=@&ooooooo&666556757w8wwpppsjspsjjbxbcBMBBBBnBBBnBBB7$@&;;,,,--=-,*;--,=,,,,,,,,,;sBMnMnnxjjajknbjbjbnBVBp;;;,-;--,,;,",
";,,,,,6,,6,,sBBZBnbbcjsapppy0976667;o&o&&---;-,,;,6,-,-;;,,=,=,1rBBBBBBBBBnjcbjjjjfppssppwwwprwww76666656,oX.oooo&+&;;,,,666,,,,,7,,,6,,;-;&&o&@&ooo.&5,5666560r0wpppupwpjjjjcnnBBBMnnMBBACADBB6&&&;,,,-,,;--;;&;;,,,,=-;,,,sBMBBMBbbsjjsjjjbbnBBBVp-,,,,,&-=;;&",
";,,,,,6,=,,,jDCBBBnbjjjgjsppw867776;o&&&&;-,-,,,-,,,,,,*;;,=,==0ZBDBMBDBBBjbbbjjkjssppspwwu00w0wq66665656&oo.ooooo&;;:,,,,,63,,,,,6,,,,;==;;&&&&Oooooo&6675556600wwppwswppjjjbbbbbnnMBBBSDDBBBnM2o&&&;&;,,,;,,;;;;;=-;,,,,,6pBBBBbbbbjcssajjbnbBBBBp,,,,,6;;-;=&",
";-,,=,,,,;,,sBBBBMbbjjgsjsprww676,6;oOo&&;--;,,,,,--,,,;,-=,,=0CBDDBBBBbbnjjnbgjjcjjspwwwwiw087676655767&X.ooXooo&&&;,<,,2,,6,,-366,,6,,;,,,;-&oo%&oooo;65516647800wwispjjcjjjjbbnMMBnBSDBBDBBbnB6o&&&&;*--;:,,,=,,,,,,,,,6,sDBnMnbjjjjsjfjjbnBBBBVp,,,,,2;&&&--",
"--,,,,,-,;,6jBVBBNbajsspssrpr0w6666,o&o&&;&;,,,,6,,&-,*;,,,,,7BBBCBBBBnbbcjsjjjjxjsssppwwr0ww8769565668%XXoooooooo&,-,6,2,=-,,6,,,65,65,&,2,;,;&&ooooooo&5,,,,66678w0rpppsjggpjjbnBbbbBSBBBBDBBBMM4&&@&;;;-,,,,,,,,,,,,,,,,,sSBBBMjsppjgsjjbbbBBBDBt,,,,,,,,&&&,",
"-;;;,,,,,,,,aBZDBbjjsjspssppw0q66,,;+oo&;-;,,,,,,,;&;,,;;,;;6mBBBVBBBBMccbgajbbjjgspsprw0www9766677q66#..oo.oo@o&&;-,,6,6,,,,,<-,,6,5666,26,-,;@&ooooooooo,,,5,7668770pwpsssjgjjbbbbnbnBBADBDBBBBBB,@&O&&,,;,,,,,,,,,,,,,4,,pBBbBnjcjbcssgjbbBADDBDs,,,,,,,,&-;,",
"-,,;,,,,,,,,jBBBbbnbjppjfsipwwq6122,oOo&;-,-,,,,;-;&-,,,,-,7BBBBBDBBBBnjjkjjjjjgsgsaptw0q7q66656,7566oXoooo+&O&&o;;,,,6,,;,;,,,;,,,,766,6<1,-,,;o&o&oooooo&,,556666780wpuppppjjcjjjcBMnBBBADABDDBBnN,+@&&-=;;,,,6,,,,,6<,4,,aBBbbbbcjjjsgssccBMBBZBj,,,,--,,,,,;",
",,,-;,,-;;,,jBBSBMbjjjppjspp0ww7656;o&&o;;--,,,,,,,>=&,6,,0SBMBBNBBBncfjjjjsjppssgpppp08677q6686565,ooo.o%o%o&&@;-;,666,,,,,;,,,,,;-,,6,,,,,,6,;&@&&oooooooo1,,,566766wwwssssspjjjjbnnnbbBDSBDDBBBBBA6o&#;;;;-;,,,,,,,,,,,6,jBBbbbBjcjjjsgsjnnbBBVBa;2,,,,,,66,,",
",--&;,,-;;;;jDBBBbjjjjfjssssww07666&o+&%&&,,--,,,,,,,,,,,wDDBBBMMBBBcjjjjgjsjssjpwwurwwwq8797696563o.X.o.oo%&&;;,;;-,,6,,,,,;,,,,6-,6,,,26,,6,;,;;&@o&o+oooo&,,,,56657wwp0wssupgjspjbbMbBBBSDDBBBBBBBB6&&&;@;;--,6,,,6,;,6,,jBBBBnbjjjjjjjcMbMBBBBBs,,,,,,,,,,,,",
",,,&,,-,;&&&jBABBbbbjcjjppwwwq08655>o&&&&;;;;*,,6,,,,,,,0CDBDBMBBBMbbjbjjjpsuppjsewpw00q7666666667+.o.ooooo&&;;;,-;;,6,,,,6,--,2,,;,,,,,6,,*,2,,;&&@;o&o&oooX%5,,556680wpwwiuppjjpjjjbcbBBBBSDDBMnnBDBB,@&&&;-,,,,,6,,=,,,,6jBBBDBjgjjjjsjknbMBBSDAg,,,,6,,,;&;&",
";;;,-;,;;&&;jDDBBBbbjjjfpuppw7w07,6=#oo&&;,*;,,16,,,,5,7BBBBBBBBNnnnjjjgsppppwwpwwq770q86555,5666&.Xooo.oo&&@;&;--,,,66,,,,2;,,,,;---,,,,2,;,,,,;;&&&$o&ooooX.&,,53,,6669sppwupjjpssjkbMMnbBDBBBBnBBDBmB6&&;&-,2,,6,6,,*,,,6sBBBDBjjjssdsjnbjnBBDBBj,,,,,,,6;;;;",
";;,---,,&-&=sDDBBmncjsgsipppw876666;&o&o&*,*;,,2,,,,,,pZDBDBBMnbbcbbjjsspppgpwpspwq767q6,6665,65%.ooooo&o&&o;;-,;;;,<,6,,,,5,,>,,-;,;,,,,,,,,-,,;&@&&&o&&ooo.Xoo666,,6676piwwspsspupjjjbjbbBBBBBBBBBDDBBB6&&&&-,,,,,,,,,,,,7hBBDDbjjjajjgjbsjBBBBBBs,,4,-,,,;---",
"-,,,&,,;-&;-jDDBBBbncjjjjjsww6q6577,&@&&@;;---,,1,,,,wVCCDBBBBnbcbjbjpsjpupssipwr0ww6566765,665oXXoooooooo;;;&--,,,,6,,6,6,,,=,,,-;2,,,,,,;-6,,,;&&;&&&ooo&ooooo#,6665556wwrpprpppsjjsjjjbnMMMBBBBVBDBBBnB,&&&,-*;-,,6,,,6,,jCDVBbbzcjedcjsajbnMnBBp,,6,,1=-,&;-",
";*,,,,-,,-;;sDDBBBnbjjpspypww800666,o&@&;;;---;,,,,,0CDADBBBbBnbbjbnjspsjppuiwwww67q76666,,,55oooXoooooo&&;&;=,,,,,,,,,,43,,,,>6<-,,,-,-6,,,1,;,,,--;&&oo&&o#ooooo6,6,,5760ppwwpusspgsjjcbnnbnnBBBBBSDBABBB6@;;;-,*,,,,,,266jDDBBjjbjjpsjjjjjjnbBVBs,<4,71,,6,;;",
";-,6,,,,,-;-jBDDBBbjjpwuwwrwwwqw766:&oo&;---,;;->,,7BBBCDBBBbbnnbbjcjfupsjswrw0w77967555,,,6,oXooooooo&o&&,>--,,,,,,,*,,66,,,666,,,,;;;,,,,,,,;,,,-;;@&&&&&&+oooooo,6,36,17ww0ppwpgssssjjcjjjbbMBSBBBDBBBBBB2o&&;;;,,,,*,,,6jADBnbbcjjspjjjjcxbcMnBj,,,,6,-&--;;",
";,,,6,;;,,,,wBBBnBnjspwpsppw008ww77,%&o&;;;,,,,,,;0BBCBDDDDDMbbjbsjsjjspsppw00ww0q7675766,,6oX.ooooo&o&@;,,,<,;,,,,,,,;;,2,6,66,,,,,;&;,,,,,6,,-,,,=,&;;&o&oooooooXo,6,,,67qwwpwpwsgsppsgsjjjMnbBBMnBDBBBBBBD<o;;&&,,,,,,,66aDVBBbjjjjjfjjjjjbnNBBBp,,-,,;,&&,-;",
";,,2=;;,,,6,pBBBbMbbjjspppwy0w888081o&&;&;;;;,65,0DDDDDDBSDBBbcjjpgjjppjsiy0807q76,6656,666o.o.ooooo&&&;;,66,,-,2,6,,;;,6661,,,,2-*,;,,2,1661,,,;,2,,,;=;+&;&&ooooo.o,,,,767qw0wuwpjapwspsjjjbbbbmBBnDDBBBVBBB6&&;==,,,,,,,<jDBMnbjjkjssbbbjjcBBMBBs,-,,,,,,=,;&",
"&,,,=-,,2,,,pnnBBMBBMbswwppw0w7q0ww6%&&&@;;;,3,,wDDCDBDBbbBMbbnjpssjjwppprww86776,656,3,71oXo.o.o@oo&&-,,,,,-,,,,,6,62-,25,661666,,,,66526,6,,,-,,,,,,,-;&&;&oooooooo&,;,5q77qwwpppppypppjjjjjbjjnBBnBDBBVBBBBB6&&;;,,-*,,<,jDBnnbjjppgsjbbbBBBBnbBs-,-,,,-&&=,&",
"=-,,;-,66,,,tBMMBbMBnjppsewwpp00www,o&&;&=;,,,3wBCCBBBBBBMnbjbjssgpgjppywwrw766675,,,6565&oX.oo%oo&&&;;,,,,,,,,6,2,6,,-,,,,,,,,76;,656,,,,,,,2,;,6,,,,,-&;&&&&oo%oooooo,56578800wppupshjsjcjjjjbcbMSBBBBBBSDBBBB6@&&=,;;,,,,jDMnMBMbgpsssnMjbBBBBBBp;;;;,;&;;-,-",
";;;,--,6,;&,pBBBbcbnnjjjjjpppw8wwwp6o@&;;-,-,,0DBBBBBbnBMbbnjjcjsspsjapww88867,661,,5665%.ooooo+@&&&;,=;;-,6,,,,,,66,,-,,,,,,,,6,,,,5,,1,;&;,,,*,,,,,----*&&;&@&o&XoooX&66,76608wpwpsppjfgssfjjbncbBBBBBBCBZDDDBD6&&-&&&,;,,jDBBnbbbcjjppjjjbbBSVMnp&;;-;,,,;;,,",
";;=,-;-,,,--wBDBbbbcbjjcjppywwww0pj9&o&;;;*-,0CBVDDBnBnbbjjlbbbjsppppgp0076766765566656oXXXoooo#&&&;;,-;*-,7,,,,,,,,,,,,,,,,,,,,,,,,,67,,,,;;,;&&,,,,;*&--;--@&&ooooooo&&567667qw7qwwspppspsgjjjjjxbBBBBBBDDCDDDBD7&&&&&;-,,jSBVnbbjjjj0pjsjbnBDDBbp;,,<,,,,-,,,",
",-,,,,,,-,;;pmBBBbbjjjssjpapwwwtssbwo&&@;=--7ASBBBBMnncbjjjnjcjjjappwpwww066666,,66666&..ooooo&%&@;,,,,,,,,6;-,,,6,,,,,1,,,,,6,66,76,,,51,6,-,-&;;;,,,;;-,,,-&&+&+ooooooo&655567777qwwpspppufpagjjjbbBBBBBBDBBBDBDD7&&;;;=,*sDSBbjjbgpprgcjjnbnBBDBp2,,,,-,,,2,,",
",,;,,,,;;;,,sCBDMnBbjjpjjjspspssjjbwo&+&;-,0BDBBBnbbcbbjjbbjjjgjpprpspw00q66631156666%.oo.oo$o&;;,,,,,1,,,,,;,6,,,1,,6,,,,;,66,6,,,76,,,1,6,,,,;&,,&;--,,,;;,;;&&&&ooo%ooo&655765657wypsppppssjjjjjbbBBDBBBBBBBBCDHF6@;;&;,,jGDBbjjjjpssjjjbbBBnMBBt2,,&&,,266,,",
",2--<6,--,&=tBBnNMBnjjsjkjjssppaacBpoo&&&;0DDDBBBbbbbcjjjbbjppsjspspiwwq766565656666o..oooo&&o&;;-,,,,,,6,5,,,,,,;,,26,,,;;,2,,,,,2,6661,,-,;,,,,,,;,,,67,2,,,-;&&&&Ooo&ooo&5677867wwwppwssppsjjjjbjcnnBMBBBnMBBBDDDD7&&&;,,jHDBMzjjjkjssbjncBBnMBBs,,,,;,,<6,,;",
",,,;,2,;&&&;pBBbMbMbbkjjjjjjjssjbMBgo;&o&wDDDBBBbbbjjjjjgjjgpppgpwppiw0q66766,,6,66&o..oo@oo&;,-;>,,,,,,6,,,,,-;;,,,,,,,,,,,6,6,,,,;;,,661,,;,,;,,;;,,,,,,,2,,,;&&oo&@oooo..&,5667qw0wrpjpwppssrjjjjbbbbcnMBMBBBBDDDFH7&&&;;jDBnNbjjjjjspjbMbbBBnBBj,,,,,,6,,;;;",
";,;-,,,-&&;;pBMbbnMjjxjjsssjbjjcnBDDo&o&0DDDCmNnbbbjjjjjgsggjspppwwpw077676,66,676o.Xooooo@&@;--;,,,,6,,6,5,,,,,,,,,,-,-,,,,66,6,2;&;-,,,,2,-;;,,,6,,,,,,,,,,-;&&&&%o&o+oooooo,,6,6qq0wwwwwpssppppjjjcnbbncbnBBBBSDSDGHq+&&&DDBNbnjjjfjjpjbbnBDnnBSj,;-,;,,,,,-,",
";&;-,,,-&&;;rBMbbbnbjjjgpggjjcbnBBDH7oojDDDDCBnbNbkxjjjjjspsjgsepw0ww868956,,1666ooX.ooooo;;;;,,,,,,,,,,,76,,3,,,,,,2,,,,,,,6,,,,,;--;,,;,,,,,,2,,,,,,,,=>,,-,;;;&&&&&&ooooooo&,6317qrqwwwpuuwpppupssjbcjjjbbnnBBBBDDHDHj&&0DDBBbjxjpjksjjjjbDBBbBSg,,,,-1,-,--;",
"-&;,;;,,&&&;pnnbnMncjjgaupsssgjbBZDHGjBHDDDSSBnnbbjjjjjjjssjspppwwqq7w77556,66,6oXXoooooo&&&;-,-,,2,,,,622,6,,,,-,,,,,&;,,,66,,,,,,,,6,,,*,,,,,,6,,;,,,,,>,,,;*,,-;&*&@O&%ooooo&46667wq00rwppwppsuuppjcggjbcjbbnBBSBAHHHHBjKDDSBncjssjssjjnjnBBDBBSj,;,,62,,,-,,",
",,,---;;-*&;wBBnMnbspgjgpypsjjjbbBDDDDGHHDSBBBbcjbjpjjjppssppppww77667661156716%Xo.ooo%%@;&&&-=;-,,6,66,26,,33,,,2,;,-&&,,,,,,,,,,1,,,2,-;*,,,,,,,;,,,;,,,,,;,,--;;;&;;&&%&ooooo&,,65776w0wwppwppsppspjsjjjjjjbcbMBSBDHHDDHHHDDnbjwpjsupjbBMBBBDSDSs,:,,6,-,--;,",
"--,-,-*;;,:;pnMBbbbjupssswpsasjbbbBBBDFDDDBBnMjjjjsgjsppwpppwpw0q77q6566,,,666%o.ooo&o&&&-&&;;;;,,=,6,66,,,,,,,,,,,;--,;,,,6,;,;,,,;;,,,*-,;,,,,,,,,1,,5,,,,,,1,,;;-;&;;&&&ooooooo6,56887wwwwppypjsppsspxjpsjjjjcnbBBDDDDDDDDDVbjjwpggjgjjjjbSDDSBDs;;;,-;-,;&,&",
"&;-,,,-,-;,:pBMbbbjjpppsgppgjgjbnbNBBCBDSBnMbbjjggssgpwpwpwpwwwq677q666666q07ooXo.oo&&%&&*&;;&,;;,,,,,,62,,,,-,,,;,-,-,,,2,<,,-,2,;;;,,,;,,;,,,,,;;;,,3,,,,,,6,,,,--,;,;&&&&ooooo.&7167w67007wpppppspsspjjssjjjkbbbbnDBBBDDBBSBmbcjwppgjjjjacBBDGDBg,,---&&;;;&;",
",,,,,,-*,;;;dBmmnbjbbspfpwpsjjjcnbnnBBnnBBMbbjjjjsjjpppppwywwww6766655326637&Xoooo%&&@&&&&----,,-,,,,,,,6,-;-,,,,,,,,,,,;,,,--;,,,,-,&,,;;--,,,1,,,,6,,,=,;,,,,2,,,,,,,,;;@ooo&oo.o%,68766580issepsjfpsppjpppsgagjbbbBMBbBBMBBnjjjjspwpspupsjbBDDDBp,,-=;-,,,;;&",
",,,,2,&@&;&-sMBbzbjjgppsupwpjbjjcbbMBMbbnbnMbnjgspjspppsppww07w7776551,,,53oXooooo&%&&&&;;,-,,;--;,;,,,,6,,-,,,,;,,22,,,-,2,,;&;,-;,,;,,;;--,6,,,2,6,,,,;,,,,<,,,,,<6,,,-;;&&@oooo.o&66666,67wwppupppsawupuppsssggkbnjbbbnbbBBjgjssspjsssspujBMDBBDs;--;,,,,-,;&",
",,,,,,&&&;@-wBBjbjjjpuppupsjjssjjjcbbbbnbbbcjbjjsppjjgsppwuwqwr76,,666,,,6&oX.ooo$%&&*;;;-;,,,;,;-,,,,,-,,,,,,,,,;,,,-,6,6,,,;;&=,,,,-,,,;&;,,,,,2,,,,,,-,;,,,,;,6,,;;,,-;&&&&ooooooo&65665568wwwppwpssswwwpppppssjjjjjbbbcjcnjjssgjgspfjjpjjBbMBBVj;&&;-,2-;-,,",
";-;;;;;;;;--pBBbxbbjppjprjfjjsgjsjjxjjbjjcbjjcjsfppsjpppwpww7qw666,66,666&.oooooooo&=&;;--=;,,*-;,,,,,,,,,*;-,,;,;>,,;&,,,6,,-=,-,,,;;<6,,;&-,,162,,-,,,,;*,,,,,,26-;,,,;-&&&oo@ooo..o%3666570wqyswwpwpspppsppsspsbbjsjjkbjjjjgjpjppswyjspsjbMMnBBBj,-&;,,,,---*",
",-&&,,,;;;&;pnBNbNcjgspsuspsjjbjpsscjjcjjjjjbjjjgsppspyppw0q676556,66566oo.ooooo&&&&=,--,,,,,,,,;--,,,=,,,,,,,,,,,=-,-;,,63,,,-,,66,,,,2,;,,,,,66,,,,,,,,;,2,,,,,6,,;,,,;;&&&%ooooooo.o&6766668wwwwpr0pwwppppspjjujbjgbjgjjppjssppwjjwppusjjmnbBBBBj;,,,6,,,,,,,",
";--,1-,;&&&;sDSBbbkkgsjpspjjjbbspssjjpgjjbgjbbsdgpsgspwwpw86696,,,6,766%o.o.ooo&&&&&,,,-;;,,,,;,;*,,,;,,,6,,,:,,,,,,2;,,6,,,,,,,,,66,,6,-,,2,,,,,,2,,,,,,-,,,:,,,,,;*,,-,-;-&&&o&o%ooooo%q768760www0p0rwuwsspgjcjssjcnjjssssspuseppjjjpupscbnncNBBBj,;,,,,-;,,,,",
";;,,,,,--,,;sBBDBnnbjsspsssjjjsggsppbasjjjpsbbjjjppfspww08657765,6,,56%.o.ooo+oo&&&;;--;,-,6<,,,,;,,,;==,,6,,,,,,,;,,,666,,,,2,-,6,6,,,,,,,66,,,,,66,;;,,,,-;;,,,,,<,,,;,--;;&&&&ooooo.o.&6576qww8070rpwppsspsfjjssjbljjssagjptpwuu0wsssubbbjbNNBVBs-,,,6,;;,,,,",
";,;,-,,,,,::aDBADBbjjppusjagcbsjgsepvjjsdjsskbbjjsspspwwq765661555667%.o.oooO&o&&;&;&&;,,,,,,,-*;,-,*;,-;,,,,,,,,,,,,,6,,,6,,,,&*,,,2,6,66,,,5,,,6,,,,,,,,,;;,6,6,,66,,,,,,;,;&&;&&oooooo.&76qww00rw0ppsupppuwpgfjjgsjjjppgjjsuypjp07isjjkjbjbMbBBBs6,,,<,,>,,,,",
"-;,--,;;,6,,jBABDBbjjpwpsspuskjjjsgjbbspgssjjbjjpuspiwww086,66,76564#o..oooo&&@&;;,,,,*,==;,,,;,;,,,,=-,;-,1,,,,,,,,;,,,-,,,;,,&&,,,6,,,;=,,,,,6,6,,,,,,,,>,,,,,,,,2,1,,,,,,,-;-;&@@ooooo.o#67qwrpwwwpwspppwpwsjbjjpwsgjsppjpwppusswwjsgjjbbjxMBDBBs6,6,,,,66,,,",
"--,-,,-,*66,jBBBBBBcjspspappfjcsjjjjjjjsgpsjbjjsggpgpw0886,66,5,565&XXo.ooo%&&&&*,;,,,,,,;,,,,,,,,,=,,;;;;;,,-,,-;,,,,,,,,,,;;,*,,,67,6;;,6,,,,26,,,,6,,,,;,,,,:,,,,,2,,,,<,,;,,&&&o+oooXooo&ww0ppprwwsgsspsgpgajjjjsssjjsppusppssjpgjpsccbBnbnBBnMj6,,,6,6,,,6,",
"-;,-66,,;,,=enBDBnbcssppjjsswpsssusjjjjspsjjxjjjgspuwwq766,6666656%oXo..ooo&;;,,-,,,,,,,,-=-,2,,-,=;,,;=-,,,-,,-=;,2,6;;,;,2,,,,;,,6,,,=;-,,,,666,26,,,,,,;,,1,,,,,=,,,,,,,,,,,;&;@&$ooo.XoX.&wwpppupwppppppgwpsjjgpussjjpsgjjjjgsspgjssjbcbbnBMBBBj66,,,-,,,,,,",
",;;,,2,-,,,;wBSBBBBBcjsjjjswwpwswegjjjasssjjcjjpsgpww06,,2667867q%....ooo%&>,-,,,,,,6,*;-*&;,,,,,,--,*-,*-,,,,,,;;,-,,,--;,,,,;-;&,<6,,,&;,1,,6,,6,,,,,;;--;1,,,,,,,-,;-,,,,,,-*;&&&o&oooooooo&ssssjpupppusjpuwjjjjuppgjjjjjjfjjsjjppgpsssjjNbbMBBDg,,,,>;-,6,,,",
"-;--,,,,,,,&wbDDDBBbcvasjjswpwpppwabjgggppgccjjpsupw7765,5,6667q&.X.oooO&&&;,,,-,,,-,,,;;&;,,,,-;;=,,,,;,,;,--;,,,,,2,,6,;,,,,*,,;;,,,,-&*,;,,,,3,,,,--;,;,,,,,,,,,,,;;-,,;&,,,,-;&@&o@ooooooXo>jjjjdspspssspwegfsjswpjajcjjjpsjjjjpwpppssjbMnnbDBBp,,,,&;,,6,,,",
"&;-;;,2,,,,;wbBBBBnjbbcswpp0uwssspjjjfjjjpjjjjjspwi0751,,6,167q&.X.ooo&o&&=--,,,,,-,2,,,-,;;=,,,-&;,,,--,,,,,,,,,,,,,,,<6,,,,;,,,,,,,=2;&-;&;,,,,,,,,-;,,,,,,,,,,,,,-*,-,,,;,,,,,-;;&&&@%+ooooXo,jcjjsjjjsuppppspjjsppssjjjjjgusjpjjpuwwpgjbvBBnBBDj,,6,-,,,,,,,",
";;;&&&,,,,:,snBBBnbjjbbjpuwwwwpwgjsssjcgjjbjjgjsuww76561,7,,59&X.X.oXo&&%;;-,,,2,;,,,---;,&-,,;,,,,,,,,;;,,,,,-,,,,,-1,,66,;&;,6;,26,&,,;-,,,266,,,,6,-,,,,,,,,,,66,;;-&,,,,,,,,,;;;&o&&&oooooo.o,cbbjjxsuwuspssssjjppppjfsjjssupusgjpwpjjaccbBABBBj,,,,,,,,;,6,",
",-&;;,,;,,::sBBDDMbnjzbjspppwuwpjsjwsgjppjjbjjjjppw766565,,57%..Xooo+o@;;;;,,,,,,,;;,-;;;=,,,;;-,,,,,,-,;,,,,,,,2,6,,666,1-,-,,,,-,6,,,,,,,,6,,,;,,,,,,,,,,,,,,,,,,,;,-;,,,,,,,,,*&&&;;;&ooo..oo.X,nnbkbspsfgfgjsujcjjgssjsajpppuppgjjspsgjbbbMBBDDj,,,,,,,,;,,,",
",,,,,,-&;;;;jBBBBBcbbajgswpssspsspsspsgapupbjjjbjsp076336667>o...oo%&O;;&,,,,,6<,,,;*,;;&;,,,,--;-,,,-,6,*,,,;,,,22,,,,6676,,:;*,,,-,,,,,,,,,,,,;;*-,,,,,,,,,,,<66,,;,,>,,,,,,,,--,&&&=;&ooooooXooownnbnkfjjsspsuspjjjjjsjjsjbjpppwpjjbjjbbjMnnbBBBp,,,-,,,&&;-2",
",,6,,;,,,;-,jSDBBSnjbjjjjpppjgjfsppjssjupsgcspgjfpppw7656661.oo.oooo&&-;;,,,66,,,,,--,-;;;,,,,;,--,,,,,,,,-*,,,,,,,,,6,,1,6,,:,;;,,;*,,,,,,,,,,,,;*-;,-,*,,;,,,,,,,2,;,,,,,,,,,,,;,&&*=;&&o&oooX.ooojMbbcggjjjpupupsjjspgjbjjjjjshppjjbjbjjjnBBBBBBp,2,&-*;;;;;,",
",,,=,,3,,62,jDDSBBMbkjssgcjssgjcjjgjjsjjspsbspppjswwyq6677q,o..oooo&;==;:,,,6,,,2,,,,,,-;,,,,;,,,;;,<<,,,,,;;,,,,,,2,6<<665,,,4,&;,,;,*-,66--;;,,,*,;;&-,,,,*<*,,,,2,;,,,,;-,,6,,;,,1,,,&oooooooooo.wbnbcjfpgjpupusgggussjjjbjugjjjjljjjbjjbbBBBBbBp,,;&;,,;&=,,",
"-,,,6,,,62,,sBSDBBBMbMbjsjjpjbbjjsjbjsbjssejjsjssjspr0776q0p=oooO&&:;;,,,,,,,6:,,,,,--,,,,,,*,;-,&;,,,,,,,-*,,,,,,,,,,,,6667<,,42,,,;-,,,,,;-;,,,,,*-,;,,2,**,,,,,,,,;,,,-;=,,,,;;,,,,,,;;%&+ooo..o6SbMnbjppppsppsgjssppsjsbcsssjjjjjbjjjbjjbBBBBBBd,,&;,,,,,,,,",
"-,6,,64,,,,,sBDDDDSbVBbbjssgpsjjgpgjjgjkbjsajbspppipwwpwwwwpsjqwpsjbbbjjjjsssjspsjjassppjsjjjjkjjjjbbjzbbbbjjbbbjnbbjjjbjvnnbjjjbbbbbbbbkbkjzbnjkcbjbcbnbzbjkjkbbnbbxjbjzjjjkbbbjjjbjjjjjjjjjjhjfpSSBMBbbssspwupjppgsppupjcjgspjjjcjsjjjjsjbbBBBBBZj;;&,,,,,-;-,",
";,,,6,6,;,,,jDDDDDSnBjjjeppppysssjspjjbbjjcjbbppu00ppssww0sppjjBBDHKJHHHGDBBDDBBBBBBBBmMDHDDDGHHHJFHKHJJKHHHHHHKHHHHHKJHHJHLKJHGHHHJHHGHJKKKHHKHHJJHHJHHJJKHHJJJHHJHHKHHHHHHHKJHFHHHHHHHHDHHDHDDDBBbbnMjjjspwpppsrsjsjsspgjnbgsjjjjjsjbjbjjcbnBnBBBs,*;-,6,,-*&;",
",662,,,,,,,-jDSDGDnnjkbjwussspppsjjjsiscnjbjbbwwyppsggspp0pusfjBBDFHHGDHDDBBDSVBBBBnBBBBBHHHGGJHHHHHKHJHHHHHHHHHGHHHHHHHHHHHHHJHFGHHHHHHHHJHJJKHHHJJHJHHHHHHHJJJJJJJKKKHHHHKHHHHGGHHDHHHHHDDDDDCDBBnbncjbbjssppsjpjjgjjpjjkbgfjsppscjsjjjjjcbBBBBCDj;;,6,6,,2,;-",
",2,,,,:,,*,-sSBDHDBbbbcjjpppsjjjuusjjjppjbjjbjswwsjlssssspsssjjBBVDGHDDDAABBDBBBBBBBBBBBBDDHDHKHHFFHHHHHHDHHHHHHHHHHHDHHHHHDGJHHDHDHHHHFDHHGGHJHHHHHHHHHHHHHHJGHHHHHHJJHHGHHKHHHHDFFDFHDDDDDDDDBnBnNbbbjjbjjsppgssjbjjjpjgjjjjspwpgjjsjjjsjjMBBDBCDj,,6,12,,6,,,",
"6,,<,,,,,,,,jBABHDnbjspppsgpjjbgsupjjpspsjssjjpppsgspsupppspsgbbnBSDHGDBSBBBDSBMmBNnBBMBBSBDSDGHKHHHHHFDHHGHHHHHHGGGDDDDHDDBDJHDDGSGHHHDDGHDGGHHDHHHHHHHHDDDDKHDDDHDGHHHGGDHHHDGGDADDDDDDDBDDVBDBBMnbcjjjjcjjjspsjjbjjpwjjjjbjpspspjjspjcjbbnMBDGDSj,6,66,,,;=,,",
"2,,,,-,,,,,,pBBFDBbbsjjuwfbjssbbjjpjgppcjjjjbjajagfpssew0pppgjnjbnnMDDABnBSBBBbbbBNBnbnnBBSSMBBDHHDDDDDDDDDDDDDDDSDDDDDBDDDBVGDDDBBHHBDBBBDDDDHDHDDGHDDHDDGDDDDDDDDDDFHDBDDFBDGDBBBBBAVBDDBBBBMBbbjbbbjjjjjspspsgjjjjupppjkjjjjjjpppgssssfjbMnBDDBDj,,,,,,,,,,,,",
",,;,,,66,6,6pBSBDBcbjgssspsspejbjsuajssjjsjbbjjjjfppgjpupspsjbbxcbbMBBBBbMBnbbjajbbbBBcBBnBBncnBBBCBDDDDBBDDDBBSVBBBBSBBBBBBBDBBCnBDDBBDBBBBBBDBBVBDBBBABBBSVBMBBSDBBCBBMBBABBDBBBnMMMBBncbbnbbnjjjjfjcjjjugsspsjfkbjsgspgsgspsspsjsjjgpujsbnMBDDDDb,,,,,6,,,,,,",
",3,-,,,,,,,6jDDDHBBbjppjgyspsjjjbsssgjjsjapajgjjsjgpgpsjjpssjjbbbbnbnbMbnjncbjjsjbjjbBjjnbbjNbjnBBBBMMBBnBMBBBnMBBbnnBnbbbBBBBBBBnNBMBnBBnnbBMnbnNBBBBBBBnnbBBBBBBBBBbnnBnbnbBBbnbjbBnnBnjccjbcjjjjjspjjpsfjpausjjjjpsgjbjspsppjjsppjcjpsjjnnMBDDDDj,,,,2,,;,,6,",
",,6,,,,,,,,,sMBDHSBBbjjsgsgjjjafjppuscbjjjbbjgjjgppgjspgjwppspjbBMnbbknbbBbkjgjjjxggjbjjjbjcbbnbnbkbNBMBbMbbnbbbbbnbcbbbjjnbnBbbnbBnbbnBncbbbnbcbcbBbnbjbnkbbbbbnncbMjjbbbczbBjbbjjbbbjbgjxjjjjsjgggjcjpppjsssubjxbjjpsjjspgjppjjgpepsjcjjnjnBDDHHHj,*,,,,,,<,66",
",,,,,,,,6,,,sBBBDBBDcjjsgjbBbcnjbksscbjjjjjbjsjjjjusppwpppypgjjjjnjjfbbcncjjjjcgsjjpajpgjjjjjcjbBbjbnBbbbbjjnbbbbjjcbjjbdajjjjbjcMbjncbbcbcjjjjcjbbjjcbjbjbjjjjjcjbbbjkgfbbjjbcbbgkjjcsjjjjjjgppjsssjjjpfsggfupjjbjjspappwpfjw0wjspwpjjjjjjjMBDDHHHj,,,,;;;,,,,,",
";*,,,,,;;,,,sBBDDBBDjjsgjbbjssjspjsjbnbjggjjjgjbjjjjspspfsjbjggsajjjsjjxxgppxbbjssgpsjjpjjjbjjjjbnbbbjbbbjjjjjbbjjjjjjasssjjjgjzcBbjgjjpsjsjjjpsjjbjjbbjjcjjjjjjjjcjjbjsscjpjnbjsjxgjjjsjgpsggpjapppjjgpppssgsjjjjsjjjjspwjspwwpjjsusjjjbbhbBBBBDKKn;;*-;;*,,,;,",
",,,,*&&;;,,,sDDVDBBBncjcjnjapppspffspjjzjsjbssjcspjjpgjjcjbjjgpsjjjjfjjjjspjjnnbpspsjjfwsgssjnjjjkbjjjxkbjjjsjcjjjbjppjpyupssjbbbnbbjupspssjgjsspjjbjbbjjjjjajcjjajjjjsppjxsbjssjcsssjjspppssgsjussxjjpsjssgjjsjjjsjjgjppjsjjwpjbjgsjjjjjbbbbBBDHKHj;*,,-*;;,,,,",
",,,,;;@;,,;,jGDDDBcbnMjkbgjjhjjjjjjgsjjjjgbcpsjjsjjbcjjgjjgpupswppgjjjjjjjbcjbnbccjagsupgswwppjjjjjbjjbjjbjssjjjjjjspwajp0wsjjbbccjscjwsgjsppsjjjspjjjjjjpjjsjjgjbjsgpsjsxbjjsssjjcjsjjjspwssspagjjjasspjjjbjjjgbcssjggjjssjbp0sjssjjjjjssnNBCDGKKHz--,-&&&&-,,,",
";,;&,;--,,;,bHDDHBbjjbnbbjcjjljjjjjpusjjjjjjsbgssjjjxbjpsssusppppsjjjbxjbbbjjcjjnjsjsgjjssfuupsjjjbnnjcbxjbxjbjspsaspupsswjbjjjjjssusjjjgbfsswupsspjjjjjpsjgsjsjjnspjpsgcjjjspupsjbjuppgjspuppwwjjjjjssfjbxjbjjjjnjjcjjjjspgasusjupjjjjjjjcBBDDHHHKz&&;;&&&;,,6,",
"&-,&-;;,,,,-pHGGHBnncbBDjsjjbcjjcjspssjjpjsjgjbjsjjjjzjsjpjppjppgjjbbnjjjpjjjjfbxnBcsjjpupjsjsjjskbMnjgbckkbjbjjsppsjgpsggjgjjjjjjjsjsjjjjjjjspjspjkjjjjsjjjssjcbjggjspgbjjbjjpfjjvjwpssspespppssjjjgsgjbbjbnbbjbbbnnjbjpsjcjppjjpyjjjcbbbjnBDHHHHJw;-;;&&&;&&,-",
"-,,;;-,,;,,;,FHHGDBbbbnbbjjjjjpjjjgjsjjjwssjggbbbjbjjjjbjsjsfjsgjjbbjjjjjsjnjsjbjjbbjkjjsppppsjgjjbjjcjjnbjjsjjjjsgjcgpsjjggbjjdpjssgsgscjgjjhjjjjjjjjjjjjjjjjjzjjgjjjjjjjbbcjjjjjjjjspjppssppgjwjjjjjbjmMbjjbnjxbbbjgnjujsjbgsccjjbjjjjxcjbBHHDDHH;&;,-;@&&&&;-",
",6,2-;;,,,,-,HHHDDDBbcbbcccjjbjjjgjssjjjjpgjpsjBbbjpjjjsusbjpgjjjbbbsjshcjjbjjbbjjjnbbjgjjjppsjpsbjjjljbbjjjbjjjjsssjjjjpsjjsjsupggjspsajjssjjjjjjjjjkajcbjbbbsbjjjjjjvjjscjgjppbbjbbjjbjjjsppspjjjbcjnBBjbjjjbbnbnbjjjgjjpjjsjbjacjgsjbbMMnBHHHHHK*&--,;&&&@&&;",
"*<,,,;&-,,1;;BHHHGDBNbbnnbbjjjccbjjjsjjbjsjbbjbjjcbjjjjsjjjsppjjbjjjppspbjjbnjcbjjjbjjjshjjjpsjgjcjjjcbnbjbnkjjjjsajjbjjsjjjpjsspspssgjssjgjjjjbjjjjjbbjbbjxcjjcbjjsjjljjpjbjbspbljnMBbBbjjjpsjsjcbcbcbbxjkjbcbbbbcbBBcbbxjbjjjjssjgpfbjbnnDSDJHKLD;;;,-;,-&&;;-",
"-,;&&;--,,2,,0HHHHSBBMbbBBnbjbjjjjxjajjjcjbjnjkjjbbnbjbnjjjspfjbcsjjpjjjjjjjjjjbbbjjgjjjjjjbjjjxbjfjjbjjcbjnbccjjjjjjjjjjgjbjcgssppsjjjjgjjsbjbjxjjjbnbbbbbMbjbvcbjjjbzbbjjbcjjbnbkcnncbnccbbbcjbsbnjcbjjjjbjjjnnkbbBbjcjbnbjbbjsssgjjjjbbBBSDHKKKw;;;,-,,&&;;&&",
";,&&&;&,6,,,,,DHHHDVBBBbBSBnnBnnbbbbcbjjbbbjjkgsjjjjbbbjjjcjsjjjjjbbjjcbbncbcbnbjbzbpgpsssjjbbjnbjsjjbjccnbjcnnbbbxvjbjjjjjbcbjgggsjscMzjgjjjbbxbjjjjjbvbjnnbjbjjbnjnjjjxjbbbgkNbbBncbjbBbjjcbcnjbnjpgjnbbjjjcjbnjjclbbjjMbbbjjjsppjbjjbnBBBSHHKLD-&;-=-2<-;--;;",
";;&;;&;,2,;,,=wHHHHDZDBBBBCBnnccbBnnnBjjjjjbbjajcbjbMnnjjjbjjjbjjjjnbjbjnncbnbnbjbcbjxbljjssbbbbjjjjsjjjbbjbbbnbjbbbjnbbjbjbbbjjbbjjjnjbbjjbbbbkcbbkjjbbbbnbkcBckjbbnxbjjnbnbbbbcbnbbbjjcnnbbnbbjbbjbjjjbbbbbnjcMBbcnbbjsxbbbjnjjjjbjvmBBMBVZDHKLw;;-,-,,,-,=;;&",
"&,,-;;;;,2,,<,,wBDDDDDDBDDDDnbcbbbjbcNBmnbjcnbbjjbBBBjbcjbjbbjjjbcjbcnnjcbbbbbjbbnkbBnnbbkjbjjnjjbjssbjbbbnNBnnBmMBBbNnbcxbbncbbbcjcbbjlbbbMbjbbbbbbbjbbnBnbbbbnbjBBbbkbjNMbbbnbnbbbbbbnbbbBMbnjbjcbbjbjjknNncbBBBnbbbbncnbbjbbcjjbxbnmBBBBBZFHDw;&-,,,;;,--;-&&",
",,=,,,,,,6,,,&;;=wMHDDHDDDDDBjbjMjjjbBBbnBBBnbbnbnbMBkjbbcjjbnbjbnjnbbMkxbbjbbjnbBBnBbbzbjvbkbnjbbbjjbnBMbnMBMMMMBBBnnMbnjbbnjnbbbnMBnbbnnbnbbbnbnbbbjbbBBBbnnnbbbbbBBbcjbbnbnmBnMbbbbjBBBbMnnBBMBBBnjbznnMBBbbBBBmbbcbjMBBbbnbzbncjbbbBZBnBDBw,,,,-,22&&;-;;;--",
",,&&,,,,,,,--&&&=,,,,0jpjjjpppwpjpuuspwppsaaggpppyspswwpspuwwspwpseasppwpswuewupwpppsuwtpww0pwrww0wwwesjppppappppssjppjppupppwwwpppppsewpwwpwwwwppwwwpspjspppuwwptpsssspuuwuppsjuspppgpspepjgpaspspspwsppfjgppwwssppwpwwwaswwppppswwpp0psp6;;&;-,;-62,,,,;&;,,,-",
"-,--,&,,,6,-;-,-,,,,,,,-;,,,,,62,,;,,-6,,,,,,,,=&&,,,,,36,;,,,,,,,,,,,,-,,<2,,2,:;,,,,,,,,,;,=&;&&;,,6,,,,,,,4,,,,,,6,6,,,,36,:,,4,,,,,;:,,,,,;-,,;-,,,66,6,:::,,,,,;,,,,6,,,,,,,<,6<<66,,662,,,&;,,-,,;=6,,*:,,,6,,,,,;,,,,,,,,;&;;&@&&;;@*&@;;&&-2,;,;---,2,;&",
";;-;,,,,,6,,,2,,-&-,,,,-;,,,,,,,;;2,-,,,:,,4,,;;;;,,6,,2,,,,43,6,,,,,;;-:,,,,6,=;,,:--,,;,,;,,;&;&-,,,,2,,,,,64,,,<,,,,,,,,,,,6,,:,,,,,,:,*;,-;-,;,,,,2,,,,,,,,4,,,,;,1,6,,,,;,,44,,-,6,,3,,,,,-;,,,,,,,,1,;;,,,,,,,-;,,;,,,7,=,&&*,&&&o&;;;;&;&@;&-&--;;--;,<,;",
"-;-,,,,-,,,,,2,,&&;;&;,,;,-=,2,,;,,,,,*;,,,4-*-;;,,,662,2,,,,,6,-,;,,,*,,&;,--,;,,;&;;--;*;,;-;;;;,-&;,,:,,66,,,,666,,,766,4,,6,,,,3,,,;,,:;;,-,;,,,<26,,;,;,,,,2,,,,;,,,;&,,;-<,,,,,,6,,,,;,;;&;,,,,6262,,,,;,,;,2,,;,,;;,-,,,,&=*-,-&;&&-;&&,-;&-;&;,;;;;&;-2,",
"--;&,,,;,3,,=,,;&;,,;,,,,,,,66,,,2,,,,,*;,;,&&,,**,,,,,,266,,44,<<-*;,,,*;&;;-&;,,;;=&;;,-,;-,--;-,,&;2,,,6,6,6,,,6,,66,64,,,4,,,;,,=-;,,--;,;,,;,<,,,,,,,46,:;,,,,,,;=>,,**;,--,,,6,,6,,,;;;&;-;-,,,,,,>,,,,,,,*,,,,,,,;*;,,1,;,,,,,-;;,&-&&;;-;&;;&&,,@&;&;,,,",
";;-&;,,,,,,6,,<,,,,>>,,;,5,,,71,,,;,,6,,;--,;&;,,;;,16,,,,-,;,,,,,,,,;,-;&&;,,-;;,,,,-;;*,,-,;;--,,,-,,,,6,6,,,,,66,,,6,,,2,;-;,>;;,,,,,,,,,,,,,,,,66,6,6<66,,;*,,,,6,,,-;,,,6,,,6,6,,6,,,,&;;--,,2,;-,,;,,&,,,,,,,,,,;*,,,,,,-;,,,,;&&;-;&,,,;,,;&&;,,,;;,*-;,,",
"&&;=;,66,6,66,6,17,,;,,,,,,,,,,,2,,,,,,--,,,;&&;;,,,,,,,,,;;,,,,,,,,;&&&&&-;,2,;,-,-;-;;;,,;&;,--,,;-,,-,5,,-&,,,,,,,,,,,,,,,;;-=;,,,,,,,,,,,,;,,,6,,6666,,,;,,,,,,,,,1,,,,4,,,4,,,,,,,626,,&;,,2,,,,;,,&-,,,-&;,46,,,,,,,,,;,--,,,,&&&&,;&,-&,-,-=;-,;,-;,,-,;,",
",-&&;;,,,,,,,,,,,,,,,62,;;,,,6,666,>,*,;;,,-**-,,,,,,=,6,,,,,,,3,-,,&&;-*-;;,;*;,;;-&;,,--;;&---;&&,1,;&;,,,;-,,,,6,,,,,,,,-;-,,,=-,,,<,;,,,,,,*<6,,,,,6,6,,,,,,,,,,=6,,,,6,,,,<66,,,6,6,,,,,,2,1,;,,,==&,,,,-&;,,,,,,,;;;,;,,,,,,6,;&;,,;&&;&&-=;,;,,;,,;,-;=,-",
",,-;,*,6,,&;,,,,61,666,,,->,>,7,,76,,,;;;,-;-,,,12,5,,,,,6,6,,,,,,6,&&&---;-,=,,*,*-&;,,-,,;*-;;;&;;66;&;,,,,,,66,,,,6,,,,,,,2,,,,;;-,,,,,<,,,,6,,,,,,,1,,,4,,6,<,-,,,61,,,,,,,666,,,,,6,,,,,,66,,;,,,,,,,,,,-;;,,,2,,,,--,-,,,,,6,,*;,,-&&&&&&---,,,2,,,=,-&-,,",
";,,,,-,,;,;,,,=,,,,66,,,,,;;;-2,66,6,,,,--&-,,26,,,661,,,66,66,,<62,-,;&&&;;,6,,,,-;-;;&-,,,=-&&;;--6,,*,,,,;,,6,,,,,6,,,-,,,,,,,,,,,,,2,*,,,565,,,,,,75,,6,,,,,,,,,,,,,,66,,<,,,,,,466,-&;,,;,6,,6,,,,,,1,,,,,,,,,,,,,,-;*,-&,2,-,,--,6,;;&;,,;---,,,,,;;&&&&;;",
"&&,6-&;-=--,,,;;;,12722,,;;,;-,676,,6,,-&;-,,,,,,,;,,,,,,,5,,664,,,,,,;&;-&-,2,,,;;&;---,-;,,,;;&-,,,,==,2,,--,,,66,,,,,,,,,-;-,,,--,,,,,,,<,,6,,;,,,,6,,,,,,-,6,,,,,,,;,,6,,,6,,663,66,;;,-;,,,,66,,66,,,,-,,,,,,,,,,,,-,,,-&,,;&,;&&,6,;&-,2,;=;,,-;6,;-&&&&&-",
"&-,,-,,;,-,&-,;&;=1,,,,,;&;-;-,56,6,6,<,;;;;,,,,-,,,,6,,1156,67,,26,21,&-;&;6,,--&;&&-,,*,,,6,,,,,,,--;&,,;;,<,,,6,,26,,,-,,-,;,,,;,,,,,,,,6,,1,,,,6,6,,,,,,,,,,,;,,6,,,,,,,,6,,6676;,6,,,,,-,,,,6,662-;;,,,,,2,,,;,,,,,,,,,---&-&;;;-,,,-,;--6,,,,,*-,,;,-&-,;,",
";&=;&;;,,,-;;-,*,16,,,,--&&&;,,56,2,-,,,,;&&;,,,,,;,57,>,,,65576,66,,,2,,;-,1,,,,=,,,,72,,,,,-,,66<,;;;,,,,,,,,,,,,,,6,,,,-,,;;,,,,,,,;,,,,<,,,7,6,,,,*,,,,,,,,,,,,,,,,,,2,,,,66,666,,666,,,2,,,,1,6,,,;;,,,,,,,,,,66,,,,1,,,&;;;,;,,,,,;-,,;,,,4,,,--,---;,,,,,"
};
