/* XPM */
static char *out[] = {
/* columns rows colors chars-per-pixel */
"256 256 216 2 ",
"   c #0F0F0F",
".  c #100F0F",
"X  c #11100F",
"o  c #0F0F12",
"O  c #0E0F18",
"+  c #100F10",
"@  c #0F1013",
"#  c #0F1019",
"$  c #111112",
"%  c #191716",
"&  c #1A1917",
"*  c #16161A",
"=  c #191719",
"-  c #17181B",
";  c #1C1B1C",
":  c #221C16",
">  c #201718",
",  c #201F1E",
"<  c #291C1D",
"1  c #22201E",
"2  c #2C211E",
"3  c #161621",
"4  c #171821",
"5  c #1D1E22",
"6  c #1D1E29",
"7  c #201F20",
"8  c #2B1E22",
"9  c #281D2B",
"0  c #1F2024",
"q  c #1E202A",
"w  c #1F2131",
"e  c #222223",
"r  c #292626",
"t  c #2B2927",
"y  c #25252A",
"u  c #29272A",
"i  c #27292D",
"p  c #2E2D2E",
"a  c #332B26",
"s  c #36282B",
"d  c #302E2D",
"f  c #33312E",
"g  c #39342F",
"h  c #242532",
"j  c #272932",
"k  c #2D2E33",
"l  c #232639",
"z  c #2B2738",
"x  c #2D2E3B",
"c  c #302E32",
"v  c #372A37",
"b  c #3B2D32",
"n  c #312E39",
"m  c #2F3034",
"M  c #2E303A",
"N  c #323133",
"B  c #393533",
"V  c #3C3935",
"C  c #31323B",
"Z  c #383639",
"A  c #36383C",
"S  c #3B3A3B",
"D  c #45362E",
"F  c #443235",
"G  c #423B35",
"H  c #4A3639",
"J  c #453938",
"K  c #423D3B",
"L  c #4A3C3B",
"P  c #454137",
"I  c #4B4236",
"U  c #45413D",
"Y  c #4A443C",
"T  c #4C493D",
"R  c #544A3E",
"E  c #2C2F41",
"W  c #2D2E4B",
"Q  c #342F44",
"!  c #2E3142",
"~  c #2F3048",
"^  c #313342",
"/  c #393642",
"(  c #363844",
")  c #3B3B43",
"_  c #39364C",
"`  c #37394A",
"'  c #3B3C4B",
"]  c #373755",
"[  c #3C3E53",
"{  c #413E42",
"}  c #4C3C44",
"|  c #443D4C",
" . c #483A4A",
".. c #503E45",
"X. c #4A3F53",
"o. c #3E4045",
"O. c #3E414B",
"+. c #3F4254",
"@. c #3D415A",
"#. c #444344",
"$. c #494644",
"%. c #464846",
"&. c #4C4946",
"*. c #44444B",
"=. c #48464A",
"-. c #46484D",
";. c #4B494B",
":. c #564A46",
">. c #524C45",
",. c #52454B",
"<. c #524D4B",
"1. c #545047",
"2. c #54514D",
"3. c #5B544C",
"4. c #5E594E",
"5. c #434554",
"6. c #484651",
"7. c #464854",
"8. c #4A4B53",
"9. c #44435B",
"0. c #4B4559",
"q. c #464958",
"w. c #4B4C5A",
"e. c #514E52",
"r. c #5B4D57",
"t. c #524E59",
"y. c #4E5054",
"u. c #4E505B",
"i. c #545254",
"p. c #5A5553",
"a. c #5D5955",
"s. c #53535C",
"d. c #5A565B",
"f. c #56585E",
"g. c #5C5A5C",
"h. c #65564C",
"j. c #615B4E",
"k. c #615553",
"l. c #625B54",
"z. c #6A5D57",
"x. c #625D5C",
"c. c #61604F",
"v. c #626252",
"b. c #6D6155",
"n. c #64615E",
"m. c #6B635C",
"M. c #6E685E",
"N. c #75695B",
"B. c #4B4D61",
"V. c #4C4E68",
"C. c #554E65",
"Z. c #4E5261",
"A. c #4F526A",
"S. c #535562",
"D. c #595662",
"F. c #565963",
"G. c #5C5C63",
"H. c #575669",
"J. c #565A6A",
"K. c #5B5D6B",
"L. c #5E5A71",
"P. c #615E62",
"I. c #685D67",
"U. c #655C72",
"Y. c #5E6163",
"T. c #5E616D",
"R. c #5E6173",
"E. c #646264",
"W. c #6A6563",
"Q. c #6C6966",
"!. c #62636B",
"~. c #6A666A",
"^. c #67696D",
"/. c #6C6B6D",
"(. c #746D63",
"). c #766865",
"_. c #726E6C",
"`. c #7E7265",
"'. c #77726F",
"]. c #7B736D",
"[. c #626472",
"{. c #6A6173",
"}. c #646976",
"|. c #6C6C73",
" X c #676C78",
".X c #6B6E7A",
"XX c #726E73",
"oX c #736D7C",
"OX c #6E727F",
"+X c #757274",
"@X c #7A7573",
"#X c #7D7975",
"$X c #73747B",
"%X c #79757A",
"&X c #76797E",
"*X c #7B7A7C",
"=X c #85796E",
"-X c #847775",
";X c #827C75",
":X c #817D7B",
">X c #86827C",
",X c #888579",
"<X c #89897D",
"1X c #90857A",
"2X c #6F7780",
"3X c #727580",
"4X c #797680",
"5X c #757982",
"6X c #7B7C83",
"7X c #817D83",
"8X c #7D8185",
"9X c #848285",
"0X c #8A8584",
"qX c #8A8982",
"wX c #878589",
"eX c #8A8A8A",
/* pixels */
"$X$X$X%X%X+XXX+X%X+X+X@X@X'.+X%X4X*X&X5X3X2X2X X2X2X2XL. X2X X2X2X2X2X3X3X5X%X+X%X$X5X5X5X$X$X2X3X3X%X:X,XqX<XqX<X,X>X8X0X7X6X#X*X6X*X*X:X*X%X%X+X$X$X3X3X5X2X3X3X&X*X4X4X*X#X#X#X%X#X#X%X%X%X&X5X6X5X7X:X:X;X#X*X4X6X5X3X3X4X4X$X$X$X$X$XOX2X.X3X+X@X_.%X$X3X$X#X@X@X#X#X+X#X*X*X5X5X%XOX$X$X+X$X$X$X$X5X3X3X5X5X5X5X4X&X4X4X4X6X6X5X5X6X6X4X6X5X5X2X5X5X&X&X5X5X5X5X5X5X5X$X3X&X5X8X5X6X5XOXOX$XOXOXOX2X2X2X3X3X3X3X3X5X6X:XqX:X7X6X6X8X8X9X7X6X6X8X5X8X6X6X6X6X7X:X;X#X:X*X*X5X$X3X6X5X*X:X>X;XqXqX>X>X*X*X*X%X%X%X%X%X&X+Xw.",
"G.|.*X+X%X$X%X%X&X5X%X#X*X*X5X5X5X*X#X$X3XOX2X2X2X}.2X2XOXOX2X2X2X2X3X$X3X&X%X+X+X$X$X$X$X$X3XoX.X3X%X#X,X,X<X,X<X,X>X0XwX9X7X@X#X6X*X*X:X%X%X+X%X+X&X6X4X5X5X3X5X$X*X*X*X*X%X@X@X%X%X#X%X%X%X*X6X9X6X6X*X<X;X@X%X5X3X3X3X3X3X3X$X.X.X$X$X5X5X2X3X|._._.$X5X5X$X%X%X#X#X+X#X&X&X*X$X5X5X6X5X$X$X$X3X5X5X5X3X3X5X5X5X4X4X4X%X:X:X6X5X5X5X6X6X5X5X5X5X2X2X5X*X*X*X5X6X5X5X5X5X3X3XOX5X5X&X%X4XOXOX|.OX2X$X2X2X3X3X3X2X3X5X5X6X;X9X:X6X3X6XwXwX0X7X7X6X8X5X5X6X8X*X6X9X:X#X#X#X*X*X5X3X5X5X4X*X:X>X>X<X>X:X*X:X*X%X*X*X*X%X$X%X;.e ",
"G.Y./.|.|.|./.|.|.|./.Q._.|.OX|..X/.Q.~.}.}.}.R.}.}.L.R.R.}.}.}.R.OX}.}./././././././.|..X}. X X}.^.~.Q._.'.@X%X@X#X#X#XXX+XXX_.'./.'./.XX_./.|./.^./._.#X+X|. X X.X|.OX|.|..X|._./.XX|./././.|.|.|.|.|._.+X_.~._..X|..X X|.|.|./.^.^.|.^.}..X}. X/._.~./.|.}././.~.~.Q.Q.Q.Q./.'.|.|.OXOX|.|.[.^.^.|.|.|.}.}. X X.X.X.X|._._.'./.|..X X X X.X.X.X.X.X.X|.'._.|.|.|..X.X.X.X X}. X X|.^.^.E.!.^.E.E.T.}. X X X X}.}.}..X.XoX+X#XXX|. X$X%X*X#X;X#XOX.X X.XOX$X$X+X+X|.|.|.|.|.'.|..X.XoX+XXX'.#X'.'.@X_././.XX_././.~././.&.e 7 ",
"g.g.d.*.*.#.*.&.;.y.&.&.;.-.-.7.8.-.#.) *.[ +.+.@.@.] @.+.+.+.+.@.9.#.#.#.#.&.%.$.#.*.*.*.5.5.*.*.) #.} $.$.=.-.8.*.&.;.;.;.#.#.%.&.&.#.#.$.$.-.+.9.-.#.&.3.-.5.+.9.5.*.8.t.i.3.>.&.{ =.#.*.=.#.&.&.&.;.8.;.;.#.#.*.*.O.*.*.#.| #.#.) ) *.5.5.*.#.K #.#.#.#.#.#.#.$.#.#.$.#.8.;.#.*.*.*.#.#.*.*.{ #.#.$.*.*.q.q.q.6.-.*.*.$.&.>.;.%.5.6.u.s.s.s.w.q.7.7.%.S *.6.;.%.7.7.-.6.q.[ O.O.-.o.#.{ #.U o.) ) ' O.-.O.O.*.*.5.5.q.5.&.$.&.6.7.-.<.>.:.<.2.i.q.7.q.7.-.%.%.-.7.7.5.5.7.%.*.6.6.6.-.;.&.&.:.<.&.$.&.&.&.$.#.#.#.L #.t e ; ",
"W.x.d.#.*.*.<.e.l.P.x.<.<.=.#.=.-.8.*.6.5.+.+.+.@.@.+.+.+.+.@.@.+.5.#.$.$.$.&.Y $.$.$.*.*.5.*.6.*.) #.#.#.#.-.-.7.;.;.<.i.&.*.#.#.%.%.#.#.$.&.-.+.+.*.*.#.%.*.5.+.+.9.t.d.x.<.<.3.3.Y K #.#.#.$.*.$.;.;.&.8.-.=.o.*.*.5.| *.' #.*.*.o.*.O.*.O.#.#.U $.U $.#.#.U U #.$.#.U #.*.%.$.$.%.&.*.*.*.*.o.#.#.%.#.-.7.5.7.8.-.7.%.*.&.&.$.-.6.d.d.I.t.t.d.F.5.*.*.*.5.5.&.#.-.8.;.%.*.' O.%.o.o.U %.&.#.U o.o.o.O.-.O.-.O.5.*.*.5.q.-.;.&.*.-.i.$.2.2.>.&.;.8.7.w.q.7.8.-.8.q.q.7.q.5.-.&.6.-.&.-.-.=.=.<.3.h.l.3.>.&.#.#.#.#.#.$.t , , ",
"m.m.x.&.*.s.d.x.Z r r K l.$.K { *.5.5.q.9.+.+.+.+.+.@.+.+.+.` +.+.5.*.*.#.U &.&.&.U #.6.9.5.*.*.*.*.#.#.#.#.#.#.-.%.a.3.<.$.#.#.#.#.#.#.=.*.#.*.O.*.O.#.O.*.5.+.+.q.s.x.d.r , - * a a.Y V L #.*.-.&.$.$.&.$.#.=.#.*.5.*.5.5.' *.O.+.*.O.+.+.O.O.#.$.$.$.*.7.#.%.U #.U U $.U #.$.$.$.#.#.;.&.;.&.#.*.;.#.*.*.-.*.8.7.-.7.5.-.-.;.*.5.0.G.f.u 7 ; - x F.6.' [ +.5.6.$.&.;.&.#.*.5.*.o.#.#.U { #.%.&.#.#.#.o.-.-.O.*.O.*.+.5.5.&.<.*.6.5.*.&.&.2.$.&.;.7.7.q.q.q.7.q.5.8.7.q.8.8.;.=.&.-.-.-.6.=.e.3.x.k.:.3.j.<.J ) #.=.$.;.t ; , ",
"W.m.l.&.<.i.a.r c N u = s l.U Z #.*.+.9.+.+.+.q.+.+.+.+.@.+.+.+.+.+.5.-.$.$.Y $.$.T U *.5.-.-.-.O.*.o.#.#.U #.#.&.1.v.j.>.$.#.*.*.*.#.*.#.*.#.*.#.*.*.*.*.-.-.O.5.8.i.I.a G &.J s ; g p.S B U $.#.&.*.#.#.#.#.#.*.*.*.*.*.+.O.+.+.+.5.5.5.+.+.7.*.#.#.%.-.5.-.#.#.K U U #.Y $.$.$.$.#.*.$.$.=.$.#.#.;.*.#.*.-.;.8.;.-.7.7.9.8.6.8.6.i.G.t { 6.-./ 5 Q D.' ^ +.7.6.7.;.;.&.*.*.*.#.{ U o.#.#.%.%.;.#.#.*.*.*.*.O.*.7.*.*.5.5.-.=.-.7.9.6.%.&.2.&.&.6.6.7.w.q.q.q.8.7.7.7.7.-.-.;.&.&.;.=.=.-.;.p.W.K , , % & :.p.S ) #.*.%.r 1 1 ",
"W.m.x.&.3.P.g J p.D.;.b = Y i.C ( +.q.5.q.5.5.q.+.+.+.+.+.+.+.+.+.q.5.5.#.#.$.Y U U $.#.*.+.-.*.*.#.#.$.&.$.K $.$.1.v.v.2.$.*.-.*.*.*.#.*.*.*.#.o.#.*.*.#.) #.*.-.;.x.U D h.(.x.,.g & p.J d V #.$.$.&.$.#.$.$.$.;.;.*.O.5.5.+.5.+.+.+.+.5.+.*.5.*.#.U U -.7.&.#.U U $.$.U #.U U #.U $.&.$.$.&.#.$.$.&.&.&.*.;.-.;.8.-.q.q.q.7.q.q.0.G.} Z x.|.{.e.v 5 C.*.x ] 5.7.7.-.*.%.*.O.*.o.#.o.#.#.#.U o.#.o.#.%.*.O.#.%.*.5.6.5.5.5.-.<.%.5.5.q.8.*.#.*.5.5.7.q.q.5.q.8.-.-.-.-.-.-.*.&.&.&.&.$.;.<.e.x.Y d $.=.G r > p.&.A ) ;.&.t 7 2 ",
"x.l.a.$.p.l.a 3._.%XI.,.s s D.c m o.;.-.7.5.9.q.5.+.5.+.+.9.+.+.5.q.+.+.*.#.#.#.#.#.$.#.#.5.5.*.#.U { $.#.) U #.U $.2.2.>.$.*.-.-.*.*.| *.#.*.' | ' *.O.o.#.*.*.-.;.b.G I N.=X].z.} < <.&.e N #.&.$.;.;.#.$.#.$.&.&.*.*.5.+.+.+.+.q.+.+.q.+.*.O.#.#.U #.5.*.U $.#.U Y $.#.U $.U U K #.;.&.#.&.$.;.#.#.$.#.&.-.-.7.8.-.5.9.5.q.5.5.8.P.{ $.'.6X7XU.X.9 0.7.y ! +.7.-.;.&.*.*.*.*.o.*.{ #.#.%.U U #.#.#.#.*.#.#.*.6.5.5.7.5.7.*.$.;.7.q.q.7.8.w.8.7.7.7.u.q.5.5.-.;.;.<.=.$.-.;.&.$.$.$.&.<.=.l.W.b p.{.'.z.H < D i.N Z $.>.r , , ",
"m.x.d.#.3.x.g l.:X9X4Xr.F 8 i.N r V &.8.q.9.7.+.+.+.O.O.+.5.+.+.5.9.+.+.*.$.$.5.6.*.#.$.$.-.*.*.o.#.o.o.U #.K U o.#.#.;.;.#.%.#.-.*.*.=.*.*.O.*.O.*.O.+.+.O.O.*.-.-.z.Y L N.].#XW...8 e.Y , d K =.$.$.#.#.#.#.%.;.&.*.*.5.+.+.+.+.+.+.9.q.+.+.O.o.#.U | *.-.$.$.#.$.$.#.$.$.$.#.#.$.$.;.;.*.*.$.*.;.;.#.&.&.;.-.7.6.7.9.+.q.q.*.-.-.P.;. .~.6X6XU.X.u S.6.q M ' 6.-.&.*.-.*.*.6.*.*.*.#.$.$.#.U $.$.#.#.#.*.&.*.-.7.*.*.6.5.-.%.-.8.q.w.8.8.8.t.w.8.7.w.6.5.*.-.<.<.&.>.&.$.=.=.=.$.&.&.=.;.k.E.g z.:X0X-Xh.D 2 l.N t $.<.p , 2 ",
"m.x.f.=.<.W.B 2.|.3XU.0.v J :.r e V $.7.q.q.5.+.+.+.O.*.5.9.+.+.+.+.+.+.*.#.$.#.*.#.#.Y #.#.-.&.*.*.*.#.#.o.o.o.o.#.*.#.%.#.-.;.*.-.-.&.&.*.#.*.#.*.5.+.5.5.#.*.=.$.p.3.d <.D.P.r.Z b 3.d ; k S #.*.&.#.$.#.%.#.%.&.8.*.q.+.q.+.q.+.+.5.+.O.O.o.#.U #.Y #.$.$.$.$.#.U U U U U #.$.&.$.#.#.$.*.=.%.-.*.$.;.&.$.*.7.6.q.q.q.5.5.-.*.=.d.g.Z S.L.}.C._ ^ D.N 5 k ` 6.=.>.$.&.&.-.-.*.5.*.O.$.$.$.U #.#.$.#.#.$.#.*.-.-.*.%.;.*.-.;.;.8.i.8.8.8.;.6.w.8.8.8.5.8.5.&.&.$.&.&.&.*.#.*.5.&.=.=.-.-.i.~.d x.4X7X-Xz.F F a.k p &.2.t 2 1 ",
"W.~.G.*.&.z.<.C w.A.V.Q c x.V ; e Z *.7.q.O.5.+.O.*.#.*.O.O.+.@.+.+.+.+.5.*.#.#.$.$.#.$.#.#.=.-.%.*.*.*.5.*.#.) #.#.#.$.$.$.#.;.#.*.*.;.*.&.#.#.#.#.*.O.*.#.#.$.=.{ T k.>.c A ' Q v l.J y 1 p S #.$.#.$.#.#.#.%.*.;.-.6.9.q.q.+.+.9.+.5.9.+.o.#.{ #.$.$.&.*.-.-.$.$.U U U U $.$.#.#.#.$.#.*.&.&.=.-.6.-.&.;.;.&.8.7.q.5.q.q.q.*.=.=.=.P.e.^ [ [ ] Q G.| h 5 k O.6.&.;.&.&.&.*.*.7.5.*.*.%.%.Y $.$.U $.#.#.#.#.*.*.*.-.;.;.-.-.;.;.8.8.e.i.<.e.8.e.;.;.8.8.q.8.8.6.&.$.Y &.=.&.-.6.*.;.=.&.-.t.!./ *.I.oXU.r.F 3.J e e G $.t 7 2 ",
"W.^.K.-.#.P x.d.Q ~ E / b.L u ; t S ;.6.6.-.*.5.7.6.*.#.o.*.+.5.+.9.9.5.+.%.$.#.#.$.#.#.&.*.-.-.-.#.*.*.5.*.{ #.#.#.$.$.#.&.&.=.#.#.#.;.#.#.#.#.$.#.*.$.*.#.*.-.$.{ K Y l.m.L S <.W.L p % , B U #.#.Y #.#.#.$.#.#.#.-.O.+.5.q.+.+.q.9.q.+.O.o.{ o.o.%.-.*.-.-.;.&.$.U U Y $.Y $.#.&.#.U #.#.*.*.*.*.5.*.O.%.&.*.5.q.q.7.q.q.7.5.*.-.) { P.I.5.[ 0.!.| x 3 q ! [ 5.5.-.&.%.*.5.+.*.7.*.*.%.&.&.>.Y U $.#.#.K #.*.*.5.6.%.;.;.-.;.;.w.<.2.2.<.;.;.<.8.<.8.<.8.6.q.q.q.-.;.8.-.6.*.5.-.-.;.-.-.6.t.I.( ' 5.[ v :.k.g ; e V U r 7 1 ",
"W.G.G.-.#.S { t.~.Q.~.l.J a & e f K $.6.5.7.*.-.-.&.=.#.o.#.*.O.+.q.+.5.5.*.#.$.$.$.#.-.-.-.;.-.#.*.#.*.o.*.#.#.$.L $.$.$.#.&.$.=.$.#.#.o.K #.$.#.#.#.&.&.;.*.$.&.=.S V N S <.3.$.c r = ; e N U $.#.#.#.#.#.#.#.%.$.%.*.*.5.5.5.+.+.+.+.5.O.o.+.O.+.5.5.q.q.8.8.&.#.$.Y Y &.&.U *.&.#.K U #.&.#.#.#.6.5.q.7.;.8.7.q.5.q.q.7.*.*.#.;.{ Z S ) t.Z.9.Q x 3 6 j ` 5.q.q.q.7.6.*.+.*.*.5.q.5.#.%.&.&.&.$.$.$.#.#.#.*.O.O.*.6.8.8.;.w.8.8.y.;.;.>.<.<.<.-.&.2.i.w.8.q.w.w.w.7.*.6.6.-.5.-.-.8.8.8.#.' 5.XXd.*.6.W.W.g ; ; t S U r 0 1 ",
"W.P.D.8.*.( ^ c N Z Z d 1 & 2 t V $.;.-.-.-.;.&.#.#.{ { #.*.#.O.5.7.O.+.O.*.%.;.$.$.#.-.8.6.e.6.*.#.*.*.) #.*.#.$.Y $.$.$.$.$.$.*.;.%.%.#.{ ) $.#.#.=.#.#.%.#.;.&.#.#.N t r e r r , = ; r g V U #.#.=.#.#.#.$.$.#.U $.#.%.O.5.9.+.+.5.+.+.+.+.+.5.+.+.5.q.9.6.%.$.$.$.$.T $.$.{ *.#.$.#.U $.$.#.*.*.5.7.7.O.7.q.q.5.5.9.q.q.*.*.*.-.=.S k u y j h 4 3 4 j ^ 5.w.w.u.w.w.q.7.O.5.O.*.5.O.*.%.&.1.&.$.U #.#.=.#.#.*.*.*.5.-.-.w.;.6.8.-.-.;.&.2.<.;.8.8.2.8.8.8.w.q.q.q.6.7.-.6.7.*.-.6.8.8.8.-.( C n -.d.g.K B 1 & 2 f U &.r 1 1 ",
"W.P.K.q.5.+.` k e ; & ; ; 2 a V Y &.<.&.;.&.;.%.#.#.O.#.#.#.o.#.*.O.7.5.5.*.#.$.#.#.o.-.-.-.&.-.-.*.*.*.*.| *.*.=.$.$.$.&.#.#.=.&.#.#.$.;.#.*.) #.*.#.{ #.%.;.%.=.| Y K B p e , > 7 e r g U $.$.#.{ *.*.o.#.$.$.&.%.;.#.#.-.*.+.+.q.+.9.+.+.+.+.+.O.O.*.7.5.6.*.#.U $.Y &.Y Y #.$.#.#.&.$.#.#.*.*.*.*.*.*.*.6.q.q.+.+.5.5.q.O.7.-.&.*.*.S k y y 6 y h k ( +.6.s.s.q.5.w.5.5.q.7.*.O.*.*.*.#.&.&.Y $.#.$.=.#.#.*.*.*.5.5.5.-.w.i.e.8.-.-.<.>.&.<.&.y.;.;.8.q.q.w.w.8.8.8.-.-.-.-.6.6.6.7.-.-.-.' n k y u i 1 & & 1 t V >.%.p 1 1 ",
"x.G.J.5.q.9.O.( N p y e t d G Y &.>.&.<.&.$.$.%.%.o.O.O.*.*.*.-.5.5.q.5.9.-.#.*.#.6.5.7.-.;.;.&.%.-.8.*.*.#.*.#.#.#.Y Y $.$.#.*.;.$.#.$.#.-.-.*.#.#.#.#.U #.&.2.;.$.&.Y U V N p t p B Z U Y $.#.{ *.*.*.#.#.#.$.&.;.;.$.&.*.*.-.5.+.9.+.*.*.O.O.#.#.#.#.-.-.;.;.#.$.$.U U U $.&.$.#.#.*.-.#.#.*.*.-.-.-.*.*.-.5.q.+.7.u.7.-.7.-.8.;.1.%.%.o.A M M M ^ ( O.8.q.q.w.q.5.q.q.q.+.q.-.O.O.-.-.O.-.o.$.#.*.;.#.#.#.%.-.8.u.5.5.*.y.;.2.e.<.;.3.2.;.&.$.;.;.;.7.w.6.7.q.q.7.7.6.6.*.-.-.-.-.8.-.8.8.O.' C y y 7 , e r g J T >.>.t , , ",
"x.K.J.9.q.5.5.*.{ ) Z B V J P >.>.&.&.U Z V B B m B A A A C C C C ( ( ^ ^ A N N N C ( C Z S N V Z Z A Z N N N N N N N f N B N B N B B N f N S N C S C C C S S B N N B B N N N p N f m N N B N N N N N N m N N B V N N N N Z N A ( ^ ` ^ M A C N N C A C Z N N N N N N B N N B N Z N N N Z C Z Z C N A C A C Z C ( ^ A ( Z C S Z S V A V V B N M x M M m ( ( ( ( ( ` ( ^ ! ^ ( A A C A B A N m B N C N N Z C N C Z #.*.o.( C A S K K V G B K V Z Z Z Z Z ^ ( ( ( ( ' ( ( C A Z Z A Z A ( *.-.7.*.5.' A N z d g G G R >.:.&.a 2 , ",
"n.P.J.5.5.5.q.7.-.*.=.&.&.>.>.1.>.>.g % X X       $ @   @ @ @ @ $ O o O $ @ o @ @ @ @   @ @ X @ $ X $ @ o       $   .       $ $   X               X   X   X     $ . X X X X   @ X X $   @   X $ + + O o o   $ @   .     $ @ $ @ @ @ O @ @         @ @ $ @   X X     $ . $ $     . .   @ $ @       $ o $ @ o O @ @ o @ X X @ @ % & : & X @ $ @ # @ @ @ @ $ @ @ @ @ * @ @ @ @ @ @ @ @   @ @   @   $         @ $ @ $ $ * % @   @   $ $ X X X . $ X + + o o @ @ @ $ + $ $ O $ @ $ @ o + $ % y | 6.5.5.5.O.*.{ K T R >.1.1.R >.a 2 1 ",
"x.E.K.9.5.q.5.q.6.5.-.&.&.>.3.1.1.&.& .   X X X @             @ @ O O O o o @ @ o @ o o @ $ @   @ @ @ @ o       X o o o X $ $ $ $   $   @ @ @ @ @ @   X X @     X . X X X .   @ X $ X   X X   X + + +   o o $   @     @ @ @ o o @ @ @ @ @ X X     o @ @ @ X X @ .     + + X     + .   o   @ @   X X @ @ @ @ @ # @ O @ @       % : : & % $ @ @ @ @ @ @ @ @ @ $ @ @ @ @ @ @ @ @ @ @ @ @ @   @   @ $ @ @ @ @ @ X   X $ X $ @ @ @ @ $ X $ % $ $ $ $ + + o O @ $ $ $ + # # $ @ $ @ @ o $ X - m *.7.6.5.5.-.=.$.&.3.:.>.1.3.R >.t 1 ; ",
"n.G.G.5.q.9.q.5.7.w.7.-.&.1.3.3.3.T & % X & & & & & ; * $ % % % * * 3 - - - - * 3 * * 3 * % % - - - 3 - * * % % % % * * - & & & & % % % % % % * % - % * % * % % % % % % & & % % & & % % % % % $ $ % % * % % $ - * % % % * * * * * * - - - % % $ % $ - - % & % % % % $ - * % % % * $ - - * * * * * % - % - % * 3 3 - - - % % - & 1 2 & & % - * - - - % - % - 4 - - - - - * - - * * * * * & * % % - * * * % % % - % % $ - * * * * - & & & ; % & = - * * - * * - & - = = * - - - & & & % p i.g.e.;.7.5.6.*.&.#.&.1.>.&.$.$.U e 1 1 ",
"x.E.T.7.q.q.9.q.w.w.-.-.&.&.4.3.4.1.1 1 1 1 1 1 2 1 1 1 e 0 ; 7 e q w w w w q q q q q q e 1 e 0 q 6 q q e 0 e ; 5 e e e e e e e e e e 1 0 5 0 7 0 0 0 e 1 1 0 1 e 1 ; 7 7 7 7 1 e e e 0 e 0 0 7 e 0 0 0 5 e e 0 e e 0 0 0 0 q e 0 q y q e q e e 0 ; 0 e 0 0 7 0 , e 0 e 0 0 0 q 7 9 q q e e e e e e e 0 e 0 q w w q q q q e y e r r 2 0 0 0 q q q q q e 0 q e e e y y y 0 0 0 0 q 0 0 0 0 0 e 0 0 q q q q e e e e q e q q e e e e r e e e y e y y 7 5 y y y y e y e e e e e e e e e e U Q.Q.i.8.8.7.-.*.&.#.#.#.K $.&.&.;.t 1 , ",
"n.W.G.-.7.5.7.7.7.-.-.8.;.&.l.c.c.1.r 1 1 1 1 r t 1 t e u e e e y h l l w l h h y y y q y t u u h y y y y y e e r y y y t u t r t r t t e y r y e 0 y e e 0 r e t e e t r r r r r t r y r y r r r y e y e r r e r r r y y y y h y e y y y y r r y y y y y e r r r r e e e e e y y y e u y y y r r y r e u y h w w l w h y y y y y r u i r y w w q y e e r u u r r r y r r y i q q y u e i r u r y y h y y u u p r u y r r y y p u u u u r i j h h h h h y y y y t p u t u u u u r r r #.E.n.i.;.u.6.*.*.=.#.#.#.#.&.;.-.-.u 1 1 ",
"!.W.G.-.7.q.7.7.7.7.7.8.%.2.v.v.v.T 1 1 1 e e t t d f r p j i p u k x E l E x l ! x x k k N p m ^ x j k j k k k u i i i p t d d d f t t u u i p p p p i p p p p p a t t t p p p t d k p k k i d p p i p p t u p p i i p i p j k k p p p i p p p k k k k k m p t p u p p i p i k j k k k i p i p p i p k k j E E E E x x x k j k i p m j k j x x j j i p i p p N p p p p p p k x k h m m p f f p k x k k M p m p f p d d m p d d N f p c c N C x x E x l x x k k p p f p p d k d k d d #.W.m.i.i.i.7.*.*.=.=.#.-.-.=.*.;.-.r 7 0 ",
"E.~.G.8.q.q.q.7.5.q.8.6.*.&.3.4.v.T 1 0 1 e u t p t p t p k k p p k M x x ! E x M M M k m N N C ! M k x x k x k m m k k d N f N d N B f t c d k p p p p k p f p N p f f f f f f f f f d m N k d p p p m p m f f p k p k k k k c m m m N N c f f N f p m m f t p p p N p p p m m N k k k k k p N m f m m x E E E E E ! ! ! x E M m k x M ! ! ! l k k k k k k m N c c c k k k k x x E M M p m f m x x M M m k N N f f f d N c f N f f N N N B C ! C ! M ! x M C c m c f f N N N f N f N &.W.P.8.;.i.;.-.7.6.*.=.-.-.=.;.;.=.r 7 7 ",
"!.~.P.-.8.5.6.6.q.q.8.8.8.6.-.$.&.G e 1 e r p p t t p p k k k k p k k k M ! E x M x ! C k m m M M x x x x k x k k p p d c N N f Z Z c d p p d d f p p k c N k N f p t p f g f f f B N N d k d N N m m p m p N N c k k c k k m f k k m m N N m f m N m N C f N f N f N p p m i k k k x N m p p c m m f m x E E E E E ! ! E E ! M C k M M M x M x k k x x x k C N M N M M k k k x M ! M M C N C M x x x M x M N N g f c f f f B f f B N N N C m M ! ! ! ! ! M C C C M m f m N N B N N f <.W.~.u.6.8.-.-.6.5.*.=.&.;.-.6.;.=.u 7 5 ",
"^./.x.;.8.8.8.7.q.0.;.p.6.8.7.%.#.S 1 e 1 e p N N p m p p m M k k k m k m M x M N M x M M M M x M M x x x k k k k k k N f f f N Z S A f p p d p t p p p c c m p N N f f f g f f f f N m N c c N N p p m k k N c k N N k k k k k f N N m N N N N N N k m B N N k p f p t p k m p c c N d p N p p p f m j E E x x x ! ! E E E E M m k ! ! x x E E x x M k M m M C N m k x M M N M M ! M C m C m M M ! M ! M m B f g d N d f N N f N c B N S o.A M M E ! ! ! C N C N N N N m N N N f f N <.|.~.u.q.8.6.;.6.-.-.&.*.-.;.e.8.-.u 7 9 ",
"!.W.W.*.-.-.-.6.8.-.-.i.8.7.-.i.%.K 1 1 0 e t c N N N p p k k k k c k k m ! x m m M m m M k ! ! ! M x x M M m m k k m f f g f f N N N p p p t p t k p m N c f C f m N N p f f f f N f N k c d f N k m p m c N N k m k k k M C m k f N N N B N N N m N p N f N f f f p p p p p p p p p p p p p f m m m M x E E x M M E E E E E ! M M E M x E ! x x x M m M M m A C C M M M N m N m M m B C C C M M ! ! M M M N N f c N f f B N N k k c N M A M A x E E ! ! ! m N N N N C N B N f f N f &.~.E.s.8.;.;.-.*.5.-.#.*.;.6.6.;.-.u 0 0 ",
"P.n.x.*.%.-.8.8.8.-.-.6.8.q.6.-.&.S e 1 e e p d N N N p d c k x M M k p k C C m C C m N M M x ! E E x x x M M C k k k f N f f f t f N k p p t p N d N m c N N Z k f N N f f f f f g N d k N p N N C C N N N N N N m N N k M ^ N c f f N d N N B N N N B f p N f d d f t p p f p f p N N N p p p p m p m M x x x M M E E E E E E x x ! x x E E ! E x x M M C A m C ^ ^ x M Z N m m m N N m m M M ! ! M ! ! M m N N N N C c C C C x ! ! ! ^ M N N C C ! ! E ! ! C N C f N N f f N c f f #.D.l.e.;.;.;.;.6.5.=.#.*.&.*.&.;.-.r 7 e ",
"W.n.l.&.&.*.-.-.-.-.8.8.q.q.6.6.%.S ; e e e u k N N N p c N ^ x j x x M m k N c k m p C ! j M ! ! E E E E x C C m N c N N d N p d d N M k p p p d N f f N N N N N m N f f f f B B V B f x k N d N C N B Z N f N N m N N N M C N N p f f f f N N N N f N N N N N d d d f p p f p p p p N N N p m p m k m M M x x m A M E E E E E M m M M x x x ! E E ! ! M M M Z A C M M C N f N B f f m B A B A C ^ ! M ! ^ N C N d N m k C M M M ! ! ! ! M N N N M M C x ! ^ M M N N f g f N C M k k #.W.x.e.=.;.&.;.5.*.=.&.-.-.7.-.*.-.p e 5 ",
"P.W.l.&.-.;.-.*.=.=.5.5.5.5.q.5.7.S , , ; 1 p k k N N p N N C x M x x x M N c c m p m k m M M M x E E E x k k C C m k N N c N N p N N M k k i c p N p N f N N f m N N f f f N f f f N c k C M k c d N N f f N N N f c c N k N N B f N N N N N N V S N f N p f d d f f N c d f p p N f B N N p p m m k k M j E E M M E E E M x x M k m m k x k M C M M M N B C C Z ^ ^ M M N N N m f f N B N N B C C M M M x M N N N m M N C N Z N M ! ! ! M N g N C M C C ^ C C C M N C c N m x M k m #.x.n.<.&.&.$.;.8.*.=.=.=.-.-.;.;.-.u 5 e ",
"E.W.x.;.;.;.*.*.=.*.*.5.7.5.q.5.7.( e ; e e u p k c f f N m x x x x E ! k m p N p k m k M M ! M E E E E x j k k x k k k N N f f m M N c C j k k k p N N f N c N N d g f f f f f d f N N N ^ M m N f N d d d f V B N f N N c d B V V G B f f N B Z N N C p p p f f g B p p d f p N N p f N d p p k k x x M x E E E E E E E M m x m p p k k k m N M ^ M M C N N N C A C C M N N N m g m m N A B C m M A M k M M C N N N C x N N N B m C ! ! B B N N C C C C A Z C ^ C x ^ C k m N m N c ;.n.E.<.&.$.$.-.&.=.$.=.=.;.-.;.;.8.u 5 e ",
"E.W.n.&.;.;.7.*.5.6.6.5.6.5.5.5.7.) 7 1 2 e p i m N N f p p M x x x x E x M p p p N N M ^ ^ ! ! E E ! E x x x x x x x k k N m p m m m N m x x k k m N N d B c d g c f g B g d f c g N d N ^ ! k p N f f N B V V K V g f B N f N f f N B N N N B N N C N p m p f f f g f t t f p N d f N f d f p k k x k x M x E E E E E E M C m N m p m x k k m N C M M M m Z B B B A M m m N B m N f N A C N C C ( C M m m C M M x M ! ^ k N N N B N A N f N B N N N Z C C C M C C C ! M N N C N N N &.W.E.&.;.&.&.&.*.$.$.$.=.,.-.;.-.=.u 7 7 ",
"W.n.l.;.$.;.8.q.5.5.6.8.5.5.5.5.-.S 7 1 7 , t p N f f f f m m x x x x E x M f p d f N C ^ ^ ^ ! M x M M k k x x x x x x x k k c m m p m x x x k m m N N d B c N N d d d d d f f g f f N C n x k f p N N g B V S K K N f f N f f f p f N f N p f N N C N m p f p f g g g g f f d d p f f f f p p k x k k C x x E E E E E x N N f p p p k x k N N o.*.B M M ( N Z C m M M M m N C C C m A A M Z C M M M M m m C M ^ ^ C C x ! C c Z N C Z B B N N N C N C C C C C C C k N C N N N m N N ;.W.E.2.&.&.&.;.$.$.$.=.;.;.8.8.6.=.r 7 7 ",
"!.E.g.$.&.-.8.6.7.-.;.&.8.-.8.=.#.A ; 7 ; r p p p m f f N N k k x k j E M p f f f g N N ( ^ ' A C N C N N m k N M x x x x x k k m p m k M k x k N N N N B d f N B c B B f g B g g B f B N C C k p m p N N B S U A V g f f f f f k k N p m m N N N N N N p p p p p a p f f f p d d d d t f p p p k k k N N x M M x x ! ! C c N p p k m x k m p N #.%.Z m M C A S B S C m m m C B N f m M M A B m M M M M C C C C C ^ ^ x C ! ^ N A C C N C Z B N N C C C ! ^ C ( N C N C N N c N C C A ;.W.W.&.#.$.<.$.&.&.&.=.&.&.6.6.;.-.r 7 e ",
"E.!.x.<.;.-.7.6.7.8.8.;.*.&.-.y.*.A 0 ; , e u p p k m C N p k k k k M M k p f f f f p N ^ ( ( A N N c N f d N f m k N x k k k x k p k k m M m k m N C N f d N f d f d f f f f g g B g d n N k M m p m N A V V S A V S B B f f p d k m m p k k p f N f p p p f p p p p t p t d d c p p N f f N p k k N N N N N m N M C m N f t f p p k M x k m m C C N A A B B N V V f S m m N f N C m M A B C A ! M C m N m C C C ! ^ E E C M m C C N N N B Z N C N C C C C Z Z N N k k f N c N N C N ;.Q.W.<.;.=.;.$.&.&.=.$.$.=.-.8.-.*.y e 5 ",
"Y.~.g.;.;.;.8.6.8.8.8.8.;.*.%.8.*.A e 7 5 e p p k k k C k k k k p k k k k m p f f f N C C ^ M Z N B f f d g d f N B N m k M M j k p k k k k k N N m A N N f f g f f f f f f f g g g g d d k m M m p m m C A S S A V B B N f f p k k k m N N N p t p k p t p f d f p p p p p f d d k k m N N N p m m N N N N m N m N m c d t t f f p k M M k p p N B N B B V N B V D B B N N f N N N m N A A N C C C C C m k C C M ^ ! ! E ! n M C M N m C N Z C m M C N N Z N N N N N m N N N c m N N &.Q.n.2.;.;.=.$.&.&.&.$.&.;.-.;.;.&.u e 0 ",
"!.E.x.;.&.;.;.-.7.-.w.s.8.-.*.*.*.S 7 5 5 e r t t k k k k M x k k k k k k k p f p m m C ( ( C N g f d d g d d g f f f C M j m m m p k m k M c c m m m N f d d g f f f f f g g d d f B g N N N N M m M k m m A A A V A B N p f m k k k m f N f d N N k p N t p f f p t p p p t p c N M ^ m N m m m N k d f N c N m N N N f N p f p k x C C k m p N A A B V N B B g V g f B B B B N m N C C C N C M N N C m M x C x C M E M ^ ^ x M M C m N m N N x M C Z Z V N B N N N M n N N N N f N &.E.E.<.%.;.&.;.;.&.=.=.&.;.;.i.8.-.p 5 1 ",
"^.^.Y.;.;.;.-.8.7.-.8.s.t.8.*.*.*.A 7 5 7 e r a p p i k x x x k k k k x k k N k m N m k M M N f f g f d d f f f f g N m M M M j k k N m N N N c f m k N c d f f f f d d d d f g f g g f N N N d p k k x x m m N m g N N f p m f m m k N f N f f f k k p N f t f t t f p p f p p k k M ! ! C M m k m N d d c k c k N m d d d d p f k k k k k m N N N N V G V B V g f g B g f N f N m m m C m C C C N f m m M M M M M M M ^ M M C C m x C k C C n E x C Z V B N B N G Z C N N N f N f f &.W.W.2.&.$.&.&.$.$.=.$.&.;.;.;.&.;.t e e ",
"E.W.g.;.;.;.;.;.8.-.*.-.8.-.5.*.7.' 5 e 7 e i d N N p k k x M x k k k x k k c C m m k k x k m f f d f d d f g f f g f m m j m m k k k m N Z B N N m N m N f d N N f f f a d d d f B f f N f m N m M E x x x m m m N f f m p m N f p p f m N d p N N k p p p f p t p m p p t p p p k M M ! ! ^ m k m m N d k k N k N N p N f d N m k k k k k p N N N g P V f f B f f f f f f f f N B B A C N C C m p m m x ^ C ! M C ! x M M C C A Z C C x C x C ^ x A S B N B N B V Z N N N k k N f N &.W.E.&.%.$.$.=.$.&.-.$.$.<.;.;.e.&.u 1 1 ",
"E.E.P.;.;.;.;.;.-.-.-.-.i.;.*.O.5.` 6 5 q q u k N p k k x x E x M ! x x p p t c p p p k k k N f f t d p f V f f g f N N N c c k k k N N N f B B f k C N c N f f f f d d d d d g d g d g B N p k k k x x k x k k m N g N f m M C N p f N p p m f f N f p p f p t p p k d p t p p p k k x ! ! ! m m m m k k k k k k N c N f N p N p k k k p p p m m N N V Y G G f f f f f f f d N N m N N m m m m m m k x x ! ! M ! ! ! E E x M N C N N C M x x ^ M N N B N N B B Z Z N V f c N x k N N <.W.n.2.%.&.&.$.$.&.*.$.#.;.;.;.;.<.r 7 e ",
"n.E.E.;.;.&.;.7.*.6.*.;.3.<.#.O.5.( 5 5 5 y k x x k k k x x E x ! ! ! m p p f t p f c p k p f f f d g d g g d d f f g N N n c m k N k N f N N g f m M m N f f d f N d p d d d d d f g f N c N N k m M x x x x x C N m f m m k M m p f p f p k f f f f f f p p p p p p p p p k k p p k C M ^ M m N m m k k x k k m m f f f f N m k k k k m k k k m m m f B V V f f f f f t p c N N A N m m M M m p f M E ! ! ! E ! ! ! ! ! x M m N M ^ M x E x C C m N k N B g f B G Z B N N N M k c N $.n.n.3.&.&.;.&.$.$.;.$.$.;.<.<.;.=.p e 2 ",
"W./.W.;.<.&.%.7.q.6.6.&.2.i.*.| *.( 5 5 5 y j x ! x k k k x x E ! ! x k p p d t d t p N k c g f g t t t a N d g g d f N c N c k k N c p c N N N f k k N c d d d f N c k k d d d d f f g N N N N N N m M x x x k m m C N m m C M k k k k p N p f f f f f p p p p d a d p t p k i p k k k N k k k k N p m k N N N k c d c N m M m k k k j k k k p M m m m C N N N f p p f f p f N N A m m m M M m f m m ! E ! ! ! ! ^ ! ! x x M M M ^ ! E x x C C c c k k N f N N g B B B N N m x m N c $.n.n.2.&.<.<.;.;.&.#.$.$.&.&.&.=.>.d e 2 ",
"/.W.W.&.<.;.8.q.q.5.5.-.%.&.#.#.' ( 5 5 5 q h k x x M x x x x M x ! x x k p d t t p p d N f N N f a g f d f g g g N N f N N N N N c N N N c N N d N N N c f f c p f m p N d d f f B g f c N C C N m m M x x x x m C N N m m m m k k k k k p N f f p p p f p m f p p t d t k p p k k d c c c p d p m m k k N p N p c k N k m ! k k m p k k m f m m m m m x k k k m m N p p N f m m M C C m m M M m m M ! E E ! ! ! ! ! ! x E ! ^ ^ ^ ^ ! E x M k k k x k N N f d B B f N N c C k m N p $.n.n.2.&.;.<.<.;.%.;.&.$.&.;.&.-.&.t e e ",
"~.E.W.;.&.i.8.6.q.6.5.-.=.-.#.' *.A 5 0 5 q u k x x x x E x ! C ! ! x x k k p d f p f f m p N f f f d g d g d g g g N N N N N N f p N k N C N N d c C k N p N f N c c k N k d N f g d B B N A N N C M M x x x x m C N p m m m m x k k x k N f f f N f p f t m p p p t p p p i k p k k p N N p p m m p m f p p f p N m k k M M M M k k k k k k N m k k k x ! x k m m m m f p f N m M m m m A M E x x M E E E E ! ! ! ! ! x ! ! M x x x x E x E k m f k N N f p N d N f N V n N N N N p $.n.n.>.$.&.#.$.<.;.&.;.;.;.<.;.;.<.t 1 1 ",
"Q.W.W.<.<.<.e.8.5.-.8.*.=.&.#.#.*.A 0 ; 5 q i p k k x M x x x M M ! E x k k k p p f p f f k p f f f f t d g f f f f f n N N N N C N N k k m m N c N x M N c N N c N c k k c N d f f g f N N N Z S N m M M M k M M m m m N N N m k M l E k c N f f f m p p d p d p p t p k p k k N m p c N d t d f N N f f f p d N c k k k M M M k k k p k x k x M C k x x x x k m m m C m N f p m M x m m M M E E x M E E E E ! C ! M ! ! M k m k k k x x E x k m N N N m m N N N N n N N B N N m f f #.n.l.&.$.$.Y $.$.<.;.;.&.&.;.&.&.2.p e e ",
"Q./.Q.2.i.&.&.-.6.-.&.-.-.-.*.*.*.A ; 7 ; q i i k k k x x x x x x ! x x k M N N p p p d f k f N f N f f d f f g f f f N C N N k N m k k k k C k k c M M m c c N N N c k k c d d t f f g g N N Z N N m m x M M M M m M m m B B N m k j k p p f f f f N p f p t N d d p t p k k k m k p m k d f f f p p f p f p p p f N k N m M x M j i m k x x E M M x k m m k k m m m m m m f p m x x m x j E E x x ! ! E ! ! ! ^ ! ! M M M j M M M k x x E E k p f d d m p p f g N N N f N N N N m t $.g.x.&.U U U U $.<.&.;.&.<.;.&.;.2.t 2 e ",
"W.E.x.;.<.<.-.6.*.=.*.-.*.*.*.5.5.A 0 ; ; e u p p p k k x k k C x ! x x j k m N p f f f f m m N f B N f g f f f d f N Z N C C x N N k k k k k k k k x x C k k m N N N N c d c f f f f f g N Z N m S m k M k k m M m m m m m g S B j k p N g g f f N p m p p p p p p t d p p p k m p d k k p p N f p f p f t p f p f p m m k x C M k k k k x ! E M x ^ k m m k N m m m m N N m m M x E x E x E E x E E E E ! ! M ! ! ! M x x M j x x x x ! x E x k f p N N N d d c N g N g d d N m f f $.a.x.1.$.$.U $.$.&.;.;.&.<.;.&.&.1.d 1 1 ",
"W.Q.n.;.-.;.=.8.*.8.-.-.-.-.5.*.O.( ; 7 7 0 y p f p N k k k x x M ! x k m p k k k m N f d N N N N M M N N d f d f c N C N C C x N m k k k k k m c k x x M x M M k N f m N d d p f p f f f V C N p N N m m k k x k x N x M M N B m k k k f f f f f f m m m p p p k d p p f N p k m k k k k k p N p d p f d t f d d p N k c k x x m M j x k k x ! M ^ C M m p p N p N N p m m m M E E E E E E E E M ! ! ! ! ! ! ~ ! ^ ! M M x x x E l E x x x E x M p p m N p N p f f f f d c N c k N p #.g.x.<.$.$.$.$.#.=.&.-.<.;.&.&.<.$.t 1 1 ",
"~.E.g.-.&.=.;.;.6.q.6.-.6.8.6.*.-.A 5 ; 0 e y k m p c k k c k x x E E k N k x x k m c N d N d f N ! ! x k f d g f N N C x N c x M C M k k k k k k k k x M x C M N N N f k k f f f f f f f f f B f B f N m m k k k c k C M M M x x x x k f f f f f f N p p p p m k p N N p t p t p d p N c N f p p p p f f f f p p d d d N N m m M k k x x k k M M M C C m m f N d N N m f m M x E E E E E E E M M M x x ! ! ! ! ! ! ! ! M m x x x x E x x l E x m m f f f m m d f d t f d N d k f f N ;.P.x.e.&.#.#.$.;.&.-.;.=.&.&.;.$.$.t 2 e ",
"|.!.x.;.-.<.<.;.6.5.7.u.8.<.;.6.7.O.0 0 0 e k j C p k m k x C x M x x k k k ! x k x x m c m m m m ! ! ! E N f d f N N N m k c C x M x x x x E x k k k k x k x M x N p N f N f p p f f f N N f p f f N N N N m N k k m k k x ! ! x k k f f f f p N f f p k c k k p p p t p t f t d p m p k p k N f p f B f f t f d d k f c m m m k k k x x k k k N C C C C N N f N f N N m M E E E E E E l E E M M ! E x ! ~ ! ~ ! ! E ! x x x x l E x x x E E x C N m f f N N d d d d d d d k k N c k #.E.W.2.$.&.*.;.-.;.&.-.;.&.$.&.$.$.t e e ",
"~.W.E.&.=.<.<.;.6.6.6.*.;.;.8.6.+.` q 0 ; e i x M k N N k k k C x x x k k x M M k m m M M n M x M M M ! Q N f f N f N N f N c N N x ! E ! E x x k k m M c c N C k k N N N p N d p f p m x C m p f f N f N N k k k m k k k x ! ^ M M c f f g p f p m p f N p p p p p p p p p d d p N p p p N p N N f p f f f f p c f p N N m N M m k k M x k k M m N C A Z Z B N f d B N C ! E ! E l E E E E E l M ! E E ! ! ^ ! ~ ! x E x x x E x E E E E E E x m p N N N f N f f d d d d f k x p N p #.E.n.2.$.*.&.;.;.;.-.;.;.;.&.$.$.&.t 1 e ",
"^.G.a.%.a.2.;.=.7.*.7.-.-.8.q.9.@.O.q 0 7 r i x M x m N x k M m M k M m k M x x x C C C C n n M M m Z N A N f f f N N N m N N p N k x E ! E x x k k m m m N N m k m N N N f t d f p f m E x M p d f d f c c c k k k k m x M C C N N m f g N N c N p p N f N c N k p d p p d d d d d p p p p N N N p f p f f f f f f f d c c k m N N k x M k k m N Z A Z A Z N V B f C Z C ^ ^ ! E E E E E E E ! M M ! ! E ! ! ^ ! ! ! ! E x x x x E E E E E x x m f f f f p B f f f d d f f N k k k p %.P.P.<.;.;.;.%.-.-.;.-.;.;.%.#.$.&.u e e ",
"T.!.g.&.*.&.,.-.-.7.7.7.-.5.5.+.q.` q ; 7 e d c x k N c C C k k m m m k M k x x x C C A C A c M M M N V N d d d d c c f N k N N k k x ^ x x x k k k N k p k N N k N p d N p f k p f p N ! ! k p d d f N N N N p k k k k M N N N f f f f d d f d p f d N N N c c p p k p p c t a d p f k m k k N d p p f f f g f f f f N c N N N k k c x M x x k N N Z C A B Z S V B S C ( ^ ^ M E E E E ! M ! ! ! M M ! ! ! ^ ~ ! ! ! ! E E E x E E E x x x x x m m c N f f B f g d f N f t p p k p N #.P.E.<.=.$.;.&.;.;.;.;.;.;.&.&.&.&.u 7 e ",
"!.P.g.#.&.&.-.*.5.7.5.-.5.+.+.+.+.` 9 7 e e a N m k N C C C M k m p k k k C x x k C C A ( ( ^ C ^ ! C N N N d N N N N N N c k k M k k x ! ! E x k k M M m N m N c c c c d d p p m p f N M M m m c d c f B N f c k c x x N N B N g V V g f f N N p f f d d N c c c p p k k p f f t f N k k k k c p N k p p B g f B f f d f N N N k k N M x x M x m C N B Z Z B V V V A Z C ^ ^ M ! E ! ! ! M M E ! ! ! E ! ! ! ! ! E ! ^ ! x E M E E E x M k k x m m N N N f p N g d d N c c d c k k k #.G.E.<.&.;.&.&.;.&.<.&.$.;.<.&.$.&.p 1 0 ",
"n.x.a.$.&.*.&.*.*.6.5.*.*.+.*.+.+.` q 7 , e d N N C M N C n C k k k p p k k x x C k C A C A C x ! ! M N N N N N f d k c N N k k m k x x x ! ! x x k C N d k k k N N d d d m f p f m f f N Z N N k c N N N N c c k k m M N N N B B f B V N f c f f t p c d d d p k p c p p m p p d k N k m N p m p p f m p f f g N f c k f f p N N c k k C C ^ ! C Z A N B N S B V N N C A ! C M M ! E E ! ! x E ! x M E ! ! ! ! E E ! ^ ! E x M x x x x x k m k k k N m f N f t d g f N N N N c p k p *.P.E.;.;.&.&.$.$.&.&.$.;.<.&.&.&.&.t e 1 ",
"g.v.a.*.;.*.*.%.5.7.7.*.O.O.+.O.*.( 5 5 e e c B C n C x ^ ^ C k p p k c k x x k M M C C c C C x x M M N m N N S B p f f C C m m m m k m x M M E M m C m k k k k k p f p f p p f k d d f f B f N k m N C k k k k k c m m N f f B V f G V g f N f c c c N f N m p p p p k m N c c k c N k m N m f f f p N N d N f f N N N f p p N c k k x M M ! ! ^ C Z B V B B V V Z Z C ! ! ( C ( ! ! E E E E E E E ! ! ^ ^ ! ! E E E ! ^ M M M C E x M x N k N N k m N N f f d d d N S B f d f c p N =.K.E.;.;.&.&.&.&.Y >.&.&.<.<.&.&.>.t 1 1 ",
"n.n.g.-.-.-.%.*.5.5.q.5.+.+.+.+.' ( 5 5 ; r t t B A C C ^ ^ x k k p k k M ! M M m m C C k C C M C M m C m N f f B f f N f p m N m N p k m k x x m M m m m k x M k c t f t f p p d p d f B f f c k m k N N C N m k k k c f k N f f N I P B N N N c k k c p d p p d k c k p d N c N Z m N M N N d p f p f N c k p f f p f N f m m k k N c k C x M C C N c f f B V B S C ^ ! ! ! A ( M ! ! E E E E E E ! ! ^ ! ! ! E E E o.A A A ! ^ E C N m c N N C k p N B B d f f f B N N N d d d p c &.!.P.i.;.&.$.&.&.&.>.&.&.&.&.<.>.&.p 1 1 ",
"Q.W.n.;.8.;.-.7.5.5.9.q.+.+.+.+.+.^ 5 5 e e u N N C M ^ ! C k k p p k x ! M C N N M M M M M M M M C C C m N p f f B p f m m p m N f p k m k k x M M M m C x x M k m p p p p f p p d p f f f c k k m N N C k m m k k N m N N N N N B P V f N N c k k C k k f N p p p p k p p N N f K N n k N N d f f d f c k k k t V B f c k m m x k c k m M x C C m N N N C ( Z Z ( ^ ^ ! ! ! M ` ! M ! E E E E E E ! M ^ ^ ! ! E E E ! ! ^ ^ M ^ x m M k N k k c k N c d B N N g B B B N N N f p p c *.!.P.e.$.$.#.$.&.&.&.&.&.&.:.;.>.&.t 1 1 ",
"W.W.n.-.-.6.7.7.q.5.+.5.+.+.+.+.+.( 4 5 5 r c N C ( ^ M M k p p p p k x E C N k N N m M M M C m M M ! M C N N f p N N f N m M N m m p p C m m x x ! C Z m k m k N m p p f f p t p k d f f B d k k M m C M N m m c x M N N ) N N N f f f c N N f k k m N N d f p p p c k k p N N B N N N N c c p d f t d c k x N f f f N m N m M k k c m M M E ! C C N N k C ( Z Z C ! ! ~ ! ! E ^ ! M x E E E E E E ! ! ^ ! ! E E ~ E ! M M ! M E x k m N m k k k x n c d f N B N B B N N N B N N c k 5.K.K.8.;.$.#.$.$.$.<.&.&.=.;.&.<.<.p 1 1 ",
"W.W.G.;.7.7.q.7.7.q.@.+.+.+.+.+.+.` 5 6 q r p c ^ ( ^ n N N p N p p k E E C N k p m m M M m M x ^ M ! ^ M C C B f f f B S m m m N m k k N N N N k m C *.A { A Z m p p p p p p p c p N c f N p k k N m M M M m m m M M m N N C ^ C c f k C N N N d c N N p p N p p p c k k k N N N N f f p N k c t d p p p k m N m d f f m N c N C c N N x ! E x m N N x M E x M m x E ~ ! ! ~ E ! M M M E E E E E E x ! ^ M M ! ! ! ! ! M x m ^ N N M m k m k k k x M m N c N B B B N Z N N N N N k k *.T.G.;.*.$.$.&.;.&.&.#.&.$.;.&.;.e.p , , ",
"W.E.G.-.7.7.5.7.q.q.@.+.+.+.+.+.+.( 5 6 q y r k C ( ( k c d d p k m k x E x m f N m N m N m C C C M x C M M N N N N f B N f N m p m k p N B B g B N m N m f N N m m N t p N t f d d p p f B N p k N m m m m m m M x x k N x M ! M N N N k N c N d c m N N N c p p k k k k c N N c N m f f k k k p p p p k p k N f d p N N f N C c k k k k ! M x x C ! x E E E M M x ! ! ! ! E E ! M M x E ! E E ! ! ! ! M M M ! ! ! M ! ! ! x m N N k m N N x x x x m m m c B B B V B N Z N N B N k d -.K.G.i.#.#.$.&.;.&.&.&.;.;.%.;.;.-.p 7 2 ",
"E.E.g.8.7.7.+.q.q.5.+.+.9.+.+.+.+.( 4 5 5 e r k m Z c M N d k k k c m M ! M C p c N C k N C M ^ C x ^ M M A m N C N N f f f C f C N p N f f g V V V N N m m N m m C S p p p p p p d d d B N N m c k m M M m M M M x x x x x ! ! ^ x k k k n N N N N N N N m N N p c k k c N N V N N m N f k c N p t p p k p c N p p f f f N B N C k x k k M M k x ! ! x E E l ! ! E E E ! E ! E ! x ! x ! E E E ! ! E ! M m ! ! ! x M x ! ! M M x k m N N N N x M k m m N N c N g B B c C N N N d d d *.W.G.;.;.#.*.$.$.;.&.&.&.;.-.*.5.*.u 7 7 ",
"n.E.x.;.%.-.q.q.9.+.q.+.+.+.+.+.O.^ 5 5 6 y y k c N C N N N d k k N m M x M N m C k C m N C ! C M ^ E ^ ( M f C m N B B C p f C B N N f f B f g D B V B p p m p N m C p p f p m d f d d N f B f N N m M M m k M M M x M x ! ! E E x k k x x k N N N N c N N m p p c d k N N N N B m C N N p k k p p p k i k k c N p f p f N N N N k N M C M M x M k x x x E E l x E E E E E E E ! E E E E E E E ! ! M ! ! x ( ^ ! E M ! M M M M m k m k N f N C M k M k c N n N N B N C N N N c k d d $.W.m.<.&.;.&.&.#.#.$.&.#.*.6.+.q.8.t 7 7 ",
"n.n.x.<.-.6.6.9.9.q.+.+.+.+.+.+.+.^ 5 q q q j x m N Z N N f f c x k M M x C M C m m C f m M ^ C ! ^ ` ! ! M m m m m N B N N f N N B N N g f g g g V g f N m N N m M C p p f f N p N d d f B B N p m m M M m m k k x x j m x x x x m j x x m k m N N N d N c m f d p N c N m C N f N C C N c p p p k p p p f p m N d d f c N C B N k m m C M M M x x x x w E E E E E E E E E E E x x x E E E ! E x ! M ! ! M ( ! ! M ! ! M N C C c c N N N d N c M x N m k N m N N B N N N k N c f p p $.~.Q.p.&.;.;.;.#.&.%.&.%.*.7.q.q.7.u 7 7 ",
"m.n.x.-.-.6.7.5.5.q.q.+.+.+.+.+.+.` 5 q q q x ! ( C C N d N N k k k x x M C m m C C N C N m C ! M C ! ! E ! M x m m m N N f m N N N C B d f g g B g g g f N p N m N N f d d p p m t p p B N N B B p m k x k M x k x M M x x x E x j m x m m k k c N d N d N N N N c p p k m N C f p N N k p p i i p i p p m p i p N p p N N N N C m m m m m M M x E E x ! E x E E O.! E E E E x x x x E E E E ! E ! x M M ( ! M M ! x x M m C N B c c N N p c C C k C C M N M m m Z N N N C N N p f f ;._.Q.p.e.;.$.;.;.2.$.$.%.5.q.q.7.7.u 7 1 ",
"g.x.D.-.-.%.*.#.5.*.5.5.+.+.+.+.[ ` q 5 q q x M ( x x k d N N k k M x M C C m x M C C B N C ^ M ! C ! M x ! M C m M C C B f N B N N S N f f f g g g g B f B p m m m N f p d d p d p p f V C N f m m m M k M k k M M k x x x x x x m j m m j M m N m p N N m N N d N m p k m m N k p p f d d p p k p i p i m p k p N p f f N N C C C m m C N m C M x x E W E x x E E E E E E E x M M E E ! E ! ! ! ! M M ! M M A m M x k m N B B N N p N f N N c k x k k x N x k m C N N N x N N m p N ;./._.2.;.<.;.$.;.$.T &.;.5.5.+.*.q.i 1 ; ",
"G.G.G.%.-.*.*.%.-.5.5.5.q.@.+.+.+.` 6 6 6 q x ! ^ ^ x x k p c k m m k N M M M ! M M M C M m M C ^ ^ ^ M M C ^ ^ ( C C N B f N N C N N N p p f f a f g g g B N N N N N m f p c p k p N m N A Z N f m j j x k x k m j M M x x E x x m M m m M M M k N N m k N N p p f f p m m m N p p p d p c c c p p p p p p k k p p c p f N N N C C m m B B V N m M x x x x x x E ! E E E E x A M M ! ! ~ ! ! x ! ^ M A A ^ A N M C C N N B C C N N N f f d N k N C m M ^ M E ! M N N N N N N c f f f #.W._.p.<.i.>.&.<.&.$.1.;.*.+.+.9.q.j 0 0 ",
"G.J.J.*.-.$.&.-.=.*.5.*.5.5.+.+.+.` q q q h ! M M ! ! C N N N m k m m C C m ! ! ! M M C ^ M M ^ ^ ! ! ! ! ^ C M M C M C N N N N N m C k m p m f B f f V f V k Z N N N f p p p N p k m m N N C p m k k k x k k x M m M k M M k k k x C m m M M m k N c N m m N N N f p N N N N N m f p i v i k N m p i p i k k k k k m f f N N N N S N p N S B f m m x E x x E l x E ! E E E x M ^ M ^ ^ M M ^ x M N N N N A C A C Z m m N N m C Z N N f f k c k M C C M ^ M M M C c N N N N N N f d f $.W._.2.<.3.&.&.&.&.>.2.&.-.+.+.9.+.j 0 0 ",
"K.T.J.-.*.*.&.-.*.*.*.{ *.5.' +.+.` 4 q q h l M M x M m B N f k N m C ^ C M M ! ! M M M ! ^ C ! ! ! ! ! ! ^ M C M C C M N N N N m c k k k k p f f f f f f p p k Z V N N m p p k k p m m m p f p k k M k k k k k m M M x M M M m x x M N m M M M N c N c N N C N N N p k c N p p p p p c c u p d p p p i p p k k k m N p d N N N N S S m N N N N m m x E x x x x x ! o.! E E x x M ! ! M M C N N C B A B A A M N N N N k m N m N N N d d d N m k x ! ^ ! C M M m N C N N N N B c p d f $./.Q.x.<.3.&.&.>.<.&.>.&.-.q.+.5.7.i 0 5 ",
"K.T.D.%.*.8.6.7.5.' *.#.*.) ' +.+.` 4 5 q w j ! ! x x x m B N N S N m A B M M M M M M ! ^ M M C ^ C M ! C ^ ^ C N ^ ^ ^ C N B f N N M m k k k p p f p p p m k m B B f p p p k p k p m p p m m p p k j k k k k k k M M M k m M m k x M m m M x m N k N N N N N N N k k k c c d p f p k k k p k k k z k i i p k k k p N p f f N N N B B m f N N A M x x x M x m j m M ! E E E M N m M ! M m N N A N B A B B C N C C N C m m p N C N f k k k m N M x ! ! ^ M C C m N C c N N k m N N d c &.W._.p.3.3.&.>.2.2.<.<.<.%.5.+.5.7.u 0 0 ",
"K.K.D.&.-.-.-.7.5.O.#.#.*.O.5.5.+.` 5 q q y M M E E M x k B B f C m A C A M M ! ! M C A C N C C C C M C ! C ^ ! C ( ^ C C C N f B N m Z Z c k p p p N m i p p p N N f m m N k k N N p p f N m p m k k k k m m k M k M k x M p M k x x N m k x k k N f N k N N c k k d k p f p f p p p k k p p d p u k k k j k k k m N N f f N B B B S f N f f m M x x x M m j m m m E ! x A ^ A A A A m m N N N A N N B N B N A B f N m N p p f m k k k x x x x C ! ~ ^ ^ M m N Z N x x k N N k f p f $.E.m.l.l.p.&.&.&.&.<.>.&.;.5.q.7.-.p 0 ; ",
"K.K.D.*.&.-.-.*.q.6.O.*.*.O.5.q.5.` 6 5 q y j E ! M ! E x N N N m N Z Z C C C M M C m C N N N N C N M ^ ! ^ ! M M ^ M ^ C m m N N B N N $.p k m f d c p p p p p k k k p k m k k N N N p p c p p p p k k k k k k M k M M k x k M M k x k C k x x N N N N N c c c p m k p p p c p p p c m m p p k p p i k k k k k k m p f f N f B V B B c f N V N ^ M M x x j k j i j m ! M A A P K P A N N N M N N B A m N B N C g N B m m p p m m m x x E E M M M M ! ! ( C k N C N C C M N N c f f f &.E.W.a.k.3.1.2.&.&.&.2.;.;.7.5.q.7.u e 0 ",
"G.G.g.*.#.;.-.-.6.7.*.o.O.6.7.7.5.( q 4 5 y k ! ! ! M x C N k Z C C C C C A C M C M C N N N N N N N C M ^ ! ! ! ! ! ! M ^ m N N B B N B B f p p p k N m k k k p k c i p k k k k N c p k c N f p p k i k k k k k k k M M M x x M M x k k k k k N m N N N N N N c c N k N k f N N c k k p k p p p k k p p i j k k k m p f f N B f f f g f f p N N M M A x M m p m i i m ! A A U A T P P B N m M m B N m A M N B B B B m f m f m m m m k x ! M x M M M C M ^ x C N N B N c m B f N N N f ;.E.W.i.<.3.2.<.&.&.>.<.&.-.7.5.q.7.i 7 0 ",
"G.Y.G.&.%.*.&.*.#.#.#.*.*.5.| -.5.( 5 5 5 q k M ! M ! M N m k C C A Z N B Z ( M A ^ m m N S f B N N N C M M ! ! M ! ! ! ( C C N V B B N N N c k p k m k k N M m k N p p k k k k m k k N p N p t f p p k k x k k k M M m M k k k x k x k x k x k k N c N N N f c N m c c k k k k c k p p k k p k k k k k k k k k m m p p f f B B f B B N p p f C M A A M A A m C ! i m A o.A A V K P P N N M M M N N N m N B V B N N N m p f N N A C C M ^ C N m m M M ! ^ ! C C B B N C N B B d f m N -.!.!.i.<.<.>.&.&.&.&.&.;.-.5.5.7.q.i 7 7 ",
"G.Y.G.#.#.*.{ #.U #.*.O.*.*.O.*.-.( 4 5 5 y i x ^ ! M M C M x ^ ^ A Z V B #.o.S A B B B V f f f f f N N C M ! ! ! ! ! M C C C p B B B N N Z N k f N N C C M x m m m k i k k k j p i p k k f m p t d i k m k k k k m m N m m N m M x x k m k k k k k N c N N c c p N N k c k k p k k c k k k c k i k k j k j k k p m m p N B B B f N B c f p f N x M A m B N B A A M A A A A A P P T K S M M M A N C m B N N N N f m f f m N m C C C A Z S N N m m M x M M M M N N N C N c d c N N m m 8.!.P.s.;.>.&.>.<.&.2.2.;.-.-.6.5.q.i 0 ; ",
"K.Y.D.#.#.O.O.U U o.*.O.*.5.*.*.5.( 6 5 0 q u k k M M M ^ M M ^ C Z Z Z V $.$.S ( S B B V g g g f f B N Z C ! ! E E M M M M C N f V V N f N M k p N N M M M m M m C k k k x k k k k k x k k k p f p k k n k k c k m N N f t f m k x M j M M x k k M k N N N N c k k c c k c c k m k N k p i k k k k k p k j k k p m p m N N B f f f N f p N N m M M m A N f B m m x M o.N V P U P P B N M M M M m m N f f N N N c k N N f m Z M C Z N B N S C M x x E x x M C m N N N N N N N N N N k 5.!.E.i.-.;.&.>.&.&.>.&.&.-.-.-.*.6.h ; 0 ",
"K.K.S.*.-.*.*.o.#.*.O.O.+.*.5.q.q.` 6 6 ; 0 i x x k M M ! ^ M ! ! A Z N V 1.&.{ ( Z S f g g f g d g N B N m ^ ! ! x ! M ! M m N f B V C N m k k p k k M C M M M C M x x k m x k k m p m M k p k p k c k c c c c k m N N f f f m k x k k k k k x k k M c N C c k N N k p N c N k k k N k k p p k k p k i i k k k p m p m f f N B B N f f p N N m m m m M m m A m m j o.E A A o.P Y P f N m M A M N f f f p N c N N k d N p N Z N C Z m C N N C k x x x x M m m N N N f S ( ( N C N C N %.E.E.u.8.=.>.&.<.2.&.&.&.;.-.-.6.5.j 0 0 ",
"L.J.S.' *.*.#.*.+.5.*.*.5.O.*.5.5.( 4 5 5 q h x M x M x ! ! M ! C Z A N V &.U #.S ( V B f f f f g f B B N A ! ! ! ! M ! M M M N B B B f m N m p k k N N N N M C C C C x M M C k k p p k M k N c p c c N N N c c N f f f f f f N x x k k j M k k k k m N N N N k p N f k p N c N k k m n k k k k k p p p p i p p p p p f N N S N N f B f N N C N m p m m m m m m m A M M M M A m A A N N m A M A m f p p d k m N p k p p N N m N N N N N Z Z N k x j k k k k N N B N N C ( ^ A C m C N ;.E.E.u.;.;.<.;.<.1.&.&.$.<.;.8.-.5.i q ; ",
"K.K.J.5.O.#.#.O.*.O.5.O.| 5.5.*.5.) 6 6 5 q i j x E M ! M ^ ! M ( N S B V T $.%.A S A S N N f f N f N N C C M ! ! ! M M ! M M M N N B N A N N m N N N N N C N Z N N k C C M x x m m p k x k N k p k N c N N B d f f d N f p f f k x x k m k k k k n N m c N C N k p k f k m N m M m M ! ! C k k m k k p i p p p p m p p f f B N N f d f N N N N m p m m m m m m m M E x o.l o.M ! M m m C M M m m m m m p k m N c d N m k N N m N S Z N N N N k N Z N k k k m N N V C C E E ( M m C N ;.G.~.i.2.&.;.e.&.1.&.&.&.&.;.-.*.*.u 0 0 ",
"J.K.A.*.*.#.{ #.O.*.*.*.*.*.*.*.5.( 7 6 5 y j k x E ! ! ! M M E ! C S B $.$.#.{ S Z S #.A m m f N N m C M M M M ! ! M ! M M M m C d d B ) K B N N N B p B N N f N m C C m m M k x M k p k k c k p N N k N N N c N B d N f f f m x x M k k c k k k k N m N N N c N p N N c c m k k M M ! M x x x k k m m k i p p u p p p N N f p d d f f f m d N N p N C C m m m M M E E ! E ! E E E ! E M M M m f m m m p p N p N p N N c c N f d N f N N Z N m p N N N p p N N N B N x x x E x ^ c c -.!.~.d.2.2.;.8.3.j.j.3.>.$.$.;.&.-.r 7 7 ",
"K.R.F.5.*.*.;.=.#.#.#.#.#.*.+.5.*.( 5 6 4 5 h z x E ! ! ! x ! ! ^ C N S o.#.<.;.&.{ K S S m N m m m m M M ^ M ! ! ! M ! M m C N c N f B V S B B f B N f N N N C C N m k M k M x m m k k N m p p p p k k m N N c d d c N m p p m C E M k k x k c k k m m N p d c c N c N N x k k m M k k k k k k x x x m k p p i p p p p p B f f d d p p f f p d N N C N f p m N m x E E E ! E E ! ! E E ! E M m m m p m p p f p p N N p c k m N N N f N N C M k k N N p p k f N B B N C E ! E E x x k -.Y.^.i.e.&.i.i.P.h.3.h.a.<.L #.;.e.y 5 e ",
"J.K.F.*.&.<.3.p.x.2.&.L { #.*.+.5.( q q 5 y j j k x k M ! M ! ! ! ^ C M A #.*.<.$.$.&.K S B N m m m N M C C M ^ ! ^ ! M M M m m N N B c V S S S B N S f N N N S Z C m m M k M k k k k m N p p p p k k k N N k N N N N d p N p k x x C k k n k k c k k f N k p m k N N N c k j k k x k c k p k m k x j k p p k p i p t m c p f p c d p d f N p f k N m m k p N N M x E E E E E E ! ! ! x ! ! x x m m m m p p p p p N k c k k k p m m N k m x x M x p N N d d N N c g C ^ ! M ^ M k x k -.[.[.D.e.<.3.~.L 2 , & > ;.e.$.$.$.y 5 5 ",
"J.K.H.8.i.g.$.t e t <.<.K ( O.5.6.( 5 e 5 7 j x x k M M ^ M ! ! ^ M M ! ( Z B #.$.K $.Z A B m m m m M M C ! ^ ! M ! ! ! M M m N C k c N N V V B d d B N f C C A C C M M M M k M m k k k x k k i c k k k k N m k k N c p m m N k x x k c x x k k p f N f c p k p p p k p k k x k k k j k k k k k k k j k p i i p t p p f k p f f f N p d f N f N N m M m N N k k M E E E E E E E ! ! ! ! ! x E M m p N C m p p p d c k k k x m p f N c N m m M k k c d N N k c f f N A ^ ! M C C x n k -.[.!.d.;.3.m.$.g R 1.J r & p.&.B ) y 5 4 ",
"J.J.A.t.G.S r d d 7 % p.e.S ) | 5.( 5 5 5 y h k k k M C C m M ! ^ M ! M M M m S K { L #.S C N m m m C C C M ^ M ! M ! ! M C C m C m N c N Z g N d N N N m C C C C M M M k x k k N m k k k k k p p m k N c N N N M k p m p m m x n x k k x C k N c f f p d k p c N m m p k k k k j k M m k j M M x j k k p p p u p p t N f N B f f p p p d N d f f m N N N N p m M ! ! ! E E E E ! ! M ! ! ! x ! M m B Z m p p p m k k x k k k p p p N p p N m m k d d p k p d N f N A ^ M C M M x x C 5.!.[.s.<.l.W.g h.=X=Xh.H < s p.f N e 5 5 ",
"K.J.H.G.i.a &.e.e.K 8 < g.) x _ 5.( 5 5 5 e k j x M C C N A C M M M M E x x m Z ,.&.Y #.A C C m N N N m M m C C M ! M ! C C m m C N C N N N Z d d f N m M M M N m x x x x k k k m N k k x k m m k p k N N p m m m m m p p f m M x k k k k x k k p f f m k p f k N p p k k k k k m m p p k k E x j k x k i i p k c p k d d N f N p p p k N N N p p k N N m m N k M ! ! E E E E E ! ! ! ! ! ! E x m m C m C N p m N C C k M k k k k p N p k k m k m p c p p k c B g B S ^ M m k x k k x 8.[.[.S.;.x.N.D N.=X,X=Xr.b a p.f p e 0 q ",
"J.K.S.G.{ J z.XXoXr.F < e.$.y ( ' ( 5 5 e y j x M x M M m M ! ^ M M x E E x M A ) &.>.K C C C B f B N m m m m M C ^ M M M M m m N C N N N Z N N f N c k k M M M x m M E x x j k p N k p k m p k d k N N k d m m m m N N m m m m M k k k k k c k k k p N k N d c d f m p k k k z k k m M m m x j k k k i p k k k k k d d d N f f N k k p N f N N k m N N p m k M E ! ~ E E E E E ! ! ! ! ! E E E M m C C B C m p m C M k k k k k k d d N k k p k k k m p m p N N B B / c C N N x x k N 6.T.!.S.8.z.`.G z.=X1X].k.F b p.d y 5 ; 0 ",
"K.K.F.U.{ L Q.:X4X~. .8 8.&.q M ' ( 5 5 5 e i k x x M M M M M ! M M M x E l M C N V K N C k N V V V B m m C C C ! ^ ^ ^ C M C M C C N C N C A N N N c k M m M A C m C k x k M k N k k p k m p p k p c k f k p p m p p m p m m m m k x x M k k k k m k m m c c c N f f N k k j k k x j M p j m M k p k k N k k k k c d p p p k p k k k N g N B N d k k k k k k M ! E E E E E E E ! ! ! ! M E E x C C M M B m m m k M k k k k k k m p N k N N m k k m p p m p N N N B ) C m k N x k m m -.!.T.S.*.i.W.L :.b.'.~.,.s &.K e e 5 ; 5 ",
"K.[.G.g.<.V x.|.3XH. .u d.Z 5 j ( ( 5 0 0 q i j x x M ( A x x x C M k x x x M m m m A N M m g N B B V B N C k C M C M ^ M M M m C k N N x k x k N N N N k k M m A S S S ( N m k k c p k k k k p p p p N f k p m p p N d p k k k m M M x M k m k k n x x N k c d f f f N k k k x x x x x j j M j k j M k k k k p N d d c k N k c c k p f f Z N k k N m p N N m m M x E ! E E ! E E ! E ! E E E x m m x M N C N k k k k k k k k k k k c p k k m m k N k N k M N B G B Z m N m m M C k m -.!.!.s.9.6.2.W.K / 5.| c &.k.d ; e 5 5 5 ",
"!.|.G.2.W.C _ B.V.X.z  .e.u 5 j ( ( 0 5 0 e i x k x M M M M x M C C C M x k C C m m B B N m p f f N V S ( A C x M M C C C C C C C C m k k x x C N N C C k x x j M C C C C k k p c k k p k p N f N d p f B N k p N k p k k p k N m m m M k k p m k M M N m m d d d N f N c k x m x M M x M k k M k x k k k c N p N N p p c N k c c m N N N N C k N m N k N m m N M E ! E E E x E ! E ! ! E E ! x M k x m A C c k k k k p k k k k k k k m k k M N C m k m N m N N S V A m C C N k k k m -.!.!.s.5.| #.,.@Xl.&.&.z.h.b , ; r 5 5 ; ",
"!.|.f.{ ;.!._ ^ W E 8.g.v ; 7 j ' ( 0 5 0 e i k x M M M x x x M N m M M k M M M M M N N N m f S B B B N B B N M M M M m C N C m C n k m m x x N C N Z M x k k x M m C C m p p m k k c p k k p p d d d p N N p f N m p p p k k k M m M j k M k k k M M M m N d p f B N B N k k k j k x m m m m j x x k k k k N k d p N c p c m p p k k m c N N C N p p k c N N N M E ! ! E ! E E ! E ! E E E E E ! E x k N N N k N m k k k k k k k k k x k x k m c k N x k x c N V K Z C C C m m m m x *.!.!.s.7.*.( S V <.d.p.K d , & , p q ; 5 ",
"J.D.f.S / ) !.~.!.K.0.v 7 - 9 ! ' ( 5 ; 0 q j j x j M x k x k M C M M x j M k j k M m f m f m B N B N B m B C C m m N Z C C M C C k N m N k x k N m k C x k k x M m x k k p c k k p k m k N c d p f N f p f N N N N N k c k k x k p p k k k k k k M m M N N f p d d B N N c N m M m j M j j M M x M k m A C k k c d f N k d k k m k k k c N N N m p c N C N N C M ! ! E E ! x E E ! E ! ! ! E E E ! x x M m N N p m k k k N k k k k k x x k k m N k N C k k M C Z Z N C C C C m k m C 6.Y.[.s.;.-.#.C i u a a e ; & e p S r 0 ; ",
"G.D.f.o.C x n x ^ x y - & q j ^ O.( 5 5 0 0 i j x x x x x x E x M M ! x x k k x x x k k p f m f N f g N B C f B m N Z C N M C m k C M m m M k M m c k k k k k m m m j m m p m m c k k k k N k c d f d N N f d N N N m p m k k k k k k k M k k k k m k m N c N p d f N N m c N p M j k M m M m k x M k M C C k N N c f c f k p k k k k k N N N N N N k N k N N N N M ! E ! M ^ M E E E E ! E ! ! E x E x M k k c k k k k k C m k M k m M x k m k x k m M m k M C N C C C x M N k k k C -.!.}.s.8.8.-.) N i y e , 0 r p Z U u 7 ; ",
"G.G.f.*.) n y 5 5 4 - 5 e k ^ ' +.( 5 5 0 0 i j x j x x x x E x k x x k M M M M x M k k f m f f f N f B m S B C N N C N N C C C C x N N m m M C C k x k m k k p p m m m B N B m N k k k k k m p N c d d d f d N N k k k k m k k k k k k k k k k k C C m c N f c N c c N k k k m m M k j j m j x k ^ M N m M C N N d N f p d k k k k j k c N Z N N m N N k c f f C A ( ! ! A M ! E E E E ! ! E E E ! x x x x k C C k k N N N m k k k M M x k N M k M C M k k k m C k M C M x M ^ k k m 6.[.!.u.;.8.-.-.) S Z d d N V o.%.%.p 7 7 ",
"Y.Y.D.-.O.` x j y 6 y u k ( [ +.+.` 6 5 0 q i x M x x k x E E x k x k x k M x x x x M m p p p p g N f f N B S m m N N B N C C M x N k N m m m m C k k k k k p m p k k p V N N N N M N M k k p d d f d d t d c c c m m m k k m p k M M k k p k p k c k c N N c d N N N c m k m p p k k k k M M M x C C N N m N C N d p c m m k k x k p k m N N B Z m m m c N N f B m M A M C M M E E W E ! ! E E E ! ! ! x x m m m m k m C C m k k k M x M k M M M k C N M k C m C m M M M x x C C c k 8.}.^.w.;.8.-.8.6.*.{ S #.#.;.;.;.-.p 7 7 ",
"E.P.g.*.*.| ) ( C ^ n A A *.+.[ +.` 5 5 0 q i j k x x j j x x k M M x k k M k x k x M M m m p f p g N f N N N p N N N N N N c n m M C k C N M N m k x x x k m k m k m N N Z N N N N m N m k p p d d p p d p k N c p k N k k m m k k k k k m p m k k n N N d c d p c N N p m p p m p m p p k k k x c N N N C N k N N k k m N m k k k k k N C B N N m N p N N N N A N m N C m ! ! E E E E ! E E ! ! x M M m m N C N m N N N N N k k M k M M k k k C k C C C k C N m N C C M k k k m k k 7.[.T.s.;.;.-.-.5.-.8.-.-.%.i.<.;.;.t 7 7 ",
"n.E.g.;.;.-.-.*.' +.' *.*.*.+.+.9.( 5 4 q e h x x x k k m M ! M M M m k M m k k k k M x k k c d d N c c N N N N N N N B N B N C N m M k C N N N N M k M E M M M k m M c Z C N Z Z N m m k p p p k k p p d k N f k p p N p c N k p k M M m p p m m k k N N N p p c c N m k d d N p f d f p p m k k m N N d N c N d m k k x N f m k k k k k m N N N C k k k N C C N Z N m N m M ! ! ! ! ! M ^ E E ! E ! M M m m m N N f m N m m m k M M M m x k k C k C C M k k C N C C C M M M k k k m 7.!.T.y.-.;.;.-.7.-.-.-.7.-.e.e.;.i.p e , ",
"E.n.g.&.2.;.i.-.6.5.O.O.O.5.5.5.5.( 5 6 5 q j j x k k k M E x k M M m m k k m k x c m k x k p k N N k N N N N N c N N N N N N N x m M M m m C N m N C M x M C x C ! M M N N N C N N m k m p m p k p k p p p c N N p f p d k m N m m m p m m f m m m c p d d d k d k k k k N N p k p p N p k p k k N c d k p k N N f N c k c N m k M x k N N C N N N N n m m N N N N f N m M E ! ! ! ! E ! ^ ! E ! ! E C M C M m m N N N B S N N c c k m m ! x m m N C C C x x M M N M k m k k x x k M 6.[.[.s.t.i.t.5.7.5.-.6.*.-.i.i.8.8.r 7 e ",
"E.E.g.;.;.-.8.*.5.+.5.*.O.9.+.5.*.( 5 5 5 6 h k x k x j x M M M m M m N N N m k c N N k c k k c N k m N m N N N d N N N N N N m k k C x x k N M m C x x k M k M M E M M m M M m N m d k k k p p p m k p p N N N N p f p m N k k m p m N m p N p m m N N p N N p p N m k k N k k k p p p p k k k k N N c k m m N N f N k m m N N x k k k m N N N N B N c N m k N k k k k M E E ! ! ! E ! ! ! M ! ! ^ M M C m m m C N f N N N N m k C m x M C m m C m N C M k C C M M M x x k M M M m M 7.!.[.s.;.y.8.7.7.5.-.8.8.;.e.<.<.;.p , 5 ",
"G.G.g.;.#.*.5.+.9.+.+.+.5.5.[ 5.5.^ 5 5 q y h k x k x x M M M M C N N C N N p N N N k M M x m k k m m k m m N N d N f N N N N N C k x x x k x N C N m k N C N N x x M x M ! M x k p k k k m p m p p m p p p p f N p f N N k k N p f f N p m m f N N k f p f m k c N m k k f f f m p m k m m k x k k d c m m m m N N d c x x k k k k m C m N c N N B N N N k N x c N c m M E E ! ! ~ ! ! ! ! E ! ! ! x C N N m m m N m g f C m m k A N x N C C C m C C C M M C C C M x x x k k M N N N 7.[.[.s.;.y.8.-.7.w.6.-.-.e.e.i.2.;.u e ; ",
"J.Y.D.-.-.*.5.[ +.5.O.+.5.+.+.+.+.( 5 5 5 y k j k x M M M j x M C N Z N N d c N c N N M C x k k k m m M m m N f N N f N N N f k k k k x x x x N C m N m N N Z N C n c x M ! ! x k k k k k k j p m p p p p f f g f g f N m k k k m m p m f m f p p N N m d c N N k f N p k N p p k p f d k x x x k p k k M M M m N c c N m k C k k k k k N m k m V S B c N d k k k N N M x ! E E ! ! ! E ! E ! E E E M C m m N f m m N m N C m N N N C N N B C m x C n M M M M m ! M x M N N N m N N N ;.T.!.d.e.8.8.7.8.6.7.-.2.<.8.u.i.;.u 7 ; ",
"D.K.K.-.6.-.5.' *.O.O.*.O.+.+.5.*.A 5 5 5 e h k M j j x M M M M C C C N N N N N c x M M x M x M m M m m k m N B N p N N N d c k N m m x x M x m m C m N N C N N N N N C M ! x x x x k k p p p p p m m N m p g V G G V f M M M M m m p p m f m N f N f k c c N c p p m m k p p N f p p m k x x k k k k x k k j k k k c N N k k k k k x k m m x m N B N N N k k N N C m x E E E E ! ! E ! E E ! E E x C N B N C m N f f N N m M C C N N N N N N m C N N M C C M N M x k M N m N p N N N 8./.~.i.i.8.-.7.8.6.8.8.i.2.7.8.8.i.p 1 7 ",
"E.J.g.*.5.*.*.5.*.5.O.O.*.[ +.9.+.( q 5 5 q j j M j M x M M M M C C C C N N N N C x C M C ! x k k k k m m k N N f p N c N N N k k m M x x x x m N N S m N N N N N N N C ^ ^ E x x k k k p i p p p p C N f p f V G G B N m M M x C p p p p f f N f f f N p c p m p d k k k k k N N p N N k k x x k x k j x x k k k k k d k k k k k k m m C N M k N N N d N k N N C M ^ x ^ ! ! E E W E E ! E E E x n ( A C N N m m m N f m m m m C m N f N C C N m m m m M M x k M M x k m f f N c N B ;.E.~.i.<.2.-.6.5.q.8.6.;.8.7.+.7.;.t 0 7 ",
"Y.T.D.7.6.5.+.*.*.=.#.O.| +.+.+.5.( ; 5 ; q j j x x x k M ! E x C M ! C C N C C C C ! ! M M x k k k k k N k p N k k c N f k k k M k k k k k k C m m C N C N N B N N C C ^ ! E E x k k k m p k m m p f f N f f f I G g N k M M m m m p m p m p f f V B f N d d p p k p p k m m N N k k m k k k k j x k k k x k M x k k c C k k x M x m m m m m M k N f d p k k C M x ! ! ! ^ ! ! ! E E E E E E E E x A N S N f N f f f m m m m M m m m B N x ( m C Z N C C k x x x M M x N N N p N N N ;.~.!.<.;.-.-.*.5.7.8.6.w.w.7.q.8.y.u 7 7 ",
"G.T.F.7.5.5.5.' *.*.*.*.) 5.+.+.+.( 5 5 5 e j x x x x E E E x x ^ ^ E n C C N C C M ^ C x x x k x x k k k k p p p k m N N N m k M k k k N p m m p m C C C N S N N N m M ! ! ! x x k k k p d m p m p N p f f f f g g f f N m m k N f p N m c m p g V B f f p p f m k k p m k k k k k M k k k x x x k k x k x k k M N k k k k k M x x k m m m j m k m m p p m m M ! ! ! ! ! ! ! ! E E E E W E E ! ! x Z Z N N C B N f N m f m m B m m N C B m ( N N S N B C M M M x E M M N B N N f Z Z ;.~.!.w.;.-.6.5.5.7.8.;.-.8.5.q.-.*.u 0 ; ",
"K.G.F.7.*.5.+.O.*.' O.+.*.6.+.+.5.( 5 5 5 q l x ! E E E ! ! M ! E ! x ^ x c N c C c m M x C M x x x x k k C m c c k C N N N N C N m N N N p N k f C M A C N N N N N N x ! E ! x x k k p c k k p f m f f f f f f f a f N f N N c d p p p p k p B V V B N N N f m k k k k p m k k k M x k k k k x x x x j l x x k C C k k k k m M k M k k k k k k k k p p m m m m M E ! E E ! ! E E E E E E ! ! E ! n C Z Z V N N N f N f f C A C m C m Z N N N C C N N Z M A C ! M x x N c f N f N N C 6.!.!.8.;.-.7.5.*.5.-.8.-.-.7.7.-.*.y 0 0 ",
"J.J.J.-.6.+.O.O.5.5.' *.+.5.*.+.+.( 5 5 5 6 j x x E E E ! ! ! ! M x x x x x x c m k k k k M M M x x x k k M k k N m C N N N N N C c m f p N m m m p C M M A B C N N N M ^ ! ! x x x k c N N k k k d f N m f p N p f f f B f f f p m m m m k f B g f B f f m k k p m p p i p j k k k k x k k x x j k k x x M k E x k k k k k k x M M x k k k k k m p p m p m M M E E E E E E E E E E E E E E E E ^ ! C N B N B N N m N C m ^ C M m N N N N N S N C N N C A M M M M m N m k k N N N C N 6.Y.!.i.;.&.5.*.5.5.6.*.7.8.;.*.-.7.i 0 ; ",
"K.J.K.q.5.+.O.' ' *.*.' *.O.*.*.5.( 5 5 5 y x x E E E E ! E ! ! E ^ C x k x x C C k N k k M m M M x k k k k m c N m N N N N N k k C N N p f f N m m M M M M M A M k m M x x ! x x k k m m m k k N N p f p f f f f f f f f f N f p k m p p c f V g f f f f N m k k N p p p p p k k k m k k x x x x M x k x k x E Q M x x x k k N M j k k k k M x k p m m m m M M E E E E E E E E E E E E E E ! E E C M N V V V N N f C m M M m m N N N N N f B C m m S N m A ( C C C N N m k k k m N c -.!.!.8.;.-.-.5.5.5.*.*.%.;.;.#.*.-.i 0 5 ",
"K.K.A.5.5.' O.*.O.+.O.*.*.*.*.| *.' 5 q 0 q l ! E E E E ! ! ! ! ! M k k x x ! E M M m k k m N C M k k k k k k N N N C N N N N C N N N B f N N m k m M x M ! ! ! x k k k m m C M x x k M k N m m N f p f f p f f f f N f N f c d p k k p p p f V f N N N p m k n p d p p p p p k k k k k k x x x x x k j x l M E E E E E x k k m N M m p p M x x k m k M M k k M E E E E E E E E E E ! M ! E x ! M M m N N B B C N N m m m m B N B N f m f p N N m C C C C M C C N N Z S N m C x k C N -.P.K.8.;.-.6.5.5.7.O.-.#.*.#.#.*.-.y 0 5 ",
"K.J.S.*.5.5.*.+.*.5.*.*.) *.o.o.*.( 5 5 0 y j ! ! E E ! ! ! ~ ! C k k x x E E x M M M x C m C N N m C k k k k m N N N N N N N N N N N N N f f p m m M ! ! ! ! ! x M k m m C C C k k k m m k k k p p N p f N f N f f N B N f f f N d p p p c c N N d p k p k k k k k p u p p m p k m m p k x E E x k M M x x ! E E E ! ! C k c c N M M k m M x x k j k k m m M j x E E ^ ! x x x E E ! M M M M M M m m C N S B V B N N N m S N S B N m m N f f N B N m C C C x M Z N N N N m C k k N N -.!.P.i.8.;.6.7.6.5.*.*.#.#.#.*.*.*.i 0 0 ",
"g.J.H.*.*.5.*.5.*.O.O.*.#.*.*.#.%.( 0 5 0 0 l ! ! E ! ! ! ! ! ! x M k k x E ! x x M M M M m N N N C M m k N N c N B N B N N N N N B f f f p f N m N M k M M M ! x k m N N p N m k k k k k k m k c p N p f f f f N f f N f g f d f p p N N k k d N N k k k k k k k k k p p k p p p m p k k x M ! M x x x x E E x M ! ! E ! C N Z N Z M k k j x x m j i m m j k m x M M C ( M M x x M M M M M k k C C C m m N B N U N C Z N S V N C N m m C N N N N N N C m C C M N N N Z N k k m C m m -.!.E.e.<.;.-.*.6.5.6.O.#.#.*.*.*.*.y 0 7 ",
"D.K.S.*.*.*.O.O.O.*.*.O.*.*.*.*.*.S 7 1 0 e h E ! E ! ! M ! ! ! E x M x x x x M M x M k x M N m c N N N m N c N N B N N N N B N V N c k f f p p p k m k k M M M k m N p N N p m k k k k k k k k N m N m N t B f N N f f f f d d f f p c k k k m k p k k k k k k k k p p m p p m k p p m k k x M ! M x x x E E k x E x x x k N N N N k p m M M M k p i p p k p p m m N C N Z N N M M M m M m k m N N m m B B B B f B f N N N N N C N m m C m N N m B N C C m C N m N C N N m N m k Z ( -.E.G.i.e.;.-.-.7.6.7.*.*.#.*.*.*.*.i 0 ; ",
"Y.J.d.O.o.*.O.*.*.6.5.5.*.*.*.#.%.) 7 7 e e j M ! ! ! M C M ! E x M C M M x M M M M x M M m m N N m N N m m N m N N N B m N B N N N N B d d c c p m m m p m N m m p N f p f m p N p N k k k x k m k m N N f m N N c N d f f d d d t p m k k m M N k c k k c k k k k p p k p p k k f p m k k k M M M M M x x E M M E x k k m p m N N c d p k x x k k p i k p m m N C A K S V N N C m m M M j M j M m m N C B N B B g m m B C f N Z m m M m C m N k N N C C C f N p C M N N C N n C c N 6.E.P.i.;.<.;.;.7.-.-.*.*.*.*.*.*.#.u 5 5 ",
"Y.D.s.*.*.) o.O.5.w.8.7.-.7.5.-.;.Z 7 1 ; 0 j ! x ! ^ M M M ! E E E M k M E M M M M M k k m N c N N N N m m m m N N f k N N N N N N N f f f d c m m m m m p N p m m f f f m f m c k p k x x x x x k p m m m p m N m k p d p f d p f p m m k k k p N f k k c N p k k i p t p f N N p p p k k k C M M C k k x x k x E x k p p p k c c c d i k ! x k k k p p m p m c N #.%.%.S m C B m m M M ! M x x k m C m B V B N f B N m m m m N N m m M M C m c c m N N m m k m M M N N N M k m k k -.E.W.i.;.<.&.&.;.-.-.*.-.*.*.#.*.*.y 5 5 ",
"G.J.f.O.O.#.#.' O.w.8.w.*.5.6.*.;.Z e 0 0 q j x E E ! M M M M x ! x k k M x M x M M M x k k m m N N C m m N N m N N N m m m N C N N B B f N d d f f p m p N p N m N N p f m m f d p k k k x x x k k k m m m k m N k k k k p f d p p p p p k k m m N p m k k f N N p p p p p p N N p p k k k k N m m M k k x k N x E x k p p f m p c p p p k x E x k c p k N c N k c N S ) A ( ( ` A M x x E M E x k m N C N B g B g N N B m m m m C C N m M C M k c m N k k k N m M M M M m N k C k N -.E.E.a.i.3.;.2.-.;.-.%.-.#.*.=.*.%.y 5 4 ",
"J.G.D.#.#.' *.*.6.w.8.7.-.7.-.*.%.#.e 0 0 q l x ! ! ! M C ! ! x x x k k m M x x M M x x M x k m k N C N m C M m M N N N N N N N N N N N N N N c p p p k m p p N N m m f f f f m f N N k k m M k x x x k p p k k k c k k k f f p N N p m p k k k p N N m p d f N N N p p p p d k p f c c c k k m m m m m k j x z x x x k k f t p k d p p p k x ! x k p m k k c c m N m p ( ` ( ^ M M x x x ! x x x x m m m N M C N f N N M m M A M m M M ^ M M M k k k k N C k k m M C ^ M M x k k x m *.Y.W.p.2.i.2.;.&.-.-.%.#.#.&.#.#.#.y ; q ",
"K.J.S.*.o.' *.*.8.q.7.q.+.y.u.7.%.{ 0 0 y q x E E E ! E M M E ! M M M p p m M k k M ! x x x n N N N N N N m m m C x m m m N N N N N B N B B c c m m m j m p i m N m m N f f f m c N N k m m M x E x k m m m N k N N N N p N f N m N m k m k k m m f p p p f B N B f p p c d p d f d p N N p k k N k m k x k x j x E x p p f t p d p f i k m M M M k k k p k N d f c c M m M ! M M M M j p k M M M C N Z Z A C C C N m C C C A A M C m M ! M x k k d k k N m k C k M M ! M x k x x x x 6.Y.!.i.i.<.;.-.=.;.;.&.&.&.%.$.#.*.y 0 0 ",
"K.K.A.O.O.+.5.7.8.-.7.*.5.7.-.7.7.o.0 0 q q l E E ! ! E M E ! E x M m k j M x k k k x x M x N N p m C C N m N m M M C k M M M C M C C N N N c c j x m m k m m m N N m m m m m f k N N N N M C x E ! m m m m m f N N N N m N p N f N N m m m M k m p p p N N p f f N p m p p f p f t t p p N k k x k x M x j j x l x x k p u p t p p p p p m M M x k k p p f N f f k N N N m N A M M M m m m k M M N N N f C A N C C M C M C C A C N N N N M x x k k N m m p k k x x M M ^ k C C E ^ M 5.T.!.s.;.;.-.=.-.&.&.&.&.%.$.U #.#.y 0 0 ",
"K.K.F.+.+.5.*.#.&.#.-.O.5.q.7.-.q.( 0 0 q w E E E E E ! ! E E ! x M M M k k k M k C x x M M k c c N c N N N m p m k m C C M M ! M M M M m C C k x x x x m k m m m C M A N N f f N m N C C M C E x x m m m m N p N Z N N f N N C m m N M N N m k m p p p f N N N f p p f p t f p d d p p p p k k M k k k k k i x k x x k k t p m k p c d p N N M M k p p p p t d f f N N N B B m M x k k m p m f N N N B B N Z C N C M C M ^ M ( C m f N m k k M k k N C N k k k k M M M M m m ^ ! ! x 5.T.!.s.;.i.8.-.&.$.&.&.&.>.%.U #.#.y ; 0 ",
"K.J.A.+.O.5.8.&.2.2.-.q.+.+.+.7.6.( 0 q w w l E E ! E ! M x E E ! x M M j k k M m m x x M M k k m C x M C k N N N m m N N N N M M C M M M k x x l E x l x m j k m N M C S N m m N m m N C ! ! x M M C N m p m N x C N N m m N C m C N m N C N p p p m p B N N p p f p N k d k t d f p f p p k M k k m k k k p j k k j k k k k p p N N p d N C m m m p p p p d d f g V Z A V B m M M M x m p p N B N f N B V S N C ^ ^ M ^ C M M C N m c C m k M N c N k m p N k k M M M m M M ! ! E M 5.K.G.8.#.;.-.*.;.;.;.$.&.&.&.%.#.%.r 7 0 ",
"L.L.J.+.+.7.8.4.4.4.;.-.q.+.+.7.*.) q e q j E E E E ! ! ! ! ! E x M k M k k N m k k k M x x C x C k C M n C N N k N k m N N C C M M ! M x j x x E x E E x m k k M m M C C Z C N m c m M ^ ^ ! M M M ^ C C N m m C C N m p N N M m m N N N N k N p p m f B N f f f p f f N d f t t f t p p m k k m m p f m p f j k j k k k k k k p m p p N S C N B N N t p p m m V V G G V V S g B m A m m m f f g d f B B Z V c N ^ ^ ^ M m M m m m m m f m k N M N N c c k k k k c N N C C C ! ^ ! M 5.K.!.8.*.*.7.;.%.2.%.;.y.i.2.$.$.;.u 0 0 ",
"K.T.J.+.+.-.-.p.g.2.-.-.O.+.+.O.*.( q q q w x E E E ! ! ! ! ! E ! M k k N N c N m m k x ! M x C x x x M N c N N d N N p m m c M M M M M m x x x E x x l m i k k k m m m k N m M M N m m M ^ ^ M M M x M C N C m k C C N k m M M C C N C N N m k k k p N f p f t p f f f f p f f g f f t p p k k m m m p p f f p c k k k k k k k i k t p f C Z N p t p p p i m m V G G G V V V S V B A m f N S V B f B f d B V N N m A C M M M m m N C f p p m m C N m m k k k m c N N N C C C ^ ! M x 6.G.!.8.#.#.;.;.#.&.;.#.%.2.&.#.$.#.u 0 0 ",
"T.J.J.+.+.7.-.8.y.%.%.O.O.+.O.O.O.S 0 0 q w x E ! ! ! ! M ! ! ! M x k m f f f f m M x x ! C M E ! ! M N N N N d f f f N N C m M M M x k m m x m x x x M m m N g N N m N N N N m m N N m M M M C C M k m C N N N m C N k m N N C C m C B N N c k m k m p N f p f t f p f f t f f f f f t p m p m k m N N f f f f k k k k k k k k p m p m f N Z A N p p k m p k f V V G G V V G G V G V N m f B V G f f N d d N Z N f N M C ! M m m p N f f f m m m m m N C k k k m N N N N N N A ^ M m 6.T.T.w.*.&.$.$.$.$.;.#.#.T U U $.#.u 7 7 ",
"K.T.K.q.q.q.7.-.7.*.*.5.O.o.o.o.o.Z 7 q q w w E ~ ! ! ! M ! ! ! ! m m f f f N N N M x x x ^ x E ! ! x C N N B g f g f N N C N m M M ! k j m m j m j m m p p B g B f N N N C N m m N m m C M M M k x x N N c n N m N N N Z N N N N N f N N p N c p k k m B B f p p f p p p f f f p p f a f p k p k k f f p p p p p c m p k k k k M m p p N B Z N N p p i m m k p f g f G G G G V V V V S m m p f B N d d d d N B p N N m x M M C m m f N f m p f N p k N m N m m N m N C N p N N C m m 8.!.T.s.&.#.U U U $.#.#.{ U U U $.%.u 7 7 ",
"R.T.T.+.+.q.q.7.7.*.q.5.5.o.#.O.-.o.0 q q q x E ! ! ! M M M ! M M m m m N d c N m M ! ! E ^ ! E ! ! M k m N B g g f f d N N M x M M M M k j k k j k i p m f f g g f f N m C N m m m C x M C m m k N N f B f N N m N C B B N N N N N N p p c f p m N k k m f p p f p p f m t f d d f d d p d p p k p p N p p p p j l x j k M k k m M p p f N N N N k k k k j p f f f f G G V V P G g f M ^ k p p d d d N f f f d N k k x x ! x C N N N f f d d f d d c N m p k N m k N C Z N f f N c N -.!.K.w.8.*.-.&.*.#.#.$.T $.R >.&.&.t 7 7 ",
"K.T.T.+.q.q.q.-.*.-.7.q.5.o.O.*.O.A i 0 q 0 h E ! E M m M M M M M m N k c c c N N m C ! x E E ! ! ! M x x N N f f f f N N N M x ! x k M m m m k i i i m m f d f f B f N m N N N m M M C C N C m N N N f d B f f N f N B f N p f f k p N k c m p p p k m k k p p p p k k p f p f B f f d f f p d N m p m M j m M x x x E l x j k M m p k m S N N N m C x k m j m m p a g P V P g G V f m x m N N d c N f f B B d N k x x x x x k k N k p d d d d f c c p p k k k M N M N C N g f C N N -.!.[.s.w.8.-.-.&.&.&.$.&.1.2.1.;.;.p 7 7 ",
"R.T.T.q.+.w.+.-.-.*.-.+.O.*.o.O.-.O.0 0 0 0 j E ! x m p p m M M k m N k N f m N m C ! ! E ! x ^ ! ^ ! x M m N k f f N N m N m x x x x x x x m m m i m p m N f g f f B C A A m N N C ^ M m C f N c N N B g g d g f f N f f f f f d f p p N N k c p p p p p k p k k m p d N t d f f f d d f t p k m m m x x x l x ! x w E x x M M k x k k k m p p i k ! M m M m m m m f f P g g P P B f m N N N N N f f d d f N d N k M M M x E x M k k k d d d N d c N p c k k M x N N Z Z c d g N N k -.!.[.w.8.8.-.-.;.%.%.#.$.>.Y #.&.-.p 7 1 ",
"^.^.T.q.w.+.q.7.*.7.O.O.O.*.o.o.-.-.1 0 ; 0 x x x k m p p m p M M C k k N c k k M M M ! x x C E ! ! ! M C M x x N N N C N m k x E E x E x E E x m m m k m m f V f f N C M M N N N C M C M m m N N m N N c N f d m N N N N d f f f N N N k c d p p f p m p f c N N k k k k p d p d f f d d f d t k k k x x ! E E E E E E E x M j x x M M x k k p p k x x m p p j M j t f g P g g V f B N C N N f d N N N N f d f t m k x x x E x ! k N N c N d f d d k N d k k m M N c N N f f f N N k -.!.K.t.q.q.-.*.$.#.$.$.#.S $.&.#.%.e 1 7 ",
"+XT.T.u.u.+.q.q.7.q.5.*.O.*.*.o.#.A ; ; q 0 j l k k k N k k k N C M x k M N k ! ! M E ! M k k k ! ! M m m j x x k m A m m M j k x j x x x E E ! x x M x C N f V f C C ^ ^ C N N N M C ! M m N m N N N f f f f N m k k m N c f f f B B B N f d k k d f k k d k N m k m p p p p p p p p p p p p p m k m k x x E E E E E E l E E E x x x k x k p p p m m m k p k x l M f f B I I T P B f N N N N d c c N N N f p N p m k x M ^ x E x k N c c c d d d d p N f p k m k m m N N f f f N N m -.J.K.w.8.5.-.*.*.*.*.#.&.#.#.#.#.-.y 5 5 ",
"_.Y.T.+.q.q.q.q.7.5.q.q.7.*.*.{ O.A 0 7 0 0 j k C k k x k c f f N m k M C C x M ! E E M M N N p m M M m m x E x j M M m m x k k i j x M E M E x E x x M C N f B N N x C ( S B N N N ! ^ ^ m C f N N f f f f p p k x x N N f N B B V f f f N N d d c p k d m p k k p p p p m m p m m p f f p m m k p p p x E E E E E E l E E E E E x k k k k m p p m p p k k k k k m c f g B B V V B V B N Z N d c N c d N p k t p p p N k x M x k k c N c p k d d p p f f p p N N C m m f B f t d k k 5.K.U.w.q.5.6.5.5.6.6.%.-.*.#.#.#.=.y 7 5 ",
"/.^.Y.+.+.w.w.+.7.9.7.8.8.5.*.*.o.S 7 7 7 0 i x x k c c d N f N c k N M x M x ! ! ! ! M N d N k m m m M m M ! E M j m j i p k i i i l x E E x l x x x ! C C N B N c x C Z Z V V B m M ! ! M C C N N N p k m m N m x x c c N f B f N B d d c N f d k p p p p c d p m f m c N d k m p p p f m m M m p f p k E E E l E E E E E E E x ! k k p m f p m f m p m k x k k i p p f f f B N V S B N N N d N f N f N f N m m k p f B N M x x M k m c x c c N f c c m p p N p N m N f N f f p N k *.T.T.w.8.5.6.5.9.5.-.-.%.*.*.*.8.-.i 5 5 ",
"}.T.T.+.u.+.+.q.q.q.7.8.-.*.#.) o.Z 7 0 0 e j x ^ m k k p f g f d N k x C x n M ^ ^ C N N u k n m N M M N m ! x m M j k p i i p i i i l E E x x M x ! ! ^ C N f N C N N b g f B V A C ! ^ ^ k N m m M M x k m N N c N N N c N f B B N f f f N f p d p p d f c d c p p k m p m p k N N d S m m m C m p p k x l E E E l W l E l E M x k k p p f p p p p m k x k m M i p p f m N N m p p N N N N f f f N p p p f N k x k k N B N x E E k M N k k k p f p c p m k c N f f N C N B f p k m 5.K.K.Z.q.5.5.5.5.6.-.;.*.;.*.-.8.6.u ; 7 ",
"^.T.T.+.q.q.q.q.q.q.7.-.-.&.=.=.%.Z 0 1 7 e k x C C k N k N N f c N k C k M x M M ! ^ M N k E x f p C N N m m j M k j k p p f m p p k j x E x x x x x x ! ! C f N c m A f B g f f N N ^ ^ C M m N M M M ! ^ m k N N N N N N k N N N f f N f f p f p p d f f d f d f d d k k k k m N m k N N N p N C k k M x E E E E E E W l W E x x k p d d d d f f N k k x k m k i p p p p m m m C f B V N N p f p f p p m N N x x k m p p N M E x x M m p k k f f t f f k c c N f f N N N N N p m m 7.K.K.w.q.q.q.+.-.-.-.;.-.-.-.-.u.s.u 0 0 ",
"T.T.T.+.q.@.+.q.5.q.w.8.;.<.;.-.#.A 7 7 7 e i k C k N M M k N N N k M x k M E C M ! ! ! M ! ! ! m f k B N p m m m k j i p i N V U A m j x E x x x x x j M ! m B f C x c B N V f N N N C ! M C C C N M M C C C N m N N m m C k N f N f N f f f N k c c N N f f d f N f c N k k N m N m N N d N N m m ^ x E x x E E E E E E E l E E k k N g d f f f t c k x m k k k k k f f p f d N N P V B f p p p p N p p f p p k k k p m k k x x M M k m m k m k m d d d d d N k N f N f f f f p m M -.T.R.w.9.5.9.7.-.-.*.*.8.7.#.;.i.g.u 7 0 ",
"T.T.T.+.q.q.q.q.q.q.8.w.;.;.&.;.%.S 1 0 0 e u m N N c M ^ x x N M k k M x x M C ( ! ! ! ^ M ! M m m N N N f m m p i k p p i A A o.A i m x x x k M x k k M ! m f N x ^ n m f V f N m m M ^ ^ M M m M M C m m N N f f N N N N k N N m N N f d f N k k c c f f d d B d f g f k k k M x k k N d d N c k x M x x j ! E E E E E E E E E x k N t f f d g g t k x M m k k k p m f p t f f f I G B f p m m k p p m k k m p m k m k k k k M N c N N k m p c N p f f d t p p f f p d p p p f m m 7.T.R.w.9.9.+.q.7.;.;.%.*.-.#.;.8.-.i 7 7 ",
"}.}.T.+.+.q.q.5.q.9.8.-.;.&.;.;.%.S 1 1 7 e p m C C N C E ! M C C x k x x M ! C M ! ! ! M ^ ! M M C N m N j m p k k i k m j p i j i i m m x j x x x x x ! M C B N E E ^ M N p k x C k ^ M M C C C N N N N m m N f f f f N N N c m k x N N d f N k N N N N f f g g B f f c k k k k x k N d N N k C M ! x ^ x C M E l x l x ! W l x x M x p f f d d t f p k k m k k k p f f f p p f B I T B p p m k k m k m p k p p i k m k p k k m N N k p p p m c k N m d g f f d f f d d f f f B B m -.R.J.B.5.5.q.5.7.;.;.%.-.*.;.%.7.-.e 1 7 ",
"T.T.T.+.+.q.+.w.q.9.5.5.8.-.;.;.%.A 7 ; 1 e t m N C c x E x C M M m k M M M x ^ M ! ! ! ^ x M ! C N f N c c m m k k j j j m m i i i p m m m x m x x x m E x m m N ^ ! ^ ! C Z C m C M ( M M m N N B f N f N N c p f f f N N N N N C M N N N f N N N f B N f f g s d d d d k k p k k k c N m N N m N B m M M M x x x x k x E E x M ! E x k k N f p c f t k k m k p p t f p p p p t f B B N f N N N k k k k k k k k j k j k k k k m k f p d p f t p N c c f d d d d f N f p N d f V B f -.K.T.B.5.6.5.5.-.;.;.;.%.;.&.=.*.*.y 7 e ",
"T.}.T.+.+.+.+.+.q.5.7.q.7.*.-.8.8.) 0 1 1 e p N k M C x x ! M k m m k C ! x x x x ! ! ^ M C M x C N N N N N m m M M M k m j j j k m i m m m x E x x x x x x m m N C M A C C A C C C C C M m m N N f g f f f c d c c f N N N C N m M M C B B g g N c c V V f g g f f N d k p k k N k k C d N k N f f f C M M ! x x x m j x E x x x ! E x k m t m M c f d p c k k p c p p p i p p d p f d f N p m m k k k N k i k k k x k j k k k c c p d d d p p f N c c N p N f c c d c f p t f f V N -.T.!.u.q.5.8.w.;.<.&.;.&.&.*.#.=.*.y 5 7 ",
"T.T.T.+.+.+.w.+.5.0.q.q.7.7.8.6.5.' 7 , 2 e u p M M x C ! M M m m k k C x ^ ! M M ^ ^ ! C m m M m N f f f B N m M M M j m k j k j x m k m m x E x x M M A M m B C N Z B Z c N N Z C N C M C m m N f f f f d c c m N N f N N N M x M C N N B d N N f B G V f B B f N N p k m m k M k k k p N N t p f m M M M M x x j m k E E x x E E l E k p p m m p d d d c k f k k k p p p p p p k N c N p f N N k c N N p p m k k k x M M p k k N k f d d p t f p N d f k N m N c N d p f f p d G B =.G.K.w.5.6.q.i.-.;.>.;.#.;.&.$.#.#.u e 7 ",
"^.T.J.+.w.q.O.y.-.*.0.q.5.7.8.q.7.' q 0 0 e p c n C C ! ^ M C m k N m N x ^ x ! ! ! M M ^ x M C M N B d f N x M M M M x M k j x k m j m m m j E x M M m A m m B Z Z N C B Z Z C B N C C m C C N N N p f N c N N m m N N N N n C M C C Z N V B g N d N N g f f f N N m N f N N k M x k k N N N f f N M M M k k k j m k m k j x E x x ! E x k f p p p d d N p m N m k m k M k p i p p d d N p p N k k d N N c c p p p k k k m p p N f d t p p p p d c d d N f d N d d N d p p f f d B B #.E.G.w.5.5.9.7.*.<.;.;.;.-.;.#.$.*.y 5 e ",
"!.T.F.q.w.7.-.1.&.-.=.q.7.7.q.8.q.O.q q ; e p t m C x M C M M M k k C c N k x E ! ^ ` ! M x x M x k N N f m x E x M M M ! j j M m m x x j j m j j k M C S S m C N Z N B B B B N B N N N N C m M C C N N N k N M m m N N N M M M x C A N Z B G c f d d f f d f B B N C k k d p M x M k c N N d N f B C m m m m m C N p m i m M x x x x E k N t m f p f p k k N N N m k k N k p p p d d d d f f d p p d N p m p c d c p N m k k N N p f m p f t d N N N t d d f f d d d p d p N p d g f $.g.G.8.*.5.9.q.*.e.;.;.&.-.;.$.*.*.i q ; ",
"^.[.F.q.w.7.;.<.&.$.-.-.8.7.7.-.-.S 0 q q y k m ^ M x C M M k k m N N c N x x E ! ! ! E ^ M E ! C ^ ! C N M x x M x x E ! x k M m m M x m m m i k j M ( K Z N A C Z Z Z B B B N N B B S V Z C C C ^ C C c n C m m m m C N N C M x M C m n N G d f d N B f d N d f c m N N N C x m m k N f g g g B f f m m N m m m p m p i m m m x M x x x N N f f f c N c N N N N p k k k k p d f d d d d d N c c N f d p u t f p f p N f N k f N N f f p p N k N p N N d d d f d d p d p f f t d d g $.x.G.w.5.5.q.5.7.i.<.-.*.;.-.*.*.*.i e e ",
"W.!.Y.q.q.7.-.y.-.=.-.*.-.7.7.7.*.A 0 q 0 q i M ! ! x x M C k m N N N N N M M ! ! M ^ C ^ ^ M ( ( ( ^ ^ M M x x x x x ! ! ! M k m x M x x m j i i M ^ ^ N N A A C Z Z N N f B B N N N B N C ^ ( ^ C C N M m k N m m m C C C N x x k C C C N B d f f f f f N f f N N c N c M C M m N N N f g V V f B B m m N N f N p m p m p k k k x k x k k N f f p p N N C C N N p k k k k p m p d d f f f d c k f f m p p p p p d p d p N p f f p f p p m p d f N f d f f d d p p c k k p f f g g f &.n.a.i.*.O.7.7.-.<.-.6.*.-.-.*.7.-.i 0 7 ",
"Y.E.F.-.7.7.+.q.6.5.5.-.-.-.7.-.7.) 0 ; 7 q k M ! ! x M x M m k m N N N N N N C C ^ ^ C C C M ( ( x M ^ M M ^ ^ x x x ! E x j x x x M j x m i m m ^ ^ ! M m A V Z Z N N B B g N N Z N C N ^ M C C C M N m N N m C m m N N m N x x x N N C N d g g f g B f g B f f N C C M M ! M m c N N B V D B g B f N N N N N m p i p p p m i k k M x x k p f p k k m c N N N m k k k k k k k N f f d f d d c f N p p f N k k p k m p p f N f f p f f f p p d f d k N f N f d p k k k p p f f g f f >.m.n.;.#.*.6.7.-.e.8.6.5.=.-.*.-.*.u 7 7 ",
"Y.E.D.%.%.6.q.8.7.6.5.-.-.*.-.6.6.) q 0 7 0 j x ! x M ^ N k C N m C f B C N N C C C C m m C m C ^ C x ! ! ^ C M x x M ! ! j x x x x x m m x j m N -.O.A A M A A S V Z Z B B B d c N B N C M C C C ^ C M m N m k N m N C N M N M x m m C N N g g G g g g g g d f N c n x ! ^ M m N C m f g f g g g N B N f N f p p m m m k m p m k M C M M k p c p k C x N N N N N N C m k p p m p p d f f d p N f p k p N m N p k k k N p p N B N d f f d d p d f f N N f f d p p j p m m p d f B f f U W.(.;.=.*.7.7.-.;.y.-.*.-.-.-.-.;.i 7 , ",
"E.g.g.-.-.-.7.7.7.*.-.%.-.-.-.-.8.) q 0 e 0 i k M x N C m N N C N B B f N m m m m M m p m N m C C C M M x M M x x ^ ! ! M k x l x x x j m C A m o.y.i.O.M M A V G J V B f B V d c N N c x n m C ^ ^ ^ M M N N C N N N C C N m m x M N M N N B g g g g g f f f f d c x ! E M x N N B m g f g g B g f g g f p f f p m m m j m M m x ! x E x x k N k k C N N N N N N N N N k p f p m d d f p p N N f N p p p m p m p c c p N p d f d d f f f d p k d p p k d f c c k p k k p k p f f f f $.m.Q.<.=.-.5.5.-.;.;.%.-.;.;.-.-.=.r , , ",
"P.G.G.*.-.8.8.-.-.7.-.7.5.-.*.-.;.A 5 0 q e i k x k m N N c N V T T U B N B M M M x k k N c k m C C N M x k x x M M x M M M x j ! M x x m m m p U y.y.;.M m m N G G f G B N G N C c c n n ^ C C C ^ ^ C M m N N M k N m C m m x x M m N N f B g V g g f g g g g f c x x M x M M m N m N g g g g V f N g p f d N f m p m m m m k M x E ! M k c N M k k m c c c k N m m k k p N p t c p t d N N k m f p p p k p m d c N p p k N f p d d f f p p p d N d N d p d d m k j m k k m p f p N $.g.x.8.-.6.5.5.7.;.2.;.#.*.-.-.&.#.t 1 , ",
"G.g.g.-.5.7.*.5.5.*.7.9.5.5.*.6.;.A e e 7 e j ! k k m k N N N G Y Y Y B N m m j k k k m k c k k k N m k k k M M C x x C M x M M ! M ! ! m N N j N T T S k m m m B V V V B c C N c c k C N C C C C C M C C C c C N N N m N N m x x M N N k N G g g g g g g f g d d N M x M M C M m M m f g N g V B g N m f f f f N m N p m m m j x x E x x k N N k k x x k C N N C m k M k m t d t m k p k k N N f m N p m m p k k k k m p d p t f p f f f f p m k f f N f p p m k k k k k k k c m p p &.D.G.8.*.5.5.q.5.8.;.;.*.*.%.&.8.$.r 1 ; ",
"x.G.f.7.5.*.*.5.5.5.5.5.5.q.*.6.-.) e e e e k x x x m m m m N N G G B f p N k k k z k k p k k c p m k k m N m m k k k M C k N m A M ! ! ! m B m m m p p x M m M C N N B S N Z C M k N C C C A C C C C m N N N N g N f N N N N Z C m N c c d f g g g d d d d d g d N N x M M C ^ M C C N f B V B V f f f p f N N m N f f p m p k x M ! E x k M x E x x x k m N N M ! ! ! k k p p N c k k N Z N N N m N k N k p m m k p p p c p f N d p p N p m p c N N d N p k m p k k k k k k k N m p #.G.K.8.-.5.5.5.5.8.8.*.*.*.*.=.-.;.t ; ; ",
"Y.g.d.*.*.*.5.5.5.q.9.9.5.6.5.6.-.S 1 1 0 5 j k x x M m m N N N B f f f p p k k k p p p p k k p m N N k p p k p m M k N C N Z N M x ! E A C V A V N C M x m m m N Z B N N C C C C x k M C C C N N N m C N N N N N N f f N N N N C k x c c d f d p d f N f f p d d N N M C M M ! C ^ m N m B V B V P f N N f p f N m f m p p p k k M ! E E x x x E x M M m p N c M M ! k C d p d f m k k N N N d N N N c p p p p p p m p p c N f p d p f f f k N c N m m N N k p m k k x k k k c N N m *.K.K.w.-.5.5.5.7.-.;.#.*.#.#.*.&.;.r 1 e ",
"E.G.d.*.*.*.*.*.7.q.q.5.5.-.%.-.;.A ; e , e i k k M m m m k m p p f p f f p k k p p p t p p d p p p f m p p p m k m p k N N f N m x M M M m N B N B A N N N N A N V B N N S C ^ n ^ E C M M m N B B N B N N N N B c f N f N B Z A x k p d p p m p N c N N N c N N N N m M C M m m m m C B f G G G V B N m p p N N p N t p m p m k M ! E E ! E ! M M x k m N N C M M x k k k N p N N k k k N N N N p N m p m p N f p p p d k k p t k p d N d p N N N c N m N N k k m k k m k p p d N N *.K.G.0.q.5.5.-.-.-.-.&.&.;.-.-.-.6.r , 1 ",
"E.P.p.#.O.o.*.7.5.7.7.-.*.%.*.#.%.Z e 5 e e i k k x m m m p k p p m p k m k k k p i p t p p p k m t p p p p p k k k k d N f N N m x M ! ! m N A g m N N B N N N B B f N f C A ^ ! ^ ! ! ! M m N N N N f N N N N Z N N f f B N N Z C k k N N p c c c N m N k c N N N N N M M M C m m N C N B G G K B N m p m m N f N f p p k k p k k x x E E E M ! ! M M N N N C ^ M x k M k m N k N k k k d N N p N p p p p t p p d p f p k k N d d d p k k f N c N N c p m m p p p k m p k f p N k k #.Y.G.w.q.*.-.-.-.;.;.*.;.&.-.-.6.5.i 1 ; ",
"P.g.g.#.o.*.*.5.5.6.6.-.*.#.#.&.%.S e e e e i k k m m m k k m p p k p k i m m j p p p t p p k p p p p p p k p k k k m N p f f m M x M M M N B f f N N f N N N B f f B B C B C ^ ^ ^ E E E C C C N N N f N N N N d c f B d d c N Z N m m m c c N N N N n c k k N N N N C C x C C C x C c N N B V G B p N N k k c f p p p p m p f p c N m x E E E M M M m m N A C ( M j M M k k k k k k k c N c N N N m p p p p t f t p f k k x k k c d p d N N N f f f m m m p m N p p m f t m p k k k *.G.Y.y.-.*.-.-.-.-.;.%.&.;.&.&.-.5.i 1 e ",
"W.W.g.#.#.*.' *.6.*.-.*.*.*.#.=.%.S ; ; 7 e u k k k k k k m k m p m m k m p m p j k p p N p p p k m k i k i p k k p p p c m N M M E x M x N N B g f f f f f B f f m N f f C m C ! ! ! ! ! M m N C m N N N B N f c B d B Z N N N C N N M M k c k N C N N c d N N N N N N n C m m C C N C N N N c f f N B C C k N N m N p t m p p k N m k m C x x M x ! M m m m j M x x x x x x k k k k k N N N k N N k p m p p p p p t k k c k N t d N p p N k f f f f N f m m m N m N m m m c m k k k -.P.J.8.$.&.-.6.6.8.;.%.%.&.-.&.*.-.u 7 1 ",
"g.x.p.o.#.o.*.=.*.*.&.*.#.$.#.#.#.S ; ; 7 e u p m k k k i m m p p m m m p m k j k j m p N f i k k p p j k k k k k i p m N m m m M M M M M N N f f f f N f B B f f m C N B #.C C M E ! E ! C C N N C N N c N N N f f f Z Z N C ^ C c N N m m N p N N N N N N k k C B N N C C C m C x N Z N N N N f p N N C N x C m N k N t p k p p p c k N M x C m M M M m M M x ! x E x x M k k k k k N N f N N N N N d k p p p t p p k k k k k p p p p p k k N f B B f N m m M k k M k m m k k x k k 6.[.G.8.#.=.=.-.-.-.;.;.;.6.6.-.*.;.u 1 7 ",
"n.x.p.#.#.{ #.#.*.o.#.#.#.#.{ #.$.S ; 1 7 e u p p k k m p k p m p p p i k k k j k k m p f N p m p m k k k p p k k k N N m m m m M M M M M M N N f m N f f f N N p m m M C C C C c E ! ! ! M c N N N N N N B N N f N f f N c C C N N C k m N k N N N C N N c N m N N B c N N m m C m N Z C n m N f N m N N M M C C m p p f p k f f p d f k m k x M M k m m M ! M x x x x M m M M k p c f c N d N m N N p t p p p p N t p k k k C m k f p c k k k m V Z N N m m m m m M k k k m m M M m -.K.K.u.-.#.*.<.&.;.;.;.<.-.6.*.*.;.r e 7 ",
"g.x.p.$.K #.$.#.#.#.&.*.&.{ $.#.%.S ; ; 1 1 e t p p m N p m p p m p m p p m p k k k c f f d c N k m k k m p p f m p f N N m m m m M M M x C M m N N N N m C C C M ! ! ! ! M N N C C ! ! E ^ C C N N f N N g f N d m d f d d N N f B N n k k f m n c c N c k N N N f f N m N m N N N m N M C N N N N m k C E ! x M m k p t p m m N c c k k x x M C M m c M x M ! E E x x M M M N m k k N N N N N p f N p p p k p p p f p m k k k m k c N N k k k p N C N m N m m N m k m x k x m M k N $.!.K.B.-.#.$.$.&.;.%.;.8.;.8.-.;.&.t 7 7 ",
"x.l.a.$.#.$.#.U #.#.*.$.-.=.#.#.o.V ; ; 7 0 u p p m N p p m p p p p p p p m p k k k p N f d p k p k k k k m f m p f f p N m C C m M M M x M N N N k N m m m M C M ! ! ! ! m C N N M M M M x ! x x N B f N f N N M k m N N d f N f N N C k m N N c N N m N N N N f f f f N k N m N N m C C M m N m m m k x x x x x k c N C f m p p p N N k k c k m k k c M k M M E E E E x x C C m m c N f p p p p p f p p t t p p p t p k m k m k d c c m M x k N B B V B N N N N m C M N N M x C k N ;.W.P.s.;.;.$.$.&.&.;.;.;.<.&.;.&.;.u 7 7 ",
"x.n.x.;.#.$.#.$.$.&.$.;.;.&.U U U S ; ; 1 7 r p p p p p m p p p p f p p k p k i k k k p p N c p m N m k k N p p N f f p N N m m M m M k k x M N k N N M C N N Z B M ! ! ! m B N N M M C C C N C M C m N N c C k M k k f f f f f f f c N k N N c M N N N N c N m N N f f N N m k k k m M M x x n M m m m k k x k k k N N N N f p f m N x x C k m m N N k m M M x x E E E x k k M C N p m m N N k N N k p p p t t t p f N c k N N N f f d k x ! C N g B D g g f f N m C N c k x x k c p Y x.g.<.2.3.&.&.&.&.&.;.;.i.<.;.;.%.r ; 1 ",
"m.M.m.#.| $.$.#.&.*.$.;.&.$.#.L o.Z 1 ; ; 1 p p p p N p p f p p f f p p p p p k k k k p k p p k k m m k k k N p N p p N N N m m m M m M x x M M N m N C M m m N g C C ! ^ N N N N N M N N C C C C M x ! M k N x m N N N f f N f d d N m c N N c c N N N N N m N B f f N N N m k k k k M m M C x M m m N k k N N N k k f m p N p k m M ^ x n m m m k N k m M M M M x x E x x m k k x k k m f f N m m m c m t p m m p p p N f d d f d d N x E E x N N G G B V V p m C A k C m x k k p f >.M.n.<.3.3.3.3.i.2.%.;.y.i.<.;.8.*.e 7 1 ",
"W.m.m.Y $.#.$.$.$.$.$.&.&.$.$.#.#.N , ; 7 0 u i p p p p N k d t d g p p p p p p p m m p p m p N N m m m k m m C N m m m N C B m m C M M k M M M x C m C C x N N Z N N C N N N B c N N N N N M C C M C ! M N N C N N c N N f f f f d B c d d d N N N N m N N N N N f f f N N N m N M k M M k M M k m m m N N N p t p p p p p N c k C ^ C M N N m m C M k C C M M x x E x x x k x x x x k k N f d m m m m p p M j k p k f p t f f f f f m x E ! M f f g V V V B x ! C x x m m m m p f p T (.m.3.>.$.$.&.p.2.,.<.<.;.8.8.6.=.y ; e ",
"n.m.b.&.$.Y #.#.$.{ $.$.&.Y U U #.B 1 ; 1 e p p p p N N p k p B p f t f p f f p f m m m m m m N N m m m k k N C N N m C N C N m k m x M x k M C ! C M x x M n N C N C Z N b N f N c n N x m M m C m k c N N N N N N C N N f f f f N d N d c f B N C N N N p c N N f f B N N N M M M N m M x x k k m m m N N N f p p m p p p C k N C ^ C N C N N N c m M M c C C N x C M k k x M x x x x k p k k N m m p p p m j k k N p f p m k N p f j x E ! M N p p f G Y f m M M M E m k m f t f g T m.N.1.$.$.&.2.a.k.x.a.<.=.&.8.-.#.r ; ; ",
"a.a.a.T &.>.1.3.>.Y U #.L U U U $.S ; , 7 0 r u p p p p p N p f f d p d p p p p p m m k m m f m N N m m N m N f N m m C C N C m M M x M M N C M ^ ! ^ ! C ^ C c S C N C Z c N N N C N k k M C N N N C c N N c N C N Z N N N f f N B d f N f d N N N m N k k c m N N f N N N C M M N N N C k N k p m M k k m C C m p m p k k k p m C C C N N B B B B N N C N C N N N N N N N c k m x k x k m p k k k m p m M x x x k m k m m C k m m M M E E ! M M N f p p f N N C m C E m k N p f g g >.N.M.2.$.$.3.W.$.a y d :.<.$.{ #.#.r 1 ; ",
"g.g.i.&.>.h.3.R <.3.<.L #.#.#.$.#.Z ; 1 ; 1 r p p m M M m p p p d d d m m p p p p p m p m f N B B B N S N N N N f f m C C N N C M x M M M m C C M M E x M M x x m C N N N N C N c k k M m C N N N c k c d N N N N N C N B f f N N f d d f f f f f C N C c N N N N N N N N N N m N C C N N m k C M k k k x M x N k M M M m p p N N N C N N N B V B N N N C N C N N N N N N N N f N N N m c k k k k k m k m M E E E x x k k k x x m C M x E ! x M m m m p f d f N m M ! ! C M M N t f D >.m.m.2.U <.x.G r c d 7 % <.<.V S ) r ; e ",
"x.g.p.<.z.G , , = = =.d.K U $.#.$.Z 7 1 7 7 t p k k ! ! M p p d d p p p m p p p p p p N m f f f g V g B N B N N N m N N C C N M C C N C m m C C M M ! M M M M M M m N m N N C N k k N k N N N N f N k k N f N k N N N N B p f N f N N f f B d d f N C N N f N m N N f f N N C k M N N C N p m C m k k k x x x M x x x M M k k c p m S N N f f B g f N Z m k N N B N N f f N N f N N c N c c k k k m m k x x E E E x x x x x k x M M M ! E E x M m N N m f f N N M x E E m x M k p f V 3.N.n.&.&.a.e.d >.l.p.H 8 : p.S p S r 1 ; ",
"x.p.p.a.J a P P V 9 > D.8.Z S *.;.S 1 ; 7 7 r t p k x E k k p d d d m p p p f p p p f f N f f B f B f B B N g N N m C N C N C N C m N m m M M x M M M M M M M k M k m m k k N k k k M N N N N N N N N k k N N N N N B f f N f f c N f f f N N d f C B N N N N m m N N N N N N N m C C A C m k m k k x x x x k x m x x x M k k N N f N N B f f f N f m N C C N N f f d f f f f N f d B N N c k k k x k x ! ! x x x x j x x m C M ! C M ! M ! ! M m N m N N p f k M x E x m M x N t f g &.a.g.&.-.P.{ P b.=X=Xk.F : e.#.r N t 1 1 ",
"p.i.3.l.a R b.m.p.K 9 v F.C C #.&.V 1 7 1 1 i p p c k x k d d d N d k c m p p t p f f N B f B B g f f B g f f B N m N N N C C C m m p m m M M M M M M n M M M C C C M M x N k k x k c N N N N N N Z N C N N m N m f f B N N f f f N f d N d d N N B N m f N N B N B N N N N N N N m C A C m m k k k k k x x x m m k k M x x M N N C B C N N p N f N N m M m N N p N N f f f N f N N N N c k k m m M M x x k k x x x M k m m m M C ! M ! ! A M A A N N N N c k m M M n C N N m N B f t $.g.g.;.2.x.J Y (.qX0X)...8 <.*.e f r ; ; ",
"a.g.3.l.a h.`.-X_.,.b p F.^ x ( U S 1 2 1 1 r p d p k N k d f N f p k k k p p p p p f B B f f f f f f f f f f N N m S N N m C N N p k m M M M C M M M x x k N N C C C M x k x k k k N d N d f c N B N N N N k k N p N f B f d f f d N f d N f f N N N B N g N N N N N N N N N N Z m m N C m k k x M x x M x k m k m k k k k M C C B f m N N N N f C C M N N N k N c N N N N N N N N N N f f p N k m N k k M M x k x k k m m p m C C ^ M ! M M C M N A C N c m m M C A B f N N S G G f $.g.g.8.2.k.&.G m.'.oXz.} s d.V 7 t 1 ; & ",
"d.g.i.n.a 3._.:X_.r.v v S.x j Z %.B 1 1 1 2 t t t c p N m f f f p c k k k k k k p p d N B B B d f g f f f f k k B N N N k N M N m m k x E ! M ! x E E x x x M C C m m M M x k m x k m N f N f N N N N B N c N k m N f B f f f f N f d d p N f p N N N B N B f N f N N N N N N N m N k N N N N m M M x x x k k k c k p p k m m C N N f N C C C C p N C N N N f N p k N k m C N C m m N f d p p f N C N n k m m k x x k k k k N N C C M ^ ^ M M M N B m m N m N m m N C m N k N B G G g $.x.Y.q.8.3.l.N #.s.t.| c L <.a ; p e ; ; ",
"a.d.&.a.V J g.P.D. .v w.| y y Z %.P 1 1 1 0 t t c c m p t f d N N C M m m C N k k p N N N B N N f p f d f p f N N C m N k C M k k N x E E ! ! x ! ! ! E x k m m m M M ! x k m k k k p p p m p p B N N B f N m x k p m f f f f f f N f f f f d N f N Z N f N B B N N f N N N m N m m m N V N m k j x x x M k c c N p k m k p A C B f C C N m A m N N N m p p d p k k k k C m M m m N g f f d d d c N N c N m m x x x k x M k k C M M M M A A A A C C N N N f N C M m M M k c N g D V B %.g.!.w.O.{ &.W.L c x n >.l.d & , a e , , ",
"x.x.>.>.l.N C ' ( z | 2.c - e B P U 1 1 , 1 t p d c N p d d f N N c x C m m k k m N p N c N N N N N p d d d d N N C C m N M M k p N x x E ! ! ! M ! ! ! x x k m m M x ! x x k k k p p k p k N k N N N N N c m x m N N f f N d f N B N N N d d d f N f f g B N B N B B f B B m M ! M m m B B N p k k k k m m k k p m k p p m C N N A A N f f C m m N N f N c N p p m x x M m C C N N f d d d f f f N N N N N N x x k m M k k x M C C M M C C C B N B N f N N C C C C M x k c k f D V G >.G.G.s.+.) S { x.W.W.n.<.g , & e f y ; 7 ",
"g.p.>.V U W.<.S | d.p.c 5 & r B U S 1 1 1 1 t p d c N k d d d p N k N k N c N c N c p k k x k k m p p p p p N N m m C C m M M M N N x E E ! ! ! ! ! ! ! x x ! ! ^ C M ! E x x k k c k k c k k k N N f N N c N k m N p f f f g f g f B B c f N f f f N N N B B B B N N B B N N M M C m N f N f N M k k M k m c c m p p m p p M N N A B m g N B M M k p d c N c p m k M M m m M C N N f g d d a f d f B N N p N k M m m M k m N N N Z A B A A M B B C S C B m m M ! ! ! M m m N f B G V >.W.E.8.5.) N p d n B f r & = , p V r 7 7 ",
"g.p.2.m N C #.8.<.Z p ; & e p S U V 1 1 7 1 t p p p c N d f d N N c C k f N N k k k p k k M k k m m m k k c f p m M M m m C M E E k M E E E ! ! ! ! ! ! x M ! M m x x M ! x k k k k k k k M C k m m N N N N N m N N f p f f d d d d f B N f f N N g c B B N f N N N N B B N C C C M C m k N f N k k i i p k c c p k p p p p C N N B m m N Z S C M M N p d k N c m M M k M m m m N N B g f f f f f B B N N f B N C C N m m m B N N A N A S S N B N C N C N m m m ! ! ! M M N m m f G f $.n.W.y.6.-.( x y 0 - & & 1 0 i B S e 7 7 ",
"g.a.2.S f r r r u 7 - & ; p B S &.S 1 ; 7 2 t p N k N f d N N N k m k N p p N N N m N d c k k k m m k C N N f f m M k k m m M E E x x ! E E ! ! ^ M M ! ! M k k k x x M x x j k k k m k k M M k M m m N N B B m m f f d f d d d d d f f B N N f B c d B B g B B B B N B B V N Z C m m N N c k p k p m m p k k c N N N f p N N S B m N C Z N Z A M M C m N c k N m M M m m m m N B V K B g f g d d f B B f p f N N N C m m f f f S B N B f g N B N N N f p p p k M C C N k m m m m B N #.Y.Q.;.*.*.[ ' ! i e r r t f Z { $.t ; 7 ",
"a.a.i.U S m e 0 5 - 7 e p N K =.&.S 1 1 1 e t t m k N N N d c N m m k N k k m N p m m d k N N k m m m N N N p d m M x x M x x E x x ! ! E ! ! ! ! ! ! ^ M M k k k M x M x x x k k k k k N k k k C C M N N f f m N f p f d d d d d d d N f f N N N d c N B B f V B B S B B N N k m N k N N N N k M k k p k k k N N f N N N S Z B B N B p C B Z ^ ^ ! C f m p N N m m M M m M m g V V G G V f a f f g f B B N N B N N C m m p g f f m N B B g B f N N N m p f f p k m p N k p m N m m C 5.Y.Q.p.2.%.O.' ' S S B B S K o.#.U t ; 1 ",
"g.g.p.U U A C m k u k N Z K #.&.&.V ; ; 1 e p p k k N N N N N m N p N N c c m f N N p c p p f N m p k p m m N k m M M E M x E E x ! E E E E ! x C ! ! M x x x k k x x x x k k k k k k k m N k k k N m N N d N m m N p p d t g d d d a t f N N B f B B f B f g V f N f N N B N N k k N N k k x k k k k m N k f N N N N N N C B N N g f N B C C C C C C N p N f N p m m M M m f B V V G V g g f p f f f V f f S N B B A C m p p p N f g B f f B N B N f f f p m f p p p t d c c k m m k 6.!.E.v.4.2.#.O.' o.#.T T %.T *.#.#.t ; ; ",
"D.G.a.U $.$.S ( ( S ) o.*.#.#.$.#.V ; 1 1 e p p f p m f m m m m c N d N N c c d N N k c m p p d m p m p p m M x x E E W E E E ! M M E ! ! ! ! ~ ! ! ! M M M x M x x ! x m j m m m i k k k k m k m m m N f N N N c N p d d d f d d d p d d N N B N f N f f f f f N B N f N B N C k N m c M M M x k k k m p k d N N f d f N N N Z f V f N S m C M M C N c m f p N N N m m M M M C C V f f t t f f f f B f g B N S B A C m f f p p N f f B f B N N B B f p p p p t p d d p d d d k p m M -.T.T.y.<.-.O.O.*.%.&.1.&.T %.%.-.*.r ; 5 ",
"g.g.g.$.#.U #.U #.#.#.#.*.*.#.#.#.V , 1 1 e t f f p f m m m m m N C c N N f f f d c N N p p d c f f f f p m M x E E E l E E E M x M x x ! ! ! ! ! ! ! ! M j x M x j M j j m p m p M k m k k k k N p p p p N N c N c m N N d f N c c d c N d N N f f f f f f B N B N N N N N f N M M M N M N n x x k k c c N p c N p p d N Z B B f g B V S C A M M N N N N N N N N k m m M ! x ^ C C C N C Z N C N f B g f B S A m B C m m f f f m f f B B f B N N N f f B f p k p p d t p p f f p m m *.K.T.Z.7.5.+.5.%.&.$.$.$.$.$.;.*.#.y ; ; ",
"G.d.i.#.U S #.U $.#.*.$.*.*.*.&.$.V ; 2 1 2 t d m f p p m m C m C A C N N f f p d N N f f N d d p f f f p M ! ! E x E E E E M M M M x E ! ! ! ! ~ ! x M M M x j k j k k k k m p m m k p k m k k p k p N d p p N N f p f N d f c N f f N N N c N f f f m f B B B A N m N m N N N m M C C N c C M x C M m c N N c m p p d N B N B f f g N B N M m x M k N N N m N m N m k M ^ ^ ^ ^ C C M M M M C N f f B B C A Z B m m C N N m m p f N f f B N V N f f B f m k k p p p N d c N p p m m *.L.T.B.9.+.5.5.&.&.$.$.$.%.&.=.#.*.u 7 5 ",
"f.g.i.#.#.U #.#.#.#.#.#.#.#.#.$.;.V ; 1 2 1 t t p m m m M m C m M Z N N N c N f N c N m c N f f f p m m p M M ! w x x l E E M m M M ! ! ! ! ! ! ! M x M M j k x M x k j k k p m p m k m N p c c N d k p d N k x k m p N N f f d f k N N N N N N N f f f f f f V N m f B f B B N C M k k N C c M x x x N k k c k p k d d d f f f f g g g B f N C C N k m m k x x k C m m C ! ^ ^ ! C M ^ C M C N f f f g f N A N m M M N m N m f m N N C N f f N B N f f N m M m p p t f p p k k p p m -.T.J.w.q.5.5.-.&.>.&.$.&.#.&.#.#.;.u ; ; ",
"g.g.i.#.#.L #.U $.#.#.#.#.#.*.;.%.V , ; 2 e t f f f f N k k m C C C k x N N m f c f N c N N f f f m N N m M M M E x x E M ! M M M M M ! E ! ! ! ! E E M x k k k x x m j k k p p p k p k p p N N p d c d f N m k p k k N f f f N N N d N N N N n N f f d f f B N C k f f V N B N m k M m M M M ! ! M M M k k m k m N N N f f f d f f g f f f f N N M k N m M M m c N k C M M C ^ C C C ! C M N f f f f N B f g N g S N C N p f f N C M M m N N B S N N N N m M M N d d p f p c k m m m *.T.T.Z.8.%.-.&.$.Y &.&.*.&.#.$.&.&.p ; 0 ",
"Y.g.d.#.#.#.$.U U $.#.#.*.-.*.;.#.N 1 ; 1 r a g f f p N m c N N M N N N N N N B N N f N N N N f N C m m m m M M x x E E M m M ! M M M x E x ! ! ! ! M M x x x x x j M j M p N p p p m f p N f p d d c c f t p k k p p N k N d f f N N N N f N B B N f f N p m m N N N f N f N N m m M M M x E E ! ! M M k k N c c d N c N f f d g g f g f V B V N C k k k m m C N c k M ^ C C N C C C ^ M N N N p g f B N N N N f N f N C f m f f p M M M C C N B B N N N m M k N k N p p f c d p p k -.T.Y.s.;.&.;.;.$.$.;.*.&.#.$.#.;.&.u 1 0 ",
"G.D.s.#.#.*.$.U U $.%.*.6.*.%.*.;.S e e 7 r d g g f f k c N c N N c k C N N C N c c N N N N d d N N C m m m m m m m x x M C C M M M M x ! M M ! x x M M k k k x x k j k i p p p d p p p N N m d d d f N m d d c k c k p p N d f N f f f B N f N N N f d N N N N N k m p N d N c m M k M M x x E ! ! x M k k m p N N d N N f B N d f g g f f N N m M m k k m m p k N x C M k N C N C C M m N N N f f B N V N N f f m m C N p f m m m j M m C A C m N B N N m m m N c m m c m p d p k k 5.T.~.i.>.>.2.3.>.&.%.;.#.#.#.$.#.$.u 5 1 ",
"g.g.i.*.#.#.$.#.#.*.-.*.-.-.*.#.#.A 7 ; 7 1 t f f f c k N k m N C k N N N C M C N N N B m p c p t k N m m k m m m M j j M m m M M M k k x M M x E ! M M k k k k j M M k m p f p p f m p p p p p f d f N N N N c k p p k c N d N f N f p f f f f B f f N B f B f f f f f c N N c k M M M x M x x E E x x k k c f N N g B B B B B f g f f g B f m N x k k k k k p k M C x C C N N N m M M M N N N f f N B B B B B B m N B f N N m m p m m M B N V N N V B f N p p m m C ! C k m p k k m 6.T.W.p.<.2.&.<.3.>.&.*.&.#.$.#.#.#.r e ; ",
"g.g.i.*.*.#.-.&.-.-.;.*.6.8.%.;.U S ; 1 e e u d f f f N k d N N C M m N Z C C M M x N f c c N t N c N M k k N N m m k k k M M M M j m j m m M M x x x m m m k k m m m p p p p f d p f p N N f p d d N V B f d N m p c N c c m N N f f f f g f f B B f f B f f g t f p f N m p p m M C m x x x x x E x j C k c N N p f B N N f f f f g g f B B N N m m m p m m C m m M M M ^ k N N N C M N M N c N f N B B B B B B M A f f m m M M m N k N f B N N N N B V N N m M M C ! C x k k p m m *.E.n.2.2.2.<.h.3.>.&.<.=.$.#.=.=.$.y , ; ",
"g.G.F.#.#.$.-.-.;.;.=.=.6.-.#.$.T S 1 1 e e u p f g f N p c N m x C m c N N M C C C m m k k c k k N k k k k m N m k k k k k M m m m M j m m k k k k x m m m k m k m p p f p p m f p p m N f c d f f B N N N d d p p c c N N f f f f f f f g f f f f B g f f f f B p p N N m m m M M M M x l x j x x E k N N N V B f m f N N N N N g f f B N N N N m m m k m k M k N M x x E ^ C x m N k N N N N A B V B B B B B A m N N B k ^ ! ! m m m m m f N f f m p B B N m M m m m M x N p p m m #.n.E.2.%.$.<.4.j.<.&.=.=.=.-.5.*.$.u , 5 ",
"g.g.f.*.#.#.#.*.;.g.&.6.5.&.*.$.$.S 1 1 7 q i k t B g f p p N N k M M C d N x M C N N m m k k N N N k k k k k N f m m N k k m m m m m m m M k x k x M m m m k k k k N p p p p t p p p f f f N N N B B N N N f d d k c C n N N N f p f f d g f f f B f B f f N f g N N N C N m m M E M ! x E E E E x ! k m N B V N N N N N N Z N B f g f g N N m m m m m k p m Z Z N M ! ! ^ M M x N m m c f f N f N B N N N B B m M A B N f C E m m m k k f m f B f m S N N m m m m m M M k m m p k m %.g.W.i.&.&.<.l.3.&.&.<.=.#.*.*.*.*.t 7 , ",
"g.g.s.*.*.=.&.&.;.;.=.=.*.;.=.#.$.V ; 1 7 e k k f f f f f N N N N m M M k C C C N c N N x k M C m k k k p k p k N m m p k m k M m p m p m k k x M M m m m k N m k m N p t p f t f p p N f N f N N N Z Z N N B N N p k k k k p m p f f p f N g f N N f f B B B f N N B N m M m M M x x x x E E E x x x x N B V V B N N m C C N N B g f d f B N m p m m p p c k N C N ^ ^ M ^ ^ M M M k C N f g g f f B N N A B N m A C f d C N N f f C B N N f p p N m C B m m m M ^ ! C C x M M M m M -.W.&Xs.7.-.&.&.$.-.-.=.=.=.*.6.-.$.r , , ",
"d.f.S.*.*.{ *.;.&.-.;.=.#.=.=.*.#.B ; ; ; e i p p f f f p c N N N M x C M M M m N m N m k x n k k k k k p p p k k k m m k k M m m p k k k M p m k m m m N p p N p N N p u t d N p p m N N d N B B N f B Z N B N N m m k k k N p N f f f f f f f N f f B B V B f f B N N N M M M M x E x E E E E x x x M M S V V C N N M C k m N N f N B N A B m m p m p N p m N N m ! ^ M ! ! ! M C M m N N f f f V N V B B B B N C N N d c N N N f B N f f p f f f f N A A N m M ! ! ! ! M C M M ! M -.!.T.u.q.7.&.%.$.-.;.;.=.=.=.-.8.*.r 0 ; ",
"g.G.D.*.*.*.-.8.-.6.&.&.&.#.*.{ U S ; ; 0 0 u m N d p N N d p N m N x x C M C N C N f k k k k k k k m N k N d k m k k x k k m m N m k x k p p k k k m Z C p f f f p N f p t t p p p p p N p N N Z V N N Z N N N N p d m k k N p N f f N f f f N N N m p m C f f f N f C C M M M M E x E E x E E x x x M M C N C C m M M M m N C S N B B C N N f f N N f p m m m A m ! ! M ! x ! ! M C n c N f N f N A N B B f p N N N f N N N N N N f f g f f f f m m m k Z m m M M ^ ! M M M M M E M +.T.T.Z.q.5.7.;.-.=.-.-.=.#.$.-.-.;.u e ; ",
"P.P.f.*.&.8.<.;.&.&.*.=.#.&.7.-.o.V , ; 0 e u k p p t f N f N m M k x x k k N m N N N m k k k N k k k N c N k p k x x x k m N N m N k M M j M k m k m m p p f N N t N f p p p p p k c N c N N N B B N N N N N c d p p N N f f N p f d N N N f N p N m N m m f m f m m N C m M M ! E E E E x x x x M j x M M k k m M M x C M C N C N N C N N N m N p m m m C M ! M M M M C M M ! ^ ! C M N N N N N m f m f f f m M C N p m N N m N f f f f f f g N B A N N k m M M ! ! ! C M ! ! ! ! M +.J.T.w.@.q.9.*.*.5.5.-.;.-.&.%.-.;.u e 0 ",
"g.g.g.$.*.;.8.&.;.-.8.6.=.*.*.*.#.V ; ; ; 0 u p k f f p p m N N N N k k m k x N C C N m N n k x c k k N c p k m k k k k k N m m N m m k m k m p p p m m p t p f f t p p d p d k p p N N c k c N N B N N C N N c c d d N f N f f p N f c f t f f m x x M m N N f f f f C f m M ! ! ! ! E E x l x h j k x k x k M k M M M x N n m N C C N N A N m m N N m C M M M ! A M M ! M M ! ! ^ M C M N c N N m m m d p d f ! C p N f f N N m m m f f f V B A o.N A C k N C ! ! ! ! ! ! ^ ! ! ! x +.T.T.B.+.5.5.O.6.5.5.=.8.=.=.;.;.;.u 5 1 ",
"g.x.g.*.;.-.8.-.;.;.8.8.-.#.#.o.o.N 5 ; 7 e u p m p f p p k k k m N k x C N N C M N m N m N N k x x k m k k k k k x k k k k N m m N k k k k p m p m p p p p t p p p t d N f f f p k N k m m N N C N N C c N c c k p f N B B f N N N N m N f f f m M A M C N f f f f N N N N M ! E x x ! E l E x l x k x x x x M x x C k m M M M C C Z Z N N N N C c k C ^ M ^ ^ C C M ^ ^ x x ! ! ! ^ M M M k C m m m p N p t p ! m m N N p N c N c N N c N N B k N C C A m f m ! ! ! ! ! ! ! M E x x O.T.T.Z.+.+.O.O.7.7.5.5.-.-.;.$.&.&.r 7 7 ",
"n.x.d.#.*.*.-.8.%.$.&.*.#.#.#.#.#.Z ; ; ; r y p p p p p p m m M m k k k k k k N m m m N k N c m M C N k k k x k k k k k k x k M m N k k k k p k p p p p p p t k k p p u d t t m c c p N N m m N N N N N C C N N f N p N B N B B f m f N f f f m m M M M m C p f d f N N N m m m M M ! E ! E E E x x x E x x ^ ^ ^ ^ k k k m M ^ n C N N Z N C C M x k M ! E ! ! ^ M M M ! ^ M ! ! ^ ^ ^ M n c k m m m m N f m m ! M m m m f f f t f k N N Z V B N C A m S C f m ^ M ! ! ! ! ! M x x ! +.K.J.@.+.+.O.O.7.5.*.-.*.-.&.=.&.*.y e 7 ",
"E.x.d.*.=.*.6.-.#.U #.#.U #.) #.*.N ; ; 5 e u p p p p p p m k x M M k k m N N N m N m N f f p k C M M k k x M M N m m k M M C k k c N k k p p p m p p p p p p i k k i p p f f N d c k k m m x x N N N B C c N N p f p f Z B f N B N N B f f f f x E M m M C m p d c N c M m k k M j x x E E ! E x x x E E x C x ^ C m C k k M M M N N N N A C C M m x x E E ! ! ! M x M C ^ ^ ! ! ^ ^ M C M k M m m N m p f m C M m m m N N f N d f k N Z K J K C N k m #.m m m ( ! ! ~ ! ! ! M ! M m +.J.J.B.+.+.O.-.O.5.*.6.5.*.&.=.*.#.u 5 e ",
"x.n.g.#.*.-.-.-.*.#.#.#.$.*.#.=.=.Z ; ; ; e u i p m p p p k k k ! ! x m k p d k m C N N N N m k x x x k M ! M M M m C C M M x N N f m k k d N p p p p f p p p k k k p i p p f t p k m m M M x ! M N N N N c N N N f f N N B B B B f f V g f f B m x E x M M m m c c m k m c p m m m x x x x l x E E x x ! ! ! ^ ^ M k k C x M M m c N N N C N m C C M E E ! ! ! ! M ` ^ ^ ^ ^ ! ^ ^ ^ ! C C n C m m p f t d c M C m N m p N f g g f m N N B f N N m f p m N N C M ! ! ! ! ! ! ! M M M q.R.K.Z.@.q.+.q.-.6.5.5.6.6.-.=.=.%.u e 0 ",
"E.n.d.%.%.-.$.*.#.#.#.) *.) =.*.$.Z - ; ; e y j M p m p p p m m x x x m p N c N C C m N N N m x E E x k x x x ^ ( C C m M M ! k k p p k p m m p p f d d t p p k k k k i k p k p m m m M C M x M x N N c N N N N f d f c N B N B V f B f f N g B m x E E M M m j c k k m m N N N m k k k k x l x E x x E ! ^ ` M C M N C m m N M m c N N C N C N M M M x E ! ! E ! ^ ^ ! ~ ! ^ ^ x Q ! M x M C C M m m p p p f m N N Z N B B B g f f N n x N c C N f p f C N B m ! ^ ^ ! ^ ^ ! ! ! M M +.T.T.w.+.+.7.7.7.7.7.q.5.*.-.%.;.-.u 0 0 ",
"E.Y.f.*.-.;.$.$.$.#.#.*.#.#.#.#.#.Z 5 ; ; 5 k k j m m p p p p m x M k m N f c N C C m m k k x x E E C k k n Q ^ ( C N N N M C x k k k k N p p p f t p f d f p p k k k k i k c p m x C M M M M N N C N N N N N f d d f g V B V B V f f f g f g N m x E M m C m M x k C k k m N m k k k p k k x x x x x l M ^ M C x k k M C N N M N m N N N N N C m M M M E ! ! ! ! ! ! ` ^ ! ! ^ ^ C ^ ! ^ M M C M M M p p p p N N c B B N B N d c f f m n C C N N N B g f C C N M ! ! ! ^ ^ ! ( A ^ M +.K.R.u.-.+.7.7.-.8.-.5.5.5.*.&.;.-.p 0 e ",
"!.G.d.=.=.$.$.#.#.#.#.O.*.#.#.=.' A 5 ; 5 5 y j m p p p p p m m k x N m f f g N C N N C c x x C ^ ! x x x k x x x N N N N N ! ! x x M x k k c p p N f f d f p p k k k i p k k k N M M M C C N M N C N N N k m m c f f N N B B B V g N B B g N g m m x x m m m M M k k c c N N N m z k p k k j k x x j M x ^ ! C M k m k m N N N N m m m N N Z N N M M ! E ! C M C ! ! ! ! ! ! C C ! ^ ! ! ! M ! ! M M k m p m m N f N N f N f N c N N m M C ! C N f f f f B N C M ^ M C M C M M M M ^ +.K.R.s.q.+.+.-.7.7.5.5.6.6.&.%.-.;.u 0 e ",
"G.G.f.*.| #.#.$.#.#.*.#.*.' { #.*.A ; - 5 e i k m m m p p f p p k c c c c N d g B N Z c N N k N x x x x x x M C M C N f f N x E ! ^ ^ x M k k d N t t f t p p m k k k k p k k k m m ^ M M M m N C N k x c C N N f d f f N N V U V f f g N N B g m m x M N N N m x k k N k N m C x k k p k k x x x x x x ^ M C x C N C C m C N N N f m m c N N Z N x x E ! x x C M C ^ ! ! M ^ M M ^ ^ ! M ! C M M ! x M p m p m N N C N k N c N C c c N C M ^ C C f f f f N Z A M M C M M ^ M ! ^ ! ^ +.T.T.7.q.7.q.+.-.-.5.*.7.-.=.;.;.;.u 0 ; ",
"G.G.f.#.#.#.#.#.#.#.#.*.O.o.o.#.o.Z ; ; 5 0 i z M k p p k d d d c p k k m N N N p f N f m m m x x x x x x x m m C N N f k N k x ! M ! M x k m m N p p k p p p c k k j k k k k m m m m M ^ ^ m C B N N x N N N c p f f N f f V U B B B f f B B N N M x ^ m m N k k k k k d N N k M M m p k M x M x x x x M M M ! x C C m N N N N m p c c N N N N N E E ! E E ^ x C M C ! ^ C M M C x ^ ^ M x m k k M k m k k m p N N ! ! C m k N m m N N C C C C C f f g f N N N m m m m M M M C ! ! E 5.J.R.w.q.q.5.5.*.5.6.5.6.*.-.=.;.=.t 7 7 ",
"E.Y.g.*.#.#.;.#.*.#.#.#.*.#.#.#.*.A 5 ; ; q y j k k p p t d d d d t p k m M N k C M m m N c C k C k C x x k k N k N d d c p m k M M M x M k d N p c c c k p c p k k m k p k k p N m M M ^ M m N Z N C C N N B c N N N f N N B g V V g f p g g N m k k ^ M N N k k k N p k N N m m m p m i M m C M x M k j M M ( M N m m m N k N N c N c m k N N x x x E E ! E C m M ! C M M C M x C x ! C x m m k k m m m k m m N N M ! ! x m m N N N c N C C N N B g f f N &.B m M m C N C C M ! M M q.R.J.w.@.q.5.+.6.6.*.5.6.-.8.=.=.;.p 7 7 ",
"P.Y.D.-.-.*.*.*.#.*.*.| *.*.O.#.*.C 5 ; ; 0 i k k k k p p N f N c d a k x M M x x E M m k N n k k x C ! x k m m m N p c N p p k m k m k C N N d f c c k k p f k k k k k k N m m p k m M ^ C C C Z N N N c N g d f p N N N N N N V g f N f B g N N k M C C C N p p m N m N N N N p m p k m m k m k m k j k M M ^ C x x k m m f f f f N c N m N C C E E E E ! ! ^ C M C M C N N M x ^ ^ ^ c C k m k N m p N k m N c m C M M M N N N C m N C N Z Z N B B c N f V N m k C C C C N C M C M 7.K.K.w.O.+.5.+.*.5.*.5.5.=.=.=.=.&.r 7 7 ",
"K.P.D.=.-.*.*.| *.*.*.=.*.#.*.*.#.( 5 5 0 q y i k k k p k c k N c p k c k x M E ! E M m m m k k C M ^ ^ x k m p c N k p c k p k N p k f Z B B B f d c p m k m N m k m k k k k N p m k M C M M m N N C N N N N f N k C C N N N N N f g g f B N N N M m M M m k k m N m f f p i p t p m m m m k m M j x j k M m M M C C m m m p p u m p N k c N M ^ ! x E E E ~ E C C m M C M M M M M ^ ! m M C m k N N p p k m m N m M M C C N c N m M C C N Z N B N Z B N f N f N N m C m N k m C M C 8.^.Y.y.q.q.9.5.*.5.5.*.5.5.=.=.-.-.p 7 7 ",
"P.G.D.*.*.=.*.*.-.*.-.*.) #.#.*.#.( ; ; ; 0 y k k k k k k p m m k c p p k x E E E x x x x k x x x E ^ E M k k k k p f p p k k k k N C C S B B g f f N m k m m k p p p m m m m k m p k m M M M m N N N N B N N N f N k C N m N N S f f g B B f N N N m m M x k k k k k M p k k t t p m j k k k m M x ! M k k m k x M C m N n k k k k d N f N N C x E x E E E E E ^ N N M M M M C M M M C m C N p p p p N k j M m M M M M C C N N m m C N m C C S B B B N N f N N m m M C m N N C M C C ;.P.a.&.7.+.5.+.*.5.5.5.5.5.*.&.-.;.t 7 7 ",
"!.P.g.%.#.=.=.*.=.#.;.*.*.o.*.#.*.A 5 ; ; q i p j i p i k k m m k N C k k x E E E E E x x E E ^ E ! E M m k k k k m N N N N N N p m m C f B g B g B f m k C k m p N m m M N N k p m k k x m k N N C N B ( ( N C N C m m N N N C f B N B f g f f N N m M x m k N k k k k k k k k k m k k x k M M M x E l j M m x C k k k x C x C C m N f N N c C C E x E ! ! ^ M x x C M M M M ^ M C M M N k N N f f p N k k m m M M ! ( C C N m m m m p m M M C N V B N f N N N N M M m C N N N m N N =.x.x.<.-.5.5.5.*.*.+.*.5.5.6.6.-.8.k 7 7 ",
"G.g.g.#.*.=.*.-.*.*.*.5.*.*.*.O.*.A ; ; ; e y u p p i k m k x ! E m M k N x E E E E E E ! ! E ^ E E E x k k p m k k N m N M M N m m N N B f f f f f f N k x k m p N C m m m m k p p m k k k N N N N N C ! ^ A C m C N N N N C N N N N B V f f d B N N k x M M k x j k k k m k k x k k k x j k x k x x k j k k x M C m k C x x x n k p m c N N M x C ^ ^ ^ C x k m M M M M M k n N m M C m N f p f d d p m m k M M M M ^ C C N m m N m m m m M C N S C N N c N m M m C Z Z N B N f f f &.W.l.2.;.5.5.+.*.| *.*.*.*.*.*.-.-.i 7 7 ",
"G.G.d.=.=.&.-.6.5.*.+.q.5.5.+.*.*.A 5 ; ; e t u u p u p p i k x x x M k c ! ! E E E E ! E E E E E E x N k k k p k N N m M m k m m m m N B f f g g p f p k k k N N f f N k c c k p f f p p m m N N Z N ^ E ! ( C m C m N m N N B B N N B f f f N N N N m k M N k k M k k k p k p j k x k k m k k M M C x x k M x ! C N N k N m m k k k k N N k M C C C C ^ x k m k N C k M N m k p k x C m m N t f d d f p M k M M ! M B N m f f f N N N C N N C N N N N C N N N m C C C C B N B B N d &.W.g.<.;.5.+.5.5.5.*.*.-.5.*.*.;.*.i 9 7 ",
"E.Y.x.-.=.=.*.| *.5.q.q.5.+.5.+.5.( q 0 ; 7 r u p p u u p m M k ! x k k j x ! ! ! E E ! ! ! E E x x C C c k k p c k N m m m p m m M M M N N g B B f p c k p k c m N B N N N k p p f c N c p f N N C m x x x ! x M m k m N N N V B N N N N B f f N N N f N N m m k x j M m p i p p M m m m k k k k k M x x j M x x x m m k C c m k j k k m N M M C C C N Z m k k N N N k k p N k N k N k m m C m p f f f p f p m k x N C N N N f f N m N N S m N N N N N Z Z N C m m N m N N B N f N N %.E.W.2.*.5.5.9.7.5.*.*.*.*.=.*.-.*.i 7 7 ",
"P.E.g.-.-.5.O.*.5.6.O.*.*.*.*.*.5.( 5 0 7 0 r i p u t N k p k k x x x k M x x M E E E E ! ~ ! E ! M C k c c k k k N N C m p p p m M n k N f B N f d k c k m f k c f V B N N c p k k N k c d k N N N N C M M x x k k m m m N N Z N N N m N B N f c d N N N p m k k M M M p m p m i p p p p m k M x k k M k k x x x M M k k m m m x k k k m M M M C N C N C N k m p k k k c N k c N k m N m N m N f f f a f f m p k m m N m N m N N N m f B N C N N N N C N N N N N N M C C N N N N f N %.Y.g.&.%.7.5.q.*.| =.*.*.*.*.-.-.&.y 7 7 ",
"G.E.g.*.*.*.O.*.*.6.*.*.#.#.*.O.O.( ; 5 ; 0 e p p p t p k p k k x x k k k j M M ! x x E E ! E E E C C N k k k k N N B N N p N p N k k k p f B B f f d c c f k N N N N G N N N m k k c N N N N N N N N M M C M m k x k m N N C N N N C N N B f f c c N V N k p k k x M p m p m p p p p p p k k x x x m M k x x k k m p m m N m m k k p k k m M M N N C C C C k k k p p p c C k p p f p N N m N f a p g d f f p p N f N N N N C C N N N B f N m N N k N N N N N N N m x k C C N N f N k #.Y.E.;.*.q.5.*.O.5.6.5.*.*.=.*.&.;.y , 5 ",
"G.Y.g.*.' *.+.*.' 5.*.) o.O.O.O.O.( 5 ; ; 7 r i p t m N k k m k M k k k M M j M x M k x E ! ! ! M C x m k c x x C C B N N f B N N m k k m f B B f f N N N c d m f m N f B N N p k k p N k N N N N N C ^ M M C m k x k m m C C N N N N N f B f f c p N N N m k x x x k m k k p m m p m f k k k x M k m M j k x C m p p p p m N N N p k k k m m M m M C m x k C ^ x k m p p k p p p k k p m N p p p f p d t p t p t k c N N m N m N f N N N C m p d p N N m k k N N C C k N m m k N c k *.G.Y.8.5.5.+.*.7.5.5.*.*.#.#.&.$.#.r 7 , ",
"K.Y.d.*.*.| +.*.O.5.*.*.*.' +.+.O.( 5 0 ; 1 e p p t d N k k k k k k i M k k k x x m k x x x ! ! ! M N m k k x M M Z B B V f V B N k m m c c N N f N N N N d p N m N N p N k N p k c c f N N N m N N C C M m C m k k k k m C C N N N N B N V B f c d N f m p m j x x x x j M p i k k N N N k k x k k M k k M x m N p p c k p f N f f d N N M m N M C C x x m M x E M k i p p p c m k m p m N p f p N N d f c p d p p N c Z N N N N N N m m m p f p d N N N p k N m m C N m N C C M k m #.g.G.8.5.5.5.*.*.5.9.*.*.$.%.$.$.#.u ; e ",
"E.G.d.*.#.O.5.O.O.*.*.*.*.5.5.+.O.( 4 0 0 0 y p p p c p d p p p k k p p m k k M x x x k x x ! ! ! E M m N x k C C B B B V B B f c m C M N k d k N d c N N f p N m N N m m x k k k c d f p N N B N N C M m m N M k k k k m m M N Z N Z B f f f f m p d N m m m M l x M ! M m j k k k c N k k k x x x k k k c k k m p f p p f f p f p d N N N N N N N x M x x x ! M m p p i p c p p k k p m p f p p k C d N t p p k N c N N N N B f f N m C N N m k f N f p p c k N m N N N p m m M m m *.G.Y.y.5.5.O.O.*.5.*.*.*.$.&.$.$.*.r e ; ",
"P.E.g.&.#.O.' *.O.*.*.*.*.*.+.O.O.A 0 - 7 0 i j c p p p p u p k m p p p m p k M k k k k x x ! ! E ! n M k k m m N V V g V V B N m M ^ m C N m k m N k k N N N N m c p N k C m k c c f B f f N N N N C k x N N M x x k x m M M C Z Z B N B B f N N N f N p m m M j M x ! x m k k k k k N m k k x k k k m k k m C m p m m f f t f p d d N N N p N N c M x M x x M k k p f k c p p k p m p p f d p N d N p f d p N k N c N N N N N B N m B B m B m c p N N f p f N N k C N m N m p N m N *.G.Y.7.7.5.O.O.5.5.-.*.*.#.#.*.*.*.u ; e ",
"n.n.g.&.*.5.| 5.*.+.5.5.*.O.5.*.O.A ; ; 7 0 y m z c d c d c p p p k p m j m p k k k k M k x x C ^ x M M m m N N N V f B B V V B k C M m N c k M m m N m N N N d f k N k x n k k c N f f f f f B N N N k k N C M ! C k k k k m m m m N B N B f N B p p p m m k k M M j M M j k i k k k N k k x k x x k k k k m m m p p p p t f p f f N N d f N f c c M M C C M x k k p p c c N d p k p f d N f f d N N d N d p c c c C N N N N N N N m B B C m m N p f N p N m N N N N N N p p m p m d #.G.G.8.7.-.*.5.5.5.*.*.-.*.5.5.*.7.u ; e ",
"n.m.g.$.=.| +.O.5.@.5.q.O.O.5.O.O.A q 0 ; e u p m p f p p p k k p j m p j j m m k k k k k k m N C m x C M m c N N B B B g V P V m M M k N N C n C C C M x N c f f p m N M M m k k c c c N d f B f d N k C c C M x m k m m f m m k N C N V N N f f N f N k k k k m M m m M k k k k k k c c x k k x k x x k k M m m p k f f t t f f f N d f f f k c x M x M ^ k x m N p k N N N N p p c c N f f f d d N N f p c p N m N N N f f N N B N N Z S m m f p m N f m f f N c p N N m p k k p N #.G.G.;.*.*.5.5.5.5.*.*.#.*.5.5.5.7.u 0 7 ",
"x.W.x.&.*.*.5.5.+.5.9.5.| *.O.5.+.( 0 ; q e p u f p p p p p u k m p p m m m k M k M M k p p f N N Z N x N m c c N f f g V P V V m Q x m k C ^ C C C ^ C C k N N f N N M m m N k c C c C N N N N m m C m k C m N k k m p N f N m m m C N Z N B f f f N d m p k k m B C m m M k k k x k k c c k x k k k k k k k k k k k p k m p p c f f N f d N N c C ! ! M C k N N m N x k k d p p p N p c c N N N d f c N c d N f p p f d f d f f f B N C N f f N f p N m f N B N f f p V N m p c p p #.G.g.8.*.7.*.5.+.5.O.*.*.*.q.5.7.-.u 7 7 ",
"n.W.W.<.&.*.*.*.5.+.*.5.+.O.*.[ +.( 5 ; q e u i f p f p i d d k p i m m j x x x x k k p p p p N N Z C C m m k N N N f V G V V V N ^ x k k M C C M M m N N f f B f N c N c C x N c c c N N N f c f N N m k x N m k k p f f f f N m N N N N N f f f f N f N m m p m Z m p k k x M x x m m k k k x M M k k k m k k k k m p k p p m N f f f f p N N C C M ! ^ N N N N f f N k k p p p N N f f f f m m f m f N d f d p f N f d d d f f f m N B N V V B N N N N N f V f B f B B N p N N k k #.G.D.8.*.*.*.7.*.5.*.*.=.*.5.7.7.-.i 7 1 ",
"x.n.W.8.*.-.*.*.*.*.*.O.*.O.*.5.5.' 5 0 e y u k p p p p p p p p m p p j j x x x M k m M m t p N N A ( C N m m N N f f V V G V Y Z ^ ! C k M M M C N N B B V V f N f N N C c n N N c c c N d c d N N p k N m m m k m p f f N N N N N N N m B B B N N f N p f m k m m M k k k M x x x x k k m x x x k M k k k k k k x m m k m m c N N N N d c p f N x ! M x C N c f f p N N c p i k k p f f N f m f N k f p f f p p p m f N f d f f f N N B f P V V N g N N N f g B f f f p f f N N N k *.G.G.8.*.-.*.*.O.5.*.*.*.*.5.5.7.%.e 1 1 ",
"l.E.W.-.*.*.*.&.*.5.5.O.*.*.' 5.+.( 5 0 e y j i m p p p p t p z M j m j M j M M E k m k p k p t c C ( C N N N f f N N V G G P P N C C C M M C m N C B V V V G f B d Z N N c N f c c c N f f c c N N N k k m m m k N p f N B N f N C N m N N B N N N N N N B p m m p k k x x x x j x x x c C x x x x x m k k k k x M M p p m N m k N N N m m k m M ! E x c N N N d f f p d k i p p p p N m p N N c N p f N N p f m p N d f d d f f f B C B g G P V g B g N N N C B f f f B f f N N N m *.G.K.8.*.5.*.O.*.*.*.*.#.=.-.5.-.-.r 7 7 ",
"P.P.D.&.=.*.*.*.*.| *.+.*.+.5.+.5.+.0 e q y k k p p a p p p k k M k m k m m x ! ! x k k p d p p k N C m k c N f f N N V V G V B N N C N m m m A C N N V Y U G B B g d B N f d N N k c N N f N N d N f c f m m m k m N f B N f B B N m k N Z N N N B N N N B d k p m p M k x x k x x x k c k x x E x M m x M k k M j k m m x C m N N k N N N M M ! ! Q C N N f f f f N p c k c k k N f N N N N f m f f f f p N p k N N c f f f f f p N N P P T T V S N N m B p B B f g d p f f f N k k *.K.K.8.*.*.O.-.O.*.*.*.*.| -.q.*.&.y 7 7 ",
"P.E.D.-.*.*.*.#.O.*.5.O.*.*.5.5.+.O.0 e 0 q p m p p p k p p k x ! ! M M k x M x M x k k p k i k m C M N k k N f N N B V G P B B N N C N k k N N C N C B V U B f B B B c N f f c c N c p f N N N c N N N m m m m N k k p t f p N f N N m m C N N B Z N N N N d p f m m m k x k x x k x k N M x E ! x C M M ^ m m m m k k m C m m N N N C k C ! M x ! E x C C k d f N m N N k k C m m p m c d p p p N d p N d k k k x c N f N N f p N N V T P V V V g m m M B p f g g g t p d p c N m N *.J.P.y.*.*.O.O.*.*.*.#.=.*.*.*.5.&.p 7 7 ",
"g.P.G.%.=.*.#.#.#.#.#.#.o.*.*.O.O.( e e 2 r i p k p i k k u i k ! M x k k k x x x x M k k p k k M ! x k C n k N n N N B P I B N C x C C C k m m N N N m B C N N V B f d g N f k c c c m f d k N c N m k p p p N m N c f N m m f N N m m m N N N N Z N N N N f f m p m p k k k x k x k k k M x E E E x x x x C M C m N m N C N m N N c N N C C M M M M M x x C N p N C m m N k k k m k N f f p p p k k c p d c N k k N M k k N k f p N N U T T Y g f N f N N f f g d d p d p k N N p c *.G.G.u.*.*.*.5.5.*.#.=.*.*.*.5.=.-.u 7 5 ",
"P.Y.J.*.#.;.#.#.#.$.#.#.#.{ #.O.*.S e , , e r p c i p k k p p k j M M k k k k M M M m i p m k j m M ! M x E x M M m C B J T G N C m m k N m k m m C N m N m N C B N N f f N d c c c c N d N N k k N N N f p c p p m k c m m N N N N N M m m M N C N Z Z B N B f f f f N C B m M M M j k m x E E E M E E x Q ! ^ ^ N N B B A c C C N N N C N c N c k N M M ! M N M C ^ C k N k k M m k N k c p k k k k c p f N k m m M M M ( M C k N C M Z K P &.U N N N N f f N p c p p p d N N p p f $.G.Y.w.*.#.*.5.6.;.*.#.*.*.*.-.-.&.u 7 7 ",
"P.G.g.-.*.-.%.#.#.#.#.#.#.#.#.*.*.) 2 , , e i d N p k k k k p k m M k k M k M j m M k k k j i k j M E x ! ! E M M N N N f B C c m N p k k p N k m N C N C C C C N f N c d c k p c c k k d k m M k k k p k k c p p p c k p N N N Z N m M m m m m N Z Z N C m N N N f N f g N B m M j M p j x M M x E ! E x E ! ^ ^ N N B Z ( M m N N N N c c f N N c d k M M M M C N k C k d N M M M N N c c p k k M N k k p k M m m M M M ! C M C ^ M C S N Z Z U V N C N f B N N z p p p p N m m f p $.P.Y.u.%.*.#.*.*.*.;.&.#.*.*.&.*.#.r 5 7 ",
"g.E.F.*.*.;.;.#.*.o.#.#.#.*.*.*.*.{ e ; , e i k c p p i k k i k k k k k k k m m m M M i i k i k k x ! E ! E M m m N N N N N C ^ C c N c k c C m m Z N C C M C n N N f d c c c p p k k c f N m m m m k p p k k f B C k k m N N V Z C m m M N C N N V B B N N N p N m f f f m M M x x x k M x x M M ! ! E E ^ E M C N c x ^ C N C N N Z Z N N N d N N c k m x M x m m N m N k k N m k m p p p m k k M M k N p k k k k m M M m m M ! ! ! M m M ^ N Z C N C N m N N C C m m t N N C C p p #.E.E.8.#.*.*.#.-.*.*.&.*.7.*.*.#.#.r 7 ; ",
"P.E.D.*.*.$.$.;.*.#.*.{ #.*.[ 5.*.Z > 5 7 e u k c p k j k j k k k k M M k M k M M M m p p k k k x x ! ! ! ! M M N N N m m n ^ C C c c N k c N M N N N N N M C C N N N k c c c k k m p c k m k m k m N k c d p f B f f k m N N N C N m M C m m m N Z Z V N N f m m p m N m m j M ! M j x M k x x x x x E E ^ ^ M x x ^ C C C C N Z N N B B c p N N N N m M M x k x x C C N N N m N k c m N p c k k M m N m N m x x k m m N C m m k C M M M ! ! x C m C M N m p C f N N f m d d N p f f &.K.K.w.*.%.%.#.-.%.*.%.%.%.;.;.;.#.t e e ",
"P.P.D.*.*.#.#.*.#.#.#.#.*.5.+.+.' Z - 5 5 y j k c p p c m k k p k k k k M k x x M k k M m i j k x E ! ! ! x M M C C C N k x ^ ^ ^ c c c k p N N N C S N m m k k N N N c c N N p p k c c N N m m m x k k p p k N f f f m N N N N B N m C k N C B N C Z Z S N p p k k k m m m m k x x j x x x E x x x x M M M M M ! M M C M M ^ C C Z B N f d N c N d k C C M x M k x ^ C C N c c m m p p p k k k k m m m m N N x M k N N B B m m M M m M ! ^ ^ M M C M M C m m p N c p m f p f B V V g &.Y.J.w.*.*.#.#.%.-.;.%.*.&.-.&.*.#.u e e ",
"g.g.g.*.*.o.#.%.$.#.$.#.*.+.+.[ *.( 5 5 5 6 y k k k c c m k k k k k M m M M M j x m k j p p m k x E ! ! M M M M C M k k k M ^ ^ C k c k k k m N N N N p k p m m m N p k k c N p f k p k k N k p k N k p p k c N m f f f N c N N N m m C C N C V V N C m N f m p m k m m m m M j k k k x x E E x x x M ! M x C ! C x M x M M M C C C Z N N N N N N n C n M ^ x M M x x M k k N N k m m p p k k k j M m N B C C M x C N C N N B m N N N C C ! ! M M ! M m m m N f N m N B f f f V D G B $.K.R.u.5.7.%.#.*.%.&.#.;.&.&.-.=.&.y 7 5 ",
"g.x.d.o.*.*.*.$.&.$.*.;.*.O.5.+.' ( 5 5 5 y y k k k k c k m k k m k M m M M M x M M k k i p k k x E E ! M C A m x m m x n N C S N N N k k N N N m N C m N m N M k m k k C k m p N p k k c N c N N N N m N N N c N N f f N N N N N N m C C N C N Z M M M B N m p f k p M k k k x m p j p j M ! E E E x M x x E M M x x E ! M C M C ^ C C N N N N m x C C M ^ x k m k m k k m k k m m k m k m x x M M N C N N M M M m M C N A B N N N N A ^ ^ ! ! M M M m m f N m m N Z Z B f g V G G B ;.!.L.u.q.7.#.#.#.*.#.#.&.$.=.;.&.#.r 7 5 ",
"g.f.d.*.*.6.-.*.*.#.*.%.*.*.*.*.| ( 5 5 4 y h x x k k k N m x x M m M M M M x x j k k k i k k k x x ! ^ A N m m N m N c N N B S Z m m p m N x M m C C m m m M k x m k N x k k k N k c k k k c N C C k M x N C N k p f N N c N N C m m m C C N C C M ! C C N p p m m k M M k k M m m m M j k x x x x x x x M x x E E E x ! ! M M C C C C C C N C C ^ ^ E ! C x k k k N k k p p p k k M M m M x E M m N B B f C M M m C N m B N m N N N C ! ! ! M ! M m M m m N N N N B N N g a g I G B *.Y.T.B.*.-.;.#.*.#.*.%.&.<.3.;.&.&.r 7 ; ",
"Y.K.f.#.*.*.*.*.#.-.+.O.*.*.*.+.+.( 5 4 5 q y k C m k k k k M M M M k M m M x k k M j i i k i k ! ! ! ^ C N N N m N m N N N N f m m k N C C C C k C M M C k M M N m m N M m M k k k k x k k k C k x M M M Z C N f N N N N N m N N m M k M N N m C M M m m C k k p m k M M k x k k m k k k k k x x x k k j M M ! ! x E E E ! ! x ! ! ! C C C N C C ! ! C M M M k x x x m k c k f k k C C C k ! E E M B f N f N N x M M C N C B m N N m M C ! ! E ! M M m m m N N N N N f f B f f g g t &.E.E.8.*.#.&.$.*.=.-.$.$.:.3.<.&.$.r , ; ",
"J.J.S.#.#.*.*.*.O.+.5.*.*.*.+.+.+.` 5 5 6 9 j j C C k k k k M x x x k k k k k k j k i m k i M x ! ! M C C m S C M N m M x N N B N m C ^ A C N C C N m C k N C M M M M m m M m m k k k m k x k k C x M x M N N N m N c N c N k N m C M M M m M N N M M m k m k k k k m m k x x k k j k k k m x x M x x k M x ! M ! E E ! ! ! M ! ! ! ! ^ M k N c N N m M M ! M x x x ! M M k k p m k M C m M x x M M N f f f N c x M C C Z N B N N N N M ! ! ! E E x m m C N C f f N B g f B f f f d f &.E.E.i.-.#.#.$.#.#.%.*.<.<.3.3.;.=.p 7 7 ",
"G.G.s.o.o.#.O.*.O.7.*.5.#.*.5.9.+.( 5 5 5 q j x M k k k k N m x x x x k k k x k p p i k k M k k E E ! C Z C C N C k m m n N N S m C ` C N Z C C C M M ^ ^ M M M M M M C M M M M k k N m M k k k k ! M M M N f N m N N N c N m N m m k m x x m m N N N c m m M x M j M m m x x k m M j m k x x k x k k x M M ! ! x E E E ! ! ! M M x M M x x x M k k k k k M M M x x M ! x n C c k k m N N k k x x M m B f f N m x M C ! C A C m C c N M ! ! E E E x M m f N N m N f f N f f f f f f f &.W.n.2.$.*.*.*.*.*.*.#.2.>.>.<.&.#.t 5 ; ",
"g.Y.a.#.o.o.#.O.*.O.*.*.*.5.5.5.5.( j k O.7.q.B.Z.u.w.u.u.u.s.d.d.u.s.y.y.u.u.u.u.8.7.u.q.u.w.-.w.Z.S.s.s.f.f.F.s.d.d.G.d.g.g.d.Y.g.F.Y.d.p.a.d.S.d.s.D.S.s.S.Z.S.S.s.s.s.S.u.u.s.y.i.s.s.i.w.u.s.w.S.u.s.d.i.p.s.d.i.i.i.D.s.d.d.s.u.u.u.u.s.i.g.i.w.t.s.s.y.u.Z.u.S.s.u.w.w.0.7.q.u.8.y.u.u.w.u.u.u.u.u.u.u.Z.Z.Z.B.Z.Z.Z.Z.Z.S.S.u.u.u.u.s.u.s.s.s.u.s.u.S.D.u.u.s.s.s.s.s.s.u.s.u.d.i.s.u.u.Z.u.u.p.p.2.s.s.u.u.S.Z.u.f.f.f.i.s.s.s.S.Z.Z.Z.Z.Z.Z.S.d.i.d.i.a.i.3.3.2.p.p.i.p.p.i.Q.'.Q.2.%.#.*.*.#.*.#.;.2.>.&.;.&.$.u e 5 ",
"g.g.p.#.U S #.*.*.o.#.*.*.5.+.+.5.*.' q.}.2X2X2X3X5XOX5X5X3X&X&X6X8X6XOX$X5X2X3XOX$X2X2X3X.XOX.X2X2X6X6X5X5X8X5X8X8XeXeXeXeX9X9XeXeX8X8X9X:X0X6X5X8X6X6X8X5X5X5X5X5X6X5X8X5X5X5X5X%X$X%X3X$X$X$X5X5X5X6X6X9X*X6X4X7X6X7X6X4X5X9X8X6X5X5X5X5X6X$X*X%X$X$X4X5X3X3X2XOX2X3X3X2X2X.X3X3X3X3X$X3X.X$XOX5X5X5X5X5X5X5X2X2X2X2X2X5X5X5X5X5X5X5X5X3X5X3X5X6X5X3X5X6X6X8X8X5X5X5X5X6X5X6X6X5X5X7X4X6X5X5X5X6X*X;X#X*X6X$X2X5X5X2X2X5X5X$X3X5X5X5X6X6X8X5X2X5X6X5X6X6X8X*X:X#X;X#X,X#X;X:X>X:X*X0X0X|.;.$.#.=.*.o.#.#.&.2.&.&.%.#.*.u 0 0 ",
"Y.g.i.S o.#.o.*.#.*.*.O.O.5.5.q.9.5.q.H. X2X2X2X2X5X2X2X6X3X%X*X7X6X6X$X&X5X5X5XOXOXOX X3XoX8X+X2X3X6X8X5X5X5X6X8XeXeXeXeXeXqXqXeXwX8X5X6X6X*X9X8X8X6X6X8X6X5X2X5X5X5X2X5X2X5X5X5XoX%X+X&X*X$X$X2X3X5X5X6X*X*X*X*X6X7X6X7X5X4XwX6X6X6X5X3X$X3X%X&X%X$X3X3X5X5X5X5X2X3X$X5X3X3X3XOXOX3X3X$X$XOX$XOX3X$X5X5X5X5X2X2X2X2X8X5X5X5X5X5X5X5X5X5X5X3X2X5X5X5X5X5X6X8X8X6X6X6X6X6X6X$X5X4X5X$X*X*X*X&X6X8X6X:X:X:X*X*X5X2X5X5X5X5X5X5X5X2X6X4X6X5X6X5X5X2X5X6X6X6X5X6X6X*X#X#X#X;X;X#X>X>X*X>X0X*Xn.$.&.;.$.#.U $.*.*.&.;.*.*.*.#.y 5 0 ",
"G.J.f.o.#.#.#.#.#.#.#.*.O.q.5.9.q.5.5.q.B.B.B.Z.Z.Z.B.B.Z.Z.d.P.!.G.S.0.u.Z.Z.Z.y.;.8.y.8.8.8.;.8.S.Z.F.S.S.f.d.n.Q././.Q.a.a.n.|._.Z.Z.Z.F.g.!.F.S.D.S.F.S.Z.Z.Z.Z.Z.F.Z.Z.Z.S.i.e.e.t.s.w.i.d.w.Z.S.S.S.i.i.s.i.d.d.f.f.i.d.x.g.s.u.Z.Z.Z.w.w.s.y.t.s.Z.S.s.s.8.0.s.w.s.w.s.u.s.u.w.w.w.w.i.y.s.s.u.y.y.u.Z.J.Z.Z.Z.S.Z.S.Z.A.Z.Z.u.Z.Z.S.Z.Z.S.Z.S.S.S.S.D.F.D.f.d.s.S.D.s.u.s.t.i.i.i.i.i.i.d.i.a.3.p.i.d.s.f.u.S.Z.Z.Z.S.Z.B.S.d.i.i.s.u.S.u.d.D.d.D.D.s.i.d.i.i.i.3.p.4.p.3.i.p.a.3.&.&.U $.$.#.#.*.#.=.#.;.*.#.*.#.y 5 ; ",
"K.G.s.o.#.#.#.*.&.;.&.#.*.+.5.9.q.5.5.@.+.+.+.O.5.9.5.5.5.5.8.;.;.;.=.#.#.O.7.5.*.o.S o.( ) #.o.O.-.7.8.y.y.i.E.E.W.a.n.v.n.E.n.E.E.8.q.q.q.8.-.7.7.-.-.q.7.q.9.9.5.q.q.w.Z.s.d.<.=.{ #.*.*.*.*.5.9.5.q.5.-.-.-.#.-.t.-.-.;.;.2.;.8.6.6.5.6.5.*.) *.5.[ *.+.5.#.#.*.5.*.*.*.' O.O.*.*.*.*.*.*.#.*.-.#.*.-.-.+.+.+.@.+.+.w.q.+.+.q.9.5.5.9.w.s.d.u.q.5.9.5.6.7.8.8.-.-.*.*.*.-.=.-.*.-.*.-.%.*.*.%.;.&.&.$.&.#.*.-.-.+.*.7.7.q.q.5.*.;.%.&.%.%.-.-.*.-.;.7.5.5.-.8.;.;.;.%.U &.&.;.;.&.&.&.&.$.$.$.$.$.*.*.O.*.-.*.#.*.*.*.y 5 5 ",
"K.J.i.#.#.#.#.<.p.p.g.2.;.#.' 5.q.9.q.9.+.+.[ 5.5.+.5.*.*.*.#.&.;.=.#.#.#.o.+.q.*.#.o.) o.) #.) *.q.g.P.E.E.v.v.E.E.a.p.2.;.-.*.2.-.-.+.q.5.e.g.2.-.-.;.8.7.5.q.q.q.q.w.t.P.D.;.<.a.&.{ ) *.*.*.5.5.5.7.8.8.-.6.*.*.-.-.;.&.;.,.<.;.;.-.5.*.5.5.*.*.5.5.5.+.O.O.O.#.O.*.*.) O.O.O.q.*.O.O.*.O.#.;.;.#.#.*.-.O.+.q.5.q.q.q.q.+.q.q.+.q.w.s.K.D.w.d.D.w.*.*.*.7.-.;.*.;.#.#.*.-.*.*.*.=.*.-.-.-.;.%.&.$.&.&.$.#.$.*.-.6.*.-.&.6.6.6.*.-.*.$.;.-.*.;.#.;.-.*.+.q.q.7.*.*.;.;.*.*.&.;.;.$.$.$.&.$.#.U &.<.2.e.6.8.-.=.#.=.*.O.y 5 5 ",
"G.g.i.#.#.&.3.n.>.a 2 p <.=.) *.*.8.7.*.O.+.+.-.5.+.5.#.#.{ *.*.&.*.#.U { O.q.9.5.#.#.#.*.#.*.=.-.*.E.W.E.n.2.g.E.E.1.;.O.7.+.+.+.+.q.5.5.*.8.2.<.&.=.6.w.7.7.7.5.0.q.s.!.) 9 7 = & &.e.{ ( *.5.5.q.q.7.-.-.6.5.*.*.-.-.&.-.;.<.2.2.;.8.*.5.*.' 5.[ | q.5.+.5.*.*.*.{ *.*.*.O.o.7.8.*.| *.5.*.*.#.#.#.*.#.O.5.q.+.9.q.7.*.q.+.q.+.5.7.i.!.) e 5 - - 6.s.) ) #.$.;.;.-.*.*.*.-.*.=.&.$.-.-.8.-.*.*.;.$.&.&.#.#.*.*.$.%.-.-.*.=.*.*.-.&.&.$.;.#.*.$.&.*.-.q.5.+.+.5.7.#.%.*.*.-.-.;.*.#.$.#.U $.U >.3.x.<.<.i.s.| { #.#.*.*.r 7 ; ",
"W.G.i.#.#.&.z.D a d a 7 % ;.;.) ) o.7.*.*.5.+.*.5.+.+.*.#.#.#.#.=.#.#.#.o.o.+.5.5.*.#.o.#.*.-.*.*.#.8.a.E.E.E.E.E.Y.%.O.+.q.q.+.+.5.5.7.q.7.*.8.<.&.<.8.8.7.q.q.q.q.s.G.-.n =.=.V r > p.$.N ) 6.5.+.q.q.5.-.7.5.5.5.*.-.;.&.i.k.i.e.e.-.5.5.' 5.+.+.+.9.5.5.+.*.*.o.*.) ' #.o.O.o.*.*.*.*.5.5.*.*.#.#.*.*.5.+.q.+.9.q.7.q.q.q.+.9.5.y.a.#.d &.&.( 9 ; S.-.C ) &.;.;.8.-.-.6.-.-.*.&.&.-.6.6.8.7.&.*.$.;.;.$.#.$.$.$.$.#.#.;.#.*.*.6.-.#.$.;.;.&.*.#.#.-.7.5.q.+.5.*.*.-.%.*.*.*.-.*.*.*.#.#.$.>.k.p.t , & * s d.#.S { *.*.r , e ",
"E.P.i.#.$.3.>.a >.3.<.L t 2 D.{ m o.#.*.*.+.+.*.+.+.5.o.o.$.&.o.{ =.o.#.o.*.q.+.+.#.o.#.*.*.#.=.#.*.#.#.W.E.Y.f.f.-.O.*.q.7.O.+.*.5.*.8.6.9.5.7.8.=.-.-.;.-.q.q.q.q.D.!.b e.~.|.d.F < c p.N N ' +.q.+.q.q.7.7.5.5.5.5.-.;.;.a.k.a.g.8.%.*.5.' -.*.5.*.+.+.5.*.5.O.#.*.) *.o.| *.*.5.*.O.*.5.O.*.*.%.*.*.*.O.q.+.q.+.q.+.q.q.q.+.+.5.d.g.a <.~.{.G.{ 8 n D.m Z #.;.;.8.-.8.5.5.5.5.5.-.-.-.8.7.7.-.$.;.&.;.;.#.$.$.#.#.o.o.#.#.&.-.-.&.&.&.$.#.;.&.&.-.&.-.7.q.q.9.5.5.*.#.*.=.-.*.-.*.*.*.#.&.3.z.a V Y L c = c p.S S ) { r e , ",
"E.E.d.o.&.l.G I b.`.).k.F > e.$.i C #.5.5.[ 5.O.[ +.+.*.#.K U U #.#.#.S #.*.5.q.+.O.*.o.#.=.*.$.#.-.q.-.;.8.8.8.7.+.7.+.7.+.q.-.8.8.;.;.8.w.9.5.8.5.5.q.q.w.u.s.q.q.g.!.c x.%X7XoX,.s s d.k i ( 5.+.q.q.q.q.-.5.5.q.7.7.;.;.3.a.a.g.i.;.-.5.O.*.*.7.7.7.6.5.*.O.*.o.*.o.o.o.*.O.O.O.O.O.*.*.5.O.-.8.%.-.*.5.q.+.+.q.+.q.+.+.q.+.5.q.d.a.d l.%X7XoXr.v s F.n j ) ;.&.-.-.6.-.6.6.5.5.5.6.-.8.7.-.-.*.-.;.;.;.*.*.#.-.*.5.*.*.#.%.#.%.-.*.$.#.&.&.;.&.-.&.-.5.7.9.+.q.5.5.*.*.*.*.*.-.&.*.*.#.<.z.Y G z.Q.W.=.c > p.#.i S #.r 7 1 ",
"E.Q.g.#.&.l.G I N.-X-XI.} 8 ,.6.q k ' 5.*.+.' +.[ 5.5.o.#.S K ) #.#.#.#.#.*.7.q.9.*.*.#.#.#.#.$.#.=.-.;.;.8.7.u.w.q.O.-.O.-.-.-.i.;.&.i.%.8.w.0.q.9.q.q.q.8.w.D.w.6.p.(.g g.oX6XoXr.F s d.p y A 5.5.+.q.7.+.7.9.5.9.5.7.;.8.i.2.i.p.;.;.*.O.*.*.-.%.8.8.6.O.o.#.#.O.*.o.o.*.*.' ' O.O.*.O.O.| *.=.-.*.*.[ [ @.+.+.+.9.q.5.q.q.@.5.9.t.E.d k.&X6XoXC.v n D.z r A #.;.8.-.8.%.-.-.6.q.9.6.7.7.7.7.5.6.8.-.e.;.-.*.O.O.O.*.O.*.-.-.-.8.7.&.&.;.;.&.#.6.8.-.q.8.q.9.+.+.-.*.6.*.-.*.*.i.;.;.=.&.<.W.G R `.:X7XI.} 8 &.$.0 N $.u 7 0 ",
"n.g.a.#.$.3.&.V b.'._.r.} 8 i.S 0 k ( *.*.' ) +.+.[ 5.O.*.) #.#.=.$.#.$.$.*.7.5.*.O.#.o.{ U U $.$.&.<.<.2.3.<.y.w.+.+.-.O.*.-.&.2.<.;.;.;.i.e.8.7.q.q.q.q.q.q.u.w.&.>.N.S #.J.}.L.X.s 8.L e y A O.5.q.5.5.*.7.q.9.q.5.+.*.8.;.;.i.i.t.=.-.*.O.O.*.*.5.5.-.*.O.O.o.*.*.) #.) *.#.o.o.O.+.*.5.+.*.*.*.*.*.5.+.+.+.@.+.5.+.q.q.q.+.+.q.6.I.S =.K.[.L.X.z 0.| y e N | -.-.6.8.-.;.#.-.*.7.7.8.7.5.q.5.9.5.7.8.8.5.*.+.+.+.+.O.*.*.*.8.7.7.t.8.&.;.;.;.8.8.8.8.q.0.+.+.9.7.-.8.=.=.*.-.e.;.-.&.;.<.~.&.T _.7X7X{...9 <.#.; p { r 7 7 ",
"g.n.i.;.#.>.z.f L i.t.| s { =.j ; k ( o.*.=.#.O.O.*.O.*.*.*.#.o.) -.$.#.$.;.-.7.;.#.#.#.#.U #.%.$.>.2.2.3.l.2.-.-.q.+.-.-.#.$.;.&.>.<.;.<.p.i.;.7.w.q.q.q.q.8.q.q.-.#.<.I.S ~ [ _ x } d.c & y N *.6.7.6.5.7.7.q.q.+.5.5.*.-.-.-.<.i.-.-.*.*.*.O.*.+.5.*.*.*.#.o.*.O.*.#.o.o.o.o.o.) O.' O.O.[ ' [ *.O.' 9.+.+.+.+.+.5.q.+.q.+.+.5.5.5.e.I.C ^ [ ] n X.S.M - y Z #.6.q.q.8.-.#.#.*.*.-.;.;.7.7.7.q.q.q.5.7.5.+.+.+.+.+.+.+.+.O.O.*.8.q.w.8.-.;.-.&.-.-.8.q.5.q.5.q.q.7.-.-.#.#.&.q.6.8.-.*.*.8.D.d.B i.[. XC. .s <.p ; p #.t 7 7 ",
"x.x.g.&.#.J &.m.K k c k $.i.c 5 q k S $.$.$.#.*.*.O.*.O.O.O.o.#.#.*.#.U &.8.8.8.;.$.$.U #.#.*.-.2.3.4.4.4.c.1.1.y.7.7.q.O.-.%.&.>.$.&.<.<.p.p.;.-.q.w.q.7.7.7.7.7.7.o.S &._.i.*.6.x.l.c > 5 i ( *.&.;.;.6.q.q.q.q.q.7.5.5.-.-.=.-.d.e.&.7.*.*.6.*.5.6.5.y.8.-.%.O.5.*.O.*.#.) O.O.O.O.*.O.+.' +.5.O.*.7.w.+.+.q.q.+.q.+.q.+.+.@.q.5.O.) &.XXp.#.| g.D.C 5 5 j ( 6.-.5.q.5.7.;.;.%.-.*.%.;.;.7.-.7.+.+.+.O.+.+.+.+.+.+.+.+.+.O.O.*.5.7.8.-.8.8.5.-.-.-.7.q.q.7.9.7.q.q.q.6.7.-.7.7.8.8.-.*.-.*.6.P.e.C ' X.^ n l.J e ; p $.u 1 7 ",
"a.x.l.&.$.S G P b.(.z.l.$.s 7 - e m o.#.#.$.#.$.*.*.*.*.*.*.*.*.) *.#.U ;.8.8.;.#.U #.#.#.) *.;.3.4.l.l.3.4.4.3.p.4.2.8.%.<.p.j.<.:.>.&.&.<.<.;.&.-.u.8.5.5.6.-.-.-.#.Z B B =.d.f.S c 5 - 5 c ) *.-.;.8.7.7.8.w.q.q.7.7.-.-.*.#.=.e.t.*.*.*.*.*.*.6.5.5.7.-.*.O.*.6.*.*.' #.O.#.| ' O.5.*.5.5.5.5.*.+.+.+.+.+.+.+.@.+.q.q.+.+.q.9.5.o.Z B V &.p.i.A k 5 4 q M ` 5.5.q.7.7.-.;.&.&.$.;.*.;.-.*.6.q.q.q.q.7.q.+.+.+.+.+.+.+.o.%.-.5.5.7.-.-.6.5.8.6.-.*.-.q.q.q.q.q.7.5.7.7.8.8.7.7.8.6.-.=.-.=.*.=.I._.;.| e.W.) r * e N U r 1 ; ",
"g.g.a.$.#.K B f f g B d r - = 7 k ( *.;.U $.Y $.#.=.*.*.*.*.O.*.*.5.#.*.;.t.w.i.;.#.) #.*.O.#.-.3.3.4.4.3.3.4.4.4.c.4.2.;.$.<.2.l.&.&.&.$.$.;.<.*.#.-.7.5.q.7.7.-.%.%.#.d p u u u e - - 7 j S ' -.=.-.;.8.;.-.w.7.7.-.-.*.*.-.*.-.-.-.6.8.-.-.*.O.7.-.*.-.7.*.O.' 5.*.*.#.o.#.#.*.5.5.5.+.*.O.*.*.5.O.7.+.+.+.+.q.+.q.q.+.+.q.+.5.5.#.#.N t p r r 5 * - q k ( +.9.9.q.-.;.;.;.&.&.&.&.&.-.8.6.5.7.q.+.*.O.7.+.+.@.+.+.7.O.%.y.2.<.&.-.;.;.;.6.6.8.&.%.7.7.q.q.q.7.-.5.-.;.-.-.-.*.8.8.-.*.*.-.' A C #.a.p.#.N r - - r Z $.t ; ; ",
"a.a.p.U #.#.K f e , ; % = ; 7 u Z { &.;.#.U #.#.#.*.#.O.O.5.*.*.*.-.o.#.&.<.e.i.%.#.#.| *.o.o.#.$.&.&.4.4.4.4.4.3.1.2.2.7.*.&.$.<.&.$.#.#.U =.<.&.;.-.6.9.5.5.8.;.#.;.#.S c y 7 ; ; 0 r k A ) -.-.-.-.e.;.#.&.8.q.7.-.7.5.5.-.*.*.-.*.*.s.w.*.5.7.7.7.8.-.7.-.O.*.*.-.#.o.o.o.*.o.*.' O.*.O.*.' o.O.O.+.q.+.+.+.+.q.+.q.q.q.q.q.q.7.-.#.S N t e 5 5 q y l ` +.+.5.q.5.-.&.<.;.>.1.&.$.&.8.8.7.6.7.q.q.-.O.O.-.O.O.O.-.O.o.o.1.&.<.&.;.;.;.8.-.-.-.-.7.6.7.7.5.5.+.5.7.*.-.-.8.-.*.-.;.;.-.&.;.8.( c u t u r ; % - y k ( ;.t 1 1 ",
"x.x.d.#.#.#.K S B t 1 1 e r d B o.#.#.%.#.#.#.O.' 5.[ *.+.5.*.O.*.O.#.$.$.<.8.-.&.=.*.5.O.*.o.%.;.%.T 3.4.4.R c.j.<.&.8.8.5.#.#.&.#.$.$.#.>.;.#.;.-.6.5.5.9.5.5.;.;.;.#.#.K B N p p p N A ) *.-.-.-.6.e.t.&.&.%.8.-.-.7.-.7.*.-.-.*.*.*.*.5.*.*.7.7.-.*.6.5.#.#.#.O.*.#.o.=.) #.*.*.*.5.*.*.*.o.) O.O.+.+.+.+.q.q.5.5.q.+.q.q.q.5.*.*.*.#.#.B N k k E ^ ` 5.9.q.q.9.5.5.6.;.<.<.1.T &.$.-.7.+.+.+.q.q.7.O.O.%.-.o.o.S #.#.%.>.>.>.>.$.;.-.-.;.-.-.6.5.5.7.7.6.7.-.$.;.>.<.&.=.;.*.;.8.2.e.&.&.;.#.Z p y ; ; 7 e y N ( *.-.t ; 7 ",
"G.g.C ; & & & & & & % % % $ * & - & - - ; & - * 4 4 3 5 - - - - 4 5 - - - ; , ; ; - 3 4 - - - - ; ; & 1 2 2 2 1 1 e - - - 5 - & & & ; ; & , ; & & - 5 3 - 5 - 5 - - ; & & & % % % % % * & & - - - 4 - 5 ; & & & > - ; - - - - - - - - 5 - - 5 - & ; - ; 5 & & - - & & & - - - - - - 3 - - - - - - ; - - 4 3 4 4 4 4 4 - ; - 4 - 5 - ; & - & & * - - 5 4 4 4 4 4 4 4 5 4 - - ; ; & 1 ; ; ; ; ; 3 4 - - 0 - - - - ; & - ; - ; & & ; ; ; - 5 ; ; - - 5 5 5 ; - ; ; - ; ; : ; ; ; : & & , ; ; ; & ; & & % + @ o $   % * & & ; ; ; 7 ",
"G.N X   . . . X $ X . .   . + + @ @ o O @ @ o o O o O o O o o @ @ @ o o o $ . .   o @ @ @ @ @   @     X % X % % % X . X o $ $ $ @ X X X X X X . X @ O o @ O @ @ $ @ o     . X X X     o $ $ $ o + + + + $     . $ $ + $ o o + + @   @ @ @ @ o o $ $ $ @ @ $ .   o o o   o @ $ $ o @ o o O o o o @ @ @ @ O o o O @ o @     @ @ @ o @ $   $ $ . $ o $ O O O @ @ # # 3 $ O @ @ $ .   X   @   X o @ O O @ @ @ @ @ @       @ $ $ X X X X $ + $ $ X $ $ + O o $ o o $ + $ . $ X X . . X $   $ X X X X . . .             o   o   $ % ; ",
"C $ @   @   . . . X . . . . .       o o O @ O o O o O O O o o @ @ @ @ o o o o     @ o o @ @   @ @     X X X X X % X $   $ @ X $ X X @ $ X X . .   @ o o o o O O @ o $ X @ $ X X   $ X $ . o O @ @ # + + $ $ X $ $ $ $ o + + O + @       @ @ o o @ @   @ @ @ $ @ @ o o @ o @ $ O o o @ $ o o o o o @ # @ o o o o @ o @   @ @ @ @ @ o o o . $ $ O @ o o o O @ @ # O O @ O $ + + + $ @ $ $ X @ o o @ @ @ @ @ @ @ @ @ @ @ @ $ $ X X X + O $ + $ o $ o o O o @ o $ + $ + $ + $ X X . o $ X X X $ X . $ . + + +   o . . .   o   @ $ & "
};
